(G-CODE GENERATED BY FLATCAM v2022 - www.flatcam.org - Version Date: 2021/12/01)

(Name: Job_BCu_Flat)
(Type: G-code from Geometry)
(Units: MM)

(Created on Friday, 18 October 2024 at 10:54)

(TOOL DIAMETER: 1.5 mm)
(Feedrate: 1250.0 mm/min)
(Feedrate_Z: 250.0 mm/min)
(Feedrate rapids 1500.0 mm/min)

(Z_Cut: -0.04 mm)
(Z_Move: 0.5 mm)
(Z Toolchange: 15.0 mm)
(X,Y Toolchange: 0.0000, 0.0000 mm)
(Z Start: 0.5 mm)
(Z End: 2.0 mm)
(Steps per circle: 64)
(Preprocessor Geometry: default)

(X range:   11.2954 ...   89.6505  mm)
(Y range:    0.3495 ...   33.3904  mm)

(Spindle Speed: None RPM)
G21
G90
G94




G01 F1250.00
G00 Z0.5000
G00 Z0.5000
M03
G4 P1.0
G00 X28.7593 Y24.8651
G01 F250.00
G01 Z-0.0400
G01 F1250.00
G01 X28.7979 Y24.8290
G01 X28.7748 Y24.8143
G01 X28.7442 Y24.7938
G01 X28.7197 Y24.7767
G01 X28.7401 Y24.8204
G01 X28.7593 Y24.8651
G01 X28.3819 Y25.3818
G01 X28.4187 Y25.3887
G01 X28.4409 Y25.3937
G01 X28.4903 Y25.4063
G01 X28.5360 Y25.4203
G01 X28.5673 Y25.4312
G01 X28.5917 Y25.4403
G01 X28.6353 Y25.4586
G01 X28.6646 Y25.4722
G01 X28.6878 Y25.4836
G01 X28.7203 Y25.5009
G01 X28.7467 Y25.5161
G01 X28.7731 Y25.5321
G01 X28.7973 Y25.5480
G01 X29.1027 Y25.2426
G01 X29.1211 Y25.2247
G01 X29.1364 Y25.2105
G01 X29.1956 Y25.1571
G01 X29.2294 Y25.1289
G01 X29.2513 Y25.1120
G01 X29.3047 Y25.0724
G01 X29.3264 Y25.0568
G01 X29.3569 Y25.0363
G01 X29.3821 Y25.0206
G01 X29.4409 Y24.9854
G01 X29.4572 Y24.9760
G01 X29.4791 Y24.9641
G01 X29.5067 Y24.9500
G01 X29.5741 Y24.9180
G01 X29.5904 Y24.9105
G01 X29.6141 Y24.9002
G01 X29.6470 Y24.8872
G01 X29.7188 Y24.8614
G01 X29.7455 Y24.8523
G01 X29.7807 Y24.8416
G01 X29.8079 Y24.8343
G01 X29.8772 Y24.8171
G01 X29.8994 Y24.8120
G01 X29.9221 Y24.8074
G01 X29.9505 Y24.8025
G01 X30.0214 Y24.7919
G01 X30.0527 Y24.7878
G01 X30.0757 Y24.7854
G01 X30.1141 Y24.7827
G01 X30.1856 Y24.7793
G01 X30.2137 Y24.7786
G01 X33.3386 Y24.7785
G01 X33.3386 Y24.6472
G01 X29.9137 Y24.6471
G01 X29.8856 Y24.6464
G01 X29.8141 Y24.6430
G01 X29.7757 Y24.6403
G01 X29.7527 Y24.6379
G01 X29.7303 Y24.6351
G01 X29.6455 Y24.6225
G01 X29.6221 Y24.6183
G01 X29.5818 Y24.6098
G01 X29.5079 Y24.5914
G01 X29.4828 Y24.5847
G01 X29.4475 Y24.5741
G01 X29.4188 Y24.5644
G01 X29.3470 Y24.5385
G01 X29.3141 Y24.5255
G01 X29.2802 Y24.5106
G01 X29.2177 Y24.4811
G01 X29.2008 Y24.4729
G01 X29.1733 Y24.4586
G01 X29.1437 Y24.4420
G01 X29.0821 Y24.4051
G01 X29.0582 Y24.3902
G01 X29.0276 Y24.3698
G01 X29.0047 Y24.3534
G01 X28.9513 Y24.3138
G01 X28.9294 Y24.2969
G01 X28.9026 Y24.2747
G01 X28.8826 Y24.2571
G01 X28.8260 Y24.2057
G01 X28.8092 Y24.1896
G01 X28.7801 Y24.1598
G01 X28.7287 Y24.1032
G01 X28.7111 Y24.0832
G01 X28.6889 Y24.0564
G01 X28.6720 Y24.0345
G01 X28.6324 Y23.9811
G01 X28.6169 Y23.9594
G01 X28.5909 Y23.9202
G01 X28.5555 Y23.8617
G01 X28.5448 Y23.9030
G01 X28.5341 Y23.9383
G01 X28.5244 Y23.9670
G01 X28.4960 Y24.0458
G01 X28.4856 Y24.0717
G01 X28.4753 Y24.0954
G01 X28.4358 Y24.1791
G01 X28.4187 Y24.2125
G01 X28.4004 Y24.2449
G01 X28.3555 Y24.3194
G01 X28.3242 Y24.3662
G01 X28.2763 Y24.4312
G01 X28.2569 Y24.4564
G01 X28.2287 Y24.4902
G01 X28.1753 Y24.5494
G01 X28.1497 Y24.5766
G01 X28.1332 Y24.5930
G01 X28.1163 Y24.6090
G01 X28.0538 Y24.6655
G01 X28.0738 Y24.6912
G01 X28.1237 Y24.7587
G01 X28.1495 Y24.7969
G01 X28.1652 Y24.8220
G01 X28.2020 Y24.8836
G01 X28.2217 Y24.9190
G01 X28.2411 Y24.9576
G01 X28.2743 Y25.0281
G01 X28.2856 Y25.0540
G01 X28.2986 Y25.0869
G01 X28.3244 Y25.1587
G01 X28.3335 Y25.1854
G01 X28.3468 Y25.2301
G01 X28.3666 Y25.3083
G01 X28.3748 Y25.3440
G01 X28.3819 Y25.3818
G00 Z0.5000
G00 X33.3981 Y27.9472
G01 F250.00
G01 Z-0.0400
G01 F1250.00
G01 X31.3073 Y27.9472
G01 X31.3073 Y27.9785
G01 X33.3667 Y27.9785
G01 X33.3981 Y27.9472
G00 Z0.5000
G00 X52.0013 Y18.4344
G01 F250.00
G01 Z-0.0400
G01 F1250.00
G01 X52.0337 Y18.3907
G01 X52.0506 Y18.3689
G01 X52.0788 Y18.3351
G01 X52.1316 Y18.2765
G01 X52.0013 Y18.4068
G01 X52.0013 Y18.4344
G00 Z0.5000
G00 X56.4372 Y19.5312
G01 F250.00
G01 Z-0.0400
G01 F1250.00
G01 X56.5629 Y19.5497
G01 X56.6131 Y19.5585
G01 X56.6420 Y19.5643
G01 X56.6715 Y19.5710
G01 X56.7755 Y19.5969
G01 X56.8061 Y19.6049
G01 X56.8429 Y19.6156
G01 X56.8830 Y19.6282
G01 X56.9125 Y19.6384
G01 X56.9947 Y19.6678
G01 X57.0237 Y19.6786
G01 X57.0741 Y19.6989
G01 X57.1202 Y19.7195
G01 X57.2262 Y19.7698
G01 X57.2505 Y19.7821
G01 X57.2830 Y19.7994
G01 X57.3032 Y19.8106
G01 X57.3321 Y19.8274
G01 X57.4304 Y19.8867
G01 X57.4663 Y19.9099
G01 X57.4992 Y19.9325
G01 X57.5260 Y19.9518
G01 X57.6157 Y20.0187
G01 X57.6381 Y20.0363
G01 X57.6666 Y20.0597
G01 X57.7067 Y20.0946
G01 X57.7863 Y20.1670
G01 X57.8087 Y20.1883
G01 X57.8297 Y20.2091
G01 X57.8643 Y20.2453
G01 X57.9457 Y20.3354
G01 X57.9630 Y20.3556
G01 X57.9865 Y20.3840
G01 X58.0011 Y20.4023
G01 X58.0220 Y20.4298
G01 X58.0887 Y20.5201
G01 X58.1215 Y20.5680
G01 X58.1495 Y20.6123
G01 X58.2108 Y20.7150
G01 X58.2248 Y20.7399
G01 X58.2422 Y20.7724
G01 X58.2659 Y20.8200
G01 X58.3145 Y20.9233
G01 X58.3334 Y20.9673
G01 X58.3515 Y21.0135
G01 X58.3913 Y21.1245
G01 X58.4033 Y21.1603
G01 X58.4102 Y21.1829
G01 X58.4209 Y21.2197
G01 X58.4277 Y21.2456
G01 X58.4548 Y21.3543
G01 X58.4615 Y21.3838
G01 X58.4673 Y21.4126
G01 X58.4749 Y21.4548
G01 X58.4926 Y21.5735
G01 X58.4985 Y21.6219
G01 X58.5013 Y21.6514
G01 X58.5040 Y21.6882
G01 X58.5097 Y21.8036
G01 X58.5109 Y21.8537
G01 X58.5108 Y21.8832
G01 X58.5100 Y21.9141
G01 X58.5047 Y22.0248
G01 X58.5009 Y22.0793
G01 X58.4978 Y22.1101
G01 X58.4936 Y22.1445
G01 X58.4761 Y22.2628
G01 X58.4673 Y22.3131
G01 X58.4615 Y22.3419
G01 X58.4548 Y22.3715
G01 X58.4277 Y22.4801
G01 X58.4209 Y22.5060
G01 X58.4102 Y22.5429
G01 X58.3940 Y22.5935
G01 X58.3564 Y22.6991
G01 X58.3472 Y22.7236
G01 X58.3334 Y22.7584
G01 X58.3145 Y22.8024
G01 X58.2659 Y22.9057
G01 X58.2437 Y22.9504
G01 X58.2264 Y22.9829
G01 X58.2118 Y23.0090
G01 X58.1984 Y23.0320
G01 X58.1483 Y23.1155
G01 X58.1215 Y23.1578
G01 X58.0991 Y23.1909
G01 X58.0843 Y23.2117
G01 X58.0843 Y23.5103
G01 X58.1444 Y23.5769
G01 X58.1787 Y23.6176
G01 X58.2007 Y23.6453
G01 X58.2157 Y23.6650
G01 X58.2970 Y23.7749
G01 X58.3271 Y23.8184
G01 X58.3536 Y23.8596
G01 X58.4224 Y23.9740
G01 X58.4410 Y24.0060
G01 X58.7548 Y23.6921
G01 X58.7570 Y23.6899
G01 X58.7872 Y23.6608
G01 X58.8044 Y23.6448
G01 X58.8796 Y23.5770
G01 X58.9000 Y23.5594
G01 X58.9269 Y23.5373
G01 X58.9683 Y23.5050
G01 X59.0329 Y23.4571
G01 X59.0659 Y23.4333
G01 X59.1069 Y23.4058
G01 X59.1309 Y23.3904
G01 X59.2161 Y23.3391
G01 X59.2486 Y23.3202
G01 X59.2814 Y23.3022
G01 X59.3180 Y23.2834
G01 X59.4114 Y23.2390
G01 X59.4345 Y23.2283
G01 X59.4697 Y23.2130
G01 X59.5044 Y23.1990
G01 X59.5378 Y23.1864
G01 X59.6364 Y23.1514
G01 X59.6730 Y23.1395
G01 X59.7192 Y23.1261
G01 X59.7498 Y23.1180
G01 X59.8253 Y23.0991
G01 X59.8477 Y23.0938
G01 X59.8820 Y23.0863
G01 X59.9111 Y23.0805
G01 X59.9422 Y23.0751
G01 X60.0368 Y23.0609
G01 X60.0908 Y23.0540
G01 X60.1215 Y23.0509
G01 X60.1519 Y23.0485
G01 X60.2540 Y23.0432
G01 X60.2990 Y23.0418
G01 X60.3256 Y23.0415
G01 X63.8016 Y23.0415
G01 X63.8016 Y22.5488
G01 X60.1370 Y18.8842
G01 X57.4370 Y18.8842
G01 X57.3228 Y18.9384
G01 X57.2940 Y18.9516
G01 X57.2557 Y18.9680
G01 X57.2209 Y18.9818
G01 X57.1963 Y18.9909
G01 X57.0803 Y19.0324
G01 X57.0358 Y19.0473
G01 X57.0006 Y19.0579
G01 X56.9731 Y19.0657
G01 X56.8796 Y19.0894
G01 X56.4372 Y19.5312
G01 X57.6014 Y19.3942
G01 X57.6934 Y19.4496
G01 X57.7274 Y19.4712
G01 X57.7536 Y19.4885
G01 X57.7907 Y19.5140
G01 X57.8236 Y19.5377
G01 X57.9024 Y19.5960
G01 X57.9421 Y19.6265
G01 X57.9901 Y19.6655
G01 X58.0167 Y19.6879
G01 X58.0469 Y19.7146
G01 X58.1173 Y19.7785
G01 X58.1403 Y19.7997
G01 X58.1706 Y19.8289
G01 X58.1991 Y19.8574
G01 X58.2303 Y19.8901
G01 X58.3272 Y19.9970
G01 X58.3523 Y20.0261
G01 X58.3798 Y20.0593
G01 X58.4022 Y20.0874
G01 X58.4296 Y20.1232
G01 X58.4851 Y20.1981
G01 X58.5118 Y20.2351
G01 X58.5458 Y20.2849
G01 X58.5712 Y20.3244
G01 X58.5880 Y20.3517
G01 X58.6406 Y20.4396
G01 X58.6577 Y20.4691
G01 X58.6746 Y20.4995
G01 X58.7006 Y20.5486
G01 X58.7215 Y20.5907
G01 X58.7722 Y20.6978
G01 X58.7844 Y20.7249
G01 X58.8014 Y20.7645
G01 X58.8172 Y20.8037
G01 X58.8276 Y20.8306
G01 X58.8676 Y20.9415
G01 X58.8785 Y20.9730
G01 X58.8910 Y21.0113
G01 X58.9092 Y21.0723
G01 X58.9218 Y21.1193
G01 X58.9488 Y21.2272
G01 X58.9577 Y21.2658
G01 X58.9632 Y21.2916
G01 X58.9707 Y21.3300
G01 X58.9768 Y21.3642
G01 X58.9823 Y21.3989
G01 X58.9956 Y21.4883
G01 X59.0031 Y21.5451
G01 X59.0087 Y21.5990
G01 X59.0127 Y21.6517
G01 X59.0188 Y21.7709
G01 X59.0205 Y21.8237
G01 X59.0208 Y21.8846
G01 X59.0194 Y21.9393
G01 X59.0133 Y22.0641
G01 X59.0087 Y22.1268
G01 X59.0031 Y22.1806
G01 X58.9953 Y22.2389
G01 X58.9784 Y22.3521
G01 X58.9713 Y22.3926
G01 X58.9638 Y22.4310
G01 X58.9584 Y22.4569
G01 X58.9495 Y22.4956
G01 X58.9218 Y22.6064
G01 X58.9092 Y22.6534
G01 X58.8910 Y22.7144
G01 X58.8715 Y22.7731
G01 X58.8276 Y22.8952
G01 X58.8172 Y22.9221
G01 X58.8014 Y22.9612
G01 X58.7798 Y23.0112
G01 X58.8392 Y22.9715
G01 X58.8871 Y22.9417
G01 X58.9765 Y22.8883
G01 X59.0055 Y22.8718
G01 X59.0447 Y22.8504
G01 X59.0558 Y22.8447
G01 X59.0776 Y22.8335
G01 X59.0813 Y22.8316
G01 X59.1058 Y22.8195
G01 X59.2211 Y22.7651
G01 X59.2757 Y22.7414
G01 X59.3193 Y22.7238
G01 X59.3484 Y22.7127
G01 X59.4574 Y22.6736
G01 X59.4843 Y22.6645
G01 X59.5256 Y22.6513
G01 X59.5718 Y22.6377
G01 X59.6002 Y22.6300
G01 X59.7146 Y22.6012
G01 X59.7532 Y22.5923
G01 X59.7791 Y22.5868
G01 X59.8174 Y22.5792
G01 X59.8516 Y22.5732
G01 X59.8864 Y22.5677
G01 X59.9679 Y22.5556
G01 X59.9965 Y22.5517
G01 X60.0340 Y22.5471
G01 X60.0854 Y22.5421
G01 X60.1478 Y22.5379
G01 X60.2507 Y22.5329
G01 X60.2896 Y22.5318
G01 X60.3193 Y22.5315
G01 X63.0630 Y22.5315
G01 X59.9257 Y19.3942
G01 X57.6014 Y19.3942
G01 X58.9021 Y19.9042
G01 X58.9289 Y19.9416
G01 X58.9714 Y20.0039
G01 X59.0066 Y20.0588
G01 X59.0246 Y20.0882
G01 X59.0741 Y20.1707
G01 X59.1015 Y20.2177
G01 X59.1244 Y20.2591
G01 X59.1590 Y20.3249
G01 X59.1853 Y20.3782
G01 X59.2265 Y20.4655
G01 X59.2492 Y20.5150
G01 X59.2722 Y20.5683
G01 X59.2942 Y20.6229
G01 X59.3139 Y20.6752
G01 X59.3509 Y20.7784
G01 X59.3659 Y20.8224
G01 X59.3839 Y20.8788
G01 X59.4054 Y20.9530
G01 X59.4181 Y21.0013
G01 X59.4472 Y21.1183
G01 X59.4602 Y21.1764
G01 X59.4711 Y21.2313
G01 X59.4832 Y21.3006
G01 X59.5010 Y21.4202
G01 X59.5094 Y21.4838
G01 X59.5153 Y21.5391
G01 X59.5204 Y21.6010
G01 X59.5235 Y21.6509
G01 X59.5237 Y21.6541
G01 X59.5280 Y21.7412
G01 X59.5280 Y21.7420
G01 X59.5291 Y21.7668
G01 X59.5308 Y21.8396
G01 X59.5307 Y21.8957
G01 X59.5293 Y21.9517
G01 X59.5235 Y22.0741
G01 X59.5205 Y22.1239
G01 X59.6177 Y22.1000
G01 X59.6592 Y22.0908
G01 X59.7049 Y22.0815
G01 X59.7378 Y22.0754
G01 X59.7799 Y22.0681
G01 X59.8939 Y22.0510
G01 X59.9307 Y22.0459
G01 X59.9680 Y22.0414
G01 X60.0395 Y22.0342
G01 X60.1069 Y22.0294
G01 X60.2125 Y22.0241
G01 X60.2739 Y22.0221
G01 X60.3232 Y22.0215
G01 X61.8317 Y22.0215
G01 X59.7145 Y19.9042
G01 X58.9021 Y19.9042
G01 X59.8935 Y20.8045
G01 X59.9114 Y20.8720
G01 X59.9439 Y21.0026
G01 X59.9595 Y21.0727
G01 X59.9740 Y21.1456
G01 X59.9822 Y21.1925
G01 X59.9879 Y21.2273
G01 X60.0088 Y21.3685
G01 X60.0184 Y21.4461
G01 X60.0260 Y21.5237
G01 X60.0814 Y21.5200
G01 X60.1801 Y21.5150
G01 X60.2243 Y21.5132
G01 X60.2677 Y21.5121
G01 X60.3221 Y21.5115
G01 X60.6005 Y21.5115
G01 X59.8935 Y20.8045
G01 X58.2285 Y24.9397
G01 X59.1220 Y24.0463
G01 X59.1424 Y24.0268
G01 X59.2046 Y23.9704
G01 X59.2246 Y23.9528
G01 X59.2587 Y23.9249
G01 X59.3367 Y23.8667
G01 X59.3596 Y23.8503
G01 X59.3902 Y23.8299
G01 X59.4141 Y23.8150
G01 X59.4971 Y23.7656
G01 X59.5218 Y23.7520
G01 X59.5604 Y23.7326
G01 X59.6342 Y23.6978
G01 X59.6681 Y23.6829
G01 X59.7010 Y23.6698
G01 X59.7884 Y23.6384
G01 X59.8178 Y23.6286
G01 X59.8525 Y23.6183
G01 X59.9597 Y23.5913
G01 X60.0000 Y23.5828
G01 X60.0234 Y23.5786
G01 X60.1116 Y23.5654
G01 X60.1475 Y23.5608
G01 X60.1709 Y23.5585
G01 X60.2043 Y23.5563
G01 X60.2882 Y23.5522
G01 X60.3164 Y23.5515
G01 X64.3116 Y23.5515
G01 X64.3116 Y22.3376
G01 X60.3482 Y18.3742
G01 X57.3074 Y18.3742
G01 X57.2669 Y18.3980
G01 X57.2345 Y18.4154
G01 X57.2075 Y18.4288
G01 X57.0898 Y18.4843
G01 X57.0661 Y18.4945
G01 X57.0401 Y18.5049
G01 X57.0201 Y18.5124
G01 X56.8970 Y18.5562
G01 X56.8525 Y18.5699
G01 X56.8253 Y18.5772
G01 X56.7031 Y18.6077
G01 X56.6628 Y18.6163
G01 X56.6231 Y18.6229
G01 X55.0942 Y20.1519
G01 X55.0942 Y20.3344
G01 X55.1716 Y20.2978
G01 X55.1986 Y20.2857
G01 X55.2314 Y20.2725
G01 X55.2617 Y20.2613
G01 X55.2804 Y20.2508
G01 X55.3128 Y20.2334
G01 X55.3381 Y20.2209
G01 X55.4311 Y20.1771
G01 X55.4570 Y20.1659
G01 X55.4830 Y20.1555
G01 X55.5890 Y20.1172
G01 X55.6256 Y20.1052
G01 X55.6604 Y20.0952
G01 X55.7589 Y20.0704
G01 X55.7899 Y20.0632
G01 X55.8126 Y20.0586
G01 X55.8503 Y20.0522
G01 X55.9366 Y20.0394
G01 X55.9678 Y20.0353
G01 X55.9908 Y20.0330
G01 X56.0292 Y20.0303
G01 X56.1164 Y20.0260
G01 X56.1537 Y20.0249
G01 X56.1770 Y20.0250
G01 X56.2095 Y20.0260
G01 X56.2966 Y20.0303
G01 X56.3351 Y20.0330
G01 X56.3581 Y20.0353
G01 X56.3893 Y20.0394
G01 X56.4756 Y20.0522
G01 X56.5133 Y20.0586
G01 X56.5360 Y20.0632
G01 X56.5670 Y20.0704
G01 X56.6654 Y20.0952
G01 X56.7002 Y20.1052
G01 X56.7348 Y20.1165
G01 X56.8229 Y20.1480
G01 X56.8429 Y20.1555
G01 X56.8689 Y20.1659
G01 X56.9028 Y20.1808
G01 X56.9878 Y20.2209
G01 X57.0110 Y20.2324
G01 X57.0435 Y20.2497
G01 X57.0699 Y20.2649
G01 X57.1447 Y20.3097
G01 X57.1790 Y20.3313
G01 X57.2036 Y20.3481
G01 X57.2222 Y20.3614
G01 X57.2922 Y20.4134
G01 X57.3146 Y20.4306
G01 X57.3430 Y20.4539
G01 X57.3642 Y20.4725
G01 X57.4289 Y20.5311
G01 X57.4561 Y20.5567
G01 X57.4725 Y20.5732
G01 X57.4885 Y20.5902
G01 X57.5533 Y20.6616
G01 X57.5697 Y20.6802
G01 X57.5932 Y20.7086
G01 X57.6124 Y20.7336
G01 X57.6644 Y20.8036
G01 X57.6777 Y20.8222
G01 X57.6945 Y20.8468
G01 X57.7143 Y20.8781
G01 X57.7609 Y20.9559
G01 X57.7750 Y20.9803
G01 X57.7968 Y21.0215
G01 X57.8450 Y21.1230
G01 X57.8599 Y21.1569
G01 X57.8703 Y21.1829
G01 X57.8778 Y21.2029
G01 X57.9126 Y21.3008
G01 X57.9206 Y21.3256
G01 X57.9286 Y21.3530
G01 X57.9554 Y21.4588
G01 X57.9636 Y21.4945
G01 X57.9681 Y21.5174
G01 X57.9721 Y21.5409
G01 X57.9883 Y21.6500
G01 X57.9928 Y21.6907
G01 X57.9947 Y21.7147
G01 X57.9998 Y21.8163
G01 X58.0009 Y21.8537
G01 X58.0008 Y21.8770
G01 X58.0002 Y21.9002
G01 X57.9950 Y22.0060
G01 X57.9933 Y22.0300
G01 X57.9910 Y22.0533
G01 X57.9864 Y22.0892
G01 X57.9736 Y22.1755
G01 X57.9681 Y22.2083
G01 X57.9636 Y22.2312
G01 X57.9554 Y22.2669
G01 X57.9342 Y22.3515
G01 X57.9286 Y22.3727
G01 X57.9206 Y22.4002
G01 X57.9093 Y22.4347
G01 X57.8730 Y22.5359
G01 X57.8599 Y22.5688
G01 X57.8497 Y22.5925
G01 X57.8049 Y22.6877
G01 X57.7934 Y22.7109
G01 X57.7761 Y22.7434
G01 X57.7609 Y22.7698
G01 X57.7087 Y22.8568
G01 X57.6945 Y22.8789
G01 X57.6777 Y22.9036
G01 X57.6124 Y22.9922
G01 X57.5952 Y23.0145
G01 X57.5743 Y23.0400
G01 X57.5743 Y23.7205
G01 X57.6153 Y23.7577
G01 X57.6322 Y23.7737
G01 X57.6487 Y23.7901
G01 X57.6648 Y23.8070
G01 X57.7550 Y23.9064
G01 X57.7755 Y23.9303
G01 X57.7965 Y23.9563
G01 X57.8756 Y24.0625
G01 X57.8889 Y24.0810
G01 X57.9057 Y24.1057
G01 X57.9245 Y24.1354
G01 X57.9850 Y24.2362
G01 X57.9981 Y24.2589
G01 X58.0155 Y24.2913
G01 X58.0289 Y24.3183
G01 X58.0768 Y24.4197
G01 X58.0843 Y24.4360
G01 X58.0946 Y24.4597
G01 X58.1050 Y24.4857
G01 X58.1125 Y24.5057
G01 X58.1502 Y24.6114
G01 X58.1593 Y24.6380
G01 X58.1700 Y24.6733
G01 X58.1773 Y24.7005
G01 X58.2078 Y24.8227
G01 X58.2127 Y24.8449
G01 X58.2172 Y24.8679
G01 X58.2213 Y24.8913
G01 X58.2285 Y24.9397
G00 Z0.5000
G00 X54.1516 Y24.4785
G01 F250.00
G01 Z-0.0400
G01 F1250.00
G01 X53.0833 Y25.5468
G01 X53.4588 Y25.5468
G01 X54.1029 Y24.9027
G01 X54.1095 Y24.8630
G01 X54.1181 Y24.8227
G01 X54.1516 Y24.6892
G01 X54.1516 Y24.4785
G00 Z0.5000
G00 X63.9704 Y8.2138
G01 F250.00
G01 Z-0.0400
G01 F1250.00
G01 X63.9147 Y8.2400
G01 X63.8865 Y8.2522
G01 X63.9320 Y8.2522
G01 X63.9704 Y8.2138
G00 Z0.5000
M05
G00 Z0.5000
G00 Z2.00
G00 X0.0 Y0.0

