(G-CODE GENERATED BY FLATCAM v2022 - www.flatcam.org - Version Date: 2021/12/01)

(Name: Job_BCu_Engraving)
(Type: G-code from Geometry)
(Units: MM)

(Created on Friday, 18 October 2024 at 10:54)

(TOOL DIAMETER: 0.199 mm)
(Feedrate: 2500.0 mm/min)
(Feedrate_Z: 250.0 mm/min)
(Feedrate rapids 1500.0 mm/min)

(Z_Cut: -0.04 mm)
(Z_Move: 0.5 mm)
(Z Toolchange: 15.0 mm)
(X,Y Toolchange: 0.0000, 0.0000 mm)
(Z Start: 0.5 mm)
(Z End: 2.0 mm)
(Steps per circle: 64)
(Preprocessor Geometry: default)

(X range:   11.2954 ...   89.6505  mm)
(Y range:    0.3495 ...   33.3904  mm)

(Spindle Speed: None RPM)
G21
G90
G94




G01 F2500.00
G00 Z0.5000
G00 Z0.5000
M03
G4 P1.0
G00 X11.4745 Y0.7797
G01 F250.00
G01 Z-0.0400
G01 F2500.00
G01 X11.4785 Y0.7663
G01 X11.4845 Y0.7493
G01 X11.4924 Y0.7300
G01 X11.5050 Y0.7043
G01 X11.5218 Y0.6764
G01 X11.5285 Y0.6669
G01 X11.5416 Y0.6494
G01 X11.5489 Y0.6408
G01 X11.5613 Y0.6271
G01 X11.5710 Y0.6173
G01 X11.5848 Y0.6047
G01 X11.6011 Y0.5912
G01 X11.6157 Y0.5805
G01 X11.6248 Y0.5742
G01 X11.6427 Y0.5634
G01 X11.6533 Y0.5574
G01 X11.6827 Y0.5435
G01 X11.7105 Y0.5332
G01 X11.7240 Y0.5290
G01 X11.7411 Y0.5247
G01 X11.7613 Y0.5205
G01 X11.7791 Y0.5179
G01 X11.7902 Y0.5167
G01 X11.8227 Y0.5152
G01 X89.1229 Y0.5152
G01 X89.1345 Y0.5155
G01 X89.1580 Y0.5169
G01 X89.1698 Y0.5183
G01 X89.1929 Y0.5220
G01 X89.2169 Y0.5277
G01 X89.2284 Y0.5309
G01 X89.2387 Y0.5343
G01 X89.2603 Y0.5423
G01 X89.2853 Y0.5537
G01 X89.3031 Y0.5633
G01 X89.3256 Y0.5773
G01 X89.3518 Y0.5968
G01 X89.3735 Y0.6160
G01 X89.3868 Y0.6295
G01 X89.3979 Y0.6419
G01 X89.4050 Y0.6504
G01 X89.4234 Y0.6754
G01 X89.4377 Y0.6986
G01 X89.4472 Y0.7166
G01 X89.4585 Y0.7417
G01 X89.4692 Y0.7718
G01 X89.4763 Y0.7991
G01 X89.4798 Y0.8178
G01 X89.4823 Y0.8349
G01 X89.4834 Y0.8455
G01 X89.4848 Y0.8766
G01 X89.4848 Y28.3504
G01 X89.4845 Y28.3619
G01 X89.4832 Y28.3845
G01 X89.4792 Y28.4138
G01 X89.4768 Y28.4259
G01 X89.4723 Y28.4443
G01 X89.4659 Y28.4655
G01 X89.4562 Y28.4914
G01 X89.4472 Y28.5109
G01 X89.4420 Y28.5211
G01 X89.4364 Y28.5310
G01 X89.4244 Y28.5506
G01 X89.4086 Y28.5725
G01 X89.4086 Y30.1533
G01 X89.4255 Y30.1769
G01 X89.4364 Y30.1947
G01 X89.4423 Y30.2052
G01 X89.4562 Y30.2344
G01 X89.4659 Y30.2601
G01 X89.4723 Y30.2814
G01 X89.4768 Y30.2998
G01 X89.4792 Y30.3120
G01 X89.4832 Y30.3412
G01 X89.4848 Y30.3737
G01 X89.4848 Y32.8645
G01 X89.4839 Y32.8873
G01 X89.4830 Y32.8995
G01 X89.4798 Y32.9221
G01 X89.4777 Y32.9345
G01 X89.4723 Y32.9568
G01 X89.4690 Y32.9685
G01 X89.4614 Y32.9906
G01 X89.4569 Y33.0023
G01 X89.4428 Y33.0322
G01 X89.4300 Y33.0542
G01 X89.4191 Y33.0706
G01 X89.4032 Y33.0918
G01 X89.3958 Y33.1005
G01 X89.3817 Y33.1158
G01 X89.3741 Y33.1233
G01 X89.3612 Y33.1351
G01 X89.3460 Y33.1477
G01 X89.3230 Y33.1644
G01 X89.2953 Y33.1810
G01 X89.2720 Y33.1925
G01 X89.2530 Y33.2005
G01 X89.2276 Y33.2093
G01 X89.1977 Y33.2169
G01 X89.1868 Y33.2190
G01 X89.1698 Y33.2216
G01 X89.1511 Y33.2236
G01 X89.1229 Y33.2247
G01 X11.8229 Y33.2247
G01 X11.7990 Y33.2239
G01 X11.7863 Y33.2229
G01 X11.7637 Y33.2198
G01 X11.7513 Y33.2176
G01 X11.7290 Y33.2122
G01 X11.7179 Y33.2092
G01 X11.6952 Y33.2013
G01 X11.6835 Y33.1968
G01 X11.6544 Y33.1831
G01 X11.6316 Y33.1699
G01 X11.6158 Y33.1596
G01 X11.5940 Y33.1431
G01 X11.5724 Y33.1239
G01 X11.5591 Y33.1104
G01 X11.5479 Y33.0980
G01 X11.5406 Y33.0892
G01 X11.5221 Y33.0640
G01 X11.5071 Y33.0395
G01 X11.4986 Y33.0233
G01 X11.4914 Y33.0078
G01 X11.4870 Y32.9974
G01 X11.4768 Y32.9684
G01 X11.4695 Y32.9402
G01 X11.4660 Y32.9221
G01 X11.4635 Y32.9048
G01 X11.4625 Y32.8945
G01 X11.4611 Y32.8641
G01 X11.4611 Y0.8771
G01 X11.4622 Y0.8491
G01 X11.4640 Y0.8317
G01 X11.4682 Y0.8053
G01 X11.4745 Y0.7797
G01 X11.5398 Y0.7976
G01 X11.5428 Y0.7873
G01 X11.5503 Y0.7665
G01 X11.5544 Y0.7570
G01 X11.5635 Y0.7383
G01 X11.5788 Y0.7128
G01 X11.5916 Y0.6954
G01 X11.5996 Y0.6856
G01 X11.6121 Y0.6718
G01 X11.6208 Y0.6634
G01 X11.6370 Y0.6490
G01 X11.6533 Y0.6368
G01 X11.6634 Y0.6299
G01 X11.6814 Y0.6192
G01 X11.6910 Y0.6142
G01 X11.7095 Y0.6056
G01 X11.7367 Y0.5958
G01 X11.7648 Y0.5886
G01 X11.7936 Y0.5843
G01 X11.8229 Y0.5828
G01 X89.1229 Y0.5828
G01 X89.1513 Y0.5842
G01 X89.1797 Y0.5884
G01 X89.2090 Y0.5957
G01 X89.2348 Y0.6049
G01 X89.2623 Y0.6180
G01 X89.2866 Y0.6326
G01 X89.3087 Y0.6489
G01 X89.3304 Y0.6684
G01 X89.3450 Y0.6842
G01 X89.3511 Y0.6913
G01 X89.3672 Y0.7130
G01 X89.3816 Y0.7369
G01 X89.3855 Y0.7444
G01 X89.3942 Y0.7631
G01 X89.3977 Y0.7721
G01 X89.4044 Y0.7914
G01 X89.4113 Y0.8187
G01 X89.4156 Y0.8472
G01 X89.4172 Y0.8771
G01 X89.4172 Y28.3504
G01 X89.4158 Y28.3786
G01 X89.4116 Y28.4071
G01 X89.4052 Y28.4334
G01 X89.4019 Y28.4436
G01 X89.3956 Y28.4610
G01 X89.3914 Y28.4705
G01 X89.3832 Y28.4875
G01 X89.3711 Y28.5083
G01 X89.3646 Y28.5182
G01 X89.3543 Y28.5321
G01 X89.3478 Y28.5401
G01 X89.3409 Y28.5478
G01 X89.3409 Y30.1780
G01 X89.3478 Y30.1856
G01 X89.3543 Y30.1936
G01 X89.3638 Y30.2064
G01 X89.3699 Y30.2155
G01 X89.3828 Y30.2375
G01 X89.3920 Y30.2564
G01 X89.3954 Y30.2643
G01 X89.4050 Y30.2915
G01 X89.4113 Y30.3170
G01 X89.4156 Y30.3455
G01 X89.4171 Y30.3721
G01 X89.4172 Y32.8629
G01 X89.4160 Y32.8886
G01 X89.4129 Y32.9122
G01 X89.4105 Y32.9252
G01 X89.4042 Y32.9491
G01 X89.3972 Y32.9692
G01 X89.3914 Y32.9830
G01 X89.3825 Y33.0013
G01 X89.3685 Y33.0249
G01 X89.3543 Y33.0446
G01 X89.3453 Y33.0554
G01 X89.3304 Y33.0715
G01 X89.3114 Y33.0888
G01 X89.2918 Y33.1037
G01 X89.2795 Y33.1119
G01 X89.2608 Y33.1228
G01 X89.2371 Y33.1340
G01 X89.2279 Y33.1376
G01 X89.2092 Y33.1441
G01 X89.1813 Y33.1512
G01 X89.1528 Y33.1556
G01 X89.1229 Y33.1571
G01 X11.8229 Y33.1571
G01 X11.7930 Y33.1556
G01 X11.7646 Y33.1512
G01 X11.7371 Y33.1443
G01 X11.7093 Y33.1342
G01 X11.6833 Y33.1218
G01 X11.6587 Y33.1069
G01 X11.6372 Y33.0910
G01 X11.6149 Y33.0709
G01 X11.5948 Y33.0486
G01 X11.5782 Y33.0262
G01 X11.5638 Y33.0022
G01 X11.5508 Y32.9747
G01 X11.5416 Y32.9490
G01 X11.5345 Y32.9209
G01 X11.5302 Y32.8922
G01 X11.5287 Y32.8637
G01 X11.5287 Y0.8771
G01 X11.5297 Y0.8536
G01 X11.5310 Y0.8409
G01 X11.5346 Y0.8187
G01 X11.5398 Y0.7976
G00 Z0.5000
G00 X11.6049 Y0.8160
G01 F250.00
G01 Z-0.0400
G01 F2500.00
G01 X11.6077 Y0.8067
G01 X11.6119 Y0.7949
G01 X11.6156 Y0.7859
G01 X11.6239 Y0.7688
G01 X11.6346 Y0.7512
G01 X11.6476 Y0.7335
G01 X11.6605 Y0.7191
G01 X11.6755 Y0.7051
G01 X11.6831 Y0.6989
G01 X11.6969 Y0.6888
G01 X11.7161 Y0.6773
G01 X11.7362 Y0.6677
G01 X11.7525 Y0.6618
G01 X11.7619 Y0.6590
G01 X11.7824 Y0.6542
G01 X11.8016 Y0.6515
G01 X11.8229 Y0.6505
G01 X89.1229 Y0.6505
G01 X89.1453 Y0.6516
G01 X89.1672 Y0.6549
G01 X89.1881 Y0.6601
G01 X89.2093 Y0.6676
G01 X89.2254 Y0.6751
G01 X89.2340 Y0.6797
G01 X89.2494 Y0.6891
G01 X89.2656 Y0.7011
G01 X89.2796 Y0.7135
G01 X89.2865 Y0.7204
G01 X89.2989 Y0.7344
G01 X89.3112 Y0.7510
G01 X89.3203 Y0.7660
G01 X89.3249 Y0.7746
G01 X89.3323 Y0.7904
G01 X89.3397 Y0.8113
G01 X89.3451 Y0.8328
G01 X89.3478 Y0.8500
G01 X89.3486 Y0.8572
G01 X89.3495 Y0.8771
G01 X89.3495 Y28.3504
G01 X89.3484 Y28.3727
G01 X89.3451 Y28.3947
G01 X89.3399 Y28.4156
G01 X89.3340 Y28.4325
G01 X89.3303 Y28.4416
G01 X89.3214 Y28.4596
G01 X89.3139 Y28.4721
G01 X89.3091 Y28.4795
G01 X89.2958 Y28.4968
G01 X89.2831 Y28.5106
G01 X89.2733 Y28.5197
G01 X89.2733 Y30.2060
G01 X89.2831 Y30.2151
G01 X89.2958 Y30.2289
G01 X89.3085 Y30.2455
G01 X89.3139 Y30.2536
G01 X89.3227 Y30.2685
G01 X89.3307 Y30.2850
G01 X89.3340 Y30.2932
G01 X89.3397 Y30.3096
G01 X89.3446 Y30.3287
G01 X89.3484 Y30.3530
G01 X89.3495 Y30.3729
G01 X89.3495 Y32.8629
G01 X89.3484 Y32.8852
G01 X89.3451 Y32.9072
G01 X89.3399 Y32.9281
G01 X89.3324 Y32.9492
G01 X89.3247 Y32.9658
G01 X89.3203 Y32.9739
G01 X89.3113 Y32.9887
G01 X89.2989 Y33.0055
G01 X89.2865 Y33.0195
G01 X89.2796 Y33.0264
G01 X89.2656 Y33.0389
G01 X89.2490 Y33.0511
G01 X89.2340 Y33.0603
G01 X89.2254 Y33.0649
G01 X89.2096 Y33.0722
G01 X89.1887 Y33.0797
G01 X89.1672 Y33.0851
G01 X89.1500 Y33.0877
G01 X89.1428 Y33.0885
G01 X89.1229 Y33.0894
G01 X11.8229 Y33.0894
G01 X11.8006 Y33.0883
G01 X11.7786 Y33.0851
G01 X11.7577 Y33.0798
G01 X11.7366 Y33.0723
G01 X11.7205 Y33.0649
G01 X11.7119 Y33.0603
G01 X11.6971 Y33.0512
G01 X11.6803 Y33.0389
G01 X11.6663 Y33.0264
G01 X11.6594 Y33.0195
G01 X11.6469 Y33.0055
G01 X11.6347 Y32.9889
G01 X11.6255 Y32.9739
G01 X11.6209 Y32.9653
G01 X11.6136 Y32.9496
G01 X11.6061 Y32.9286
G01 X11.6012 Y32.9095
G01 X11.5999 Y32.9023
G01 X11.5975 Y32.8852
G01 X11.5964 Y32.8629
G01 X11.5964 Y0.8771
G01 X11.5972 Y0.8576
G01 X11.5981 Y0.8500
G01 X11.6007 Y0.8328
G01 X11.6049 Y0.8160
G00 Z0.5000
G00 X13.7776 Y2.5945
G01 F250.00
G01 Z-0.0400
G01 F2500.00
G01 X13.8574 Y2.5147
G01 X13.9703 Y2.5147
G01 X13.8904 Y2.5433
G01 X13.8712 Y2.5508
G01 X13.8541 Y2.5584
G01 X13.7776 Y2.5945
G01 X15.2756 Y2.5147
G01 X15.3885 Y2.5147
G01 X15.4683 Y2.5945
G01 X15.3917 Y2.5583
G01 X15.3747 Y2.5508
G01 X15.3554 Y2.5433
G01 X15.2756 Y2.5147
G01 X16.3913 Y3.5175
G01 X16.4711 Y3.5973
G01 X16.4711 Y3.7102
G01 X16.4426 Y3.6307
G01 X16.4355 Y3.6124
G01 X16.4275 Y3.5942
G01 X16.3913 Y3.5175
G01 X16.4711 Y5.0155
G01 X16.4711 Y5.1284
G01 X16.3913 Y5.2082
G01 X16.4275 Y5.1316
G01 X16.4355 Y5.1134
G01 X16.4427 Y5.0947
G01 X16.4711 Y5.0155
G00 Z0.5000
G00 X15.2804 Y6.5012
G01 F250.00
G01 Z-0.0400
G01 F2500.00
G01 X15.2921 Y6.5059
G01 X15.3115 Y6.5152
G01 X15.3205 Y6.5201
G01 X15.3384 Y6.5311
G01 X15.3553 Y6.5434
G01 X15.3637 Y6.5501
G01 X15.3801 Y6.5648
G01 X15.3886 Y6.5735
G01 X15.4025 Y6.5892
G01 X15.4150 Y6.6057
G01 X15.4218 Y6.6156
G01 X15.4321 Y6.6327
G01 X15.4377 Y6.6433
G01 X15.4467 Y6.6627
G01 X15.4547 Y6.6843
G01 X15.4581 Y6.6954
G01 X15.4628 Y6.7144
G01 X15.4651 Y6.7265
G01 X15.4680 Y6.7476
G01 X15.4692 Y6.7693
G01 X15.4692 Y6.7814
G01 X15.4681 Y6.8026
G01 X15.4670 Y6.8122
G01 X15.4638 Y6.8327
G01 X15.4587 Y6.8538
G01 X15.4559 Y6.8637
G01 X15.4488 Y6.8837
G01 X15.4443 Y6.8945
G01 X15.4346 Y6.9146
G01 X15.4241 Y6.9324
G01 X15.4173 Y6.9429
G01 X15.4059 Y6.9582
G01 X15.3984 Y6.9673
G01 X15.3832 Y6.9839
G01 X13.3662 Y9.0009
G01 X13.3662 Y10.1249
G01 X14.1609 Y10.9196
G01 X15.2849 Y10.9196
G01 X16.5840 Y9.6208
G01 X16.6014 Y9.6054
G01 X16.6240 Y9.5888
G01 X16.6414 Y9.5781
G01 X16.6495 Y9.5736
G01 X16.6748 Y9.5618
G01 X16.7010 Y9.5524
G01 X16.7274 Y9.5457
G01 X16.7549 Y9.5414
G01 X16.7786 Y9.5398
G01 X27.1603 Y9.5396
G01 X27.1809 Y9.5405
G01 X27.1914 Y9.5414
G01 X27.2121 Y9.5444
G01 X27.2249 Y9.5471
G01 X27.2449 Y9.5523
G01 X27.2644 Y9.5591
G01 X27.2756 Y9.5635
G01 X27.2962 Y9.5734
G01 X27.3047 Y9.5781
G01 X27.3221 Y9.5886
G01 X27.3397 Y9.6014
G01 X27.3474 Y9.6075
G01 X27.3652 Y9.6235
G01 X27.4083 Y9.6666
G01 X28.6469 Y9.6666
G01 X28.6671 Y9.6547
G01 X28.6876 Y9.6448
G01 X28.7003 Y9.6395
G01 X28.7227 Y9.6318
G01 X28.7470 Y9.6257
G01 X28.7694 Y9.6221
G01 X28.7828 Y9.6206
G01 X28.8064 Y9.6196
G01 X40.5571 Y9.6196
G01 X40.5856 Y9.6211
G01 X40.6112 Y9.6248
G01 X40.6209 Y9.6269
G01 X40.6407 Y9.6320
G01 X40.6612 Y9.6391
G01 X40.6764 Y9.6454
G01 X40.6931 Y9.6534
G01 X40.7011 Y9.6578
G01 X40.7212 Y9.6702
G01 X40.7371 Y9.6818
G01 X40.7448 Y9.6879
G01 X40.7644 Y9.7058
G01 X41.0542 Y9.9956
G01 X41.0685 Y10.0112
G01 X41.0753 Y10.0192
G01 X41.0896 Y10.0386
G01 X41.1030 Y10.0602
G01 X41.1090 Y10.0716
G01 X41.1192 Y10.0942
G01 X41.1275 Y10.1178
G01 X41.1336 Y10.1414
G01 X41.1356 Y10.1511
G01 X41.1379 Y10.1667
G01 X41.1395 Y10.1822
G01 X41.1404 Y10.2037
G01 X41.1404 Y15.6308
G01 X41.1388 Y15.6607
G01 X41.1345 Y15.6892
G01 X41.1276 Y15.7166
G01 X41.1175 Y15.7445
G01 X41.1051 Y15.7705
G01 X41.0952 Y15.7873
G01 X41.0886 Y15.7975
G01 X41.0770 Y15.8132
G01 X41.0710 Y15.8206
G01 X41.0576 Y15.8353
G01 X41.0488 Y15.8440
G01 X41.0302 Y15.8603
G01 X41.0139 Y15.8724
G01 X41.0027 Y15.8798
G01 X40.9855 Y15.8899
G01 X40.9662 Y15.8993
G01 X40.9556 Y15.9039
G01 X40.9393 Y15.9098
G01 X40.9273 Y15.9136
G01 X40.9073 Y15.9186
G01 X40.8987 Y15.9203
G01 X40.8786 Y15.9232
G01 X40.8675 Y15.9242
G01 X40.8470 Y15.9250
G01 X40.8204 Y15.9239
G01 X40.8099 Y15.9227
G01 X40.7892 Y15.9195
G01 X40.7617 Y15.9126
G01 X40.7330 Y15.9024
G01 X40.7061 Y15.8896
G01 X40.6841 Y15.8763
G01 X40.6659 Y15.8633
G01 X40.6553 Y15.8547
G01 X40.6387 Y15.8394
G01 X39.8323 Y15.0331
G01 X38.8135 Y15.0331
G01 X38.0932 Y15.7535
G01 X38.0931 Y16.2421
G01 X38.0918 Y16.2671
G01 X38.0884 Y16.2915
G01 X38.0857 Y16.3043
G01 X38.0823 Y16.3178
G01 X38.0791 Y16.3286
G01 X38.0716 Y16.3495
G01 X38.0621 Y16.3702
G01 X38.0553 Y16.3832
G01 X38.0428 Y16.4034
G01 X38.0277 Y16.4239
G01 X38.0127 Y16.4410
G01 X38.0035 Y16.4504
G01 X37.9847 Y16.4670
G01 X37.9668 Y16.4805
G01 X37.9555 Y16.4879
G01 X37.9362 Y16.4991
G01 X37.9127 Y16.5102
G01 X37.8908 Y16.5183
G01 X37.8764 Y16.5226
G01 X37.8557 Y16.5276
G01 X37.8328 Y16.5311
G01 X37.8204 Y16.5322
G01 X37.7989 Y16.5331
G01 X36.7396 Y16.5329
G01 X36.7170 Y16.5316
G01 X36.6943 Y16.5283
G01 X36.6816 Y16.5257
G01 X36.6597 Y16.5198
G01 X36.6355 Y16.5112
G01 X36.6142 Y16.5014
G01 X36.6011 Y16.4943
G01 X36.5890 Y16.4870
G01 X36.5781 Y16.4798
G01 X36.5584 Y16.4648
G01 X36.5442 Y16.4520
G01 X36.5366 Y16.4446
G01 X36.5181 Y16.4239
G01 X36.5016 Y16.4012
G01 X36.4870 Y16.3768
G01 X36.4745 Y16.3500
G01 X36.4649 Y16.3227
G01 X36.4600 Y16.3035
G01 X36.4575 Y16.2915
G01 X36.4541 Y16.2671
G01 X36.4527 Y16.2397
G01 X36.4527 Y15.7535
G01 X35.7323 Y15.0331
G01 X32.5136 Y15.0331
G01 X31.7932 Y15.7535
G01 X31.7932 Y15.9836
G01 X31.7918 Y16.0119
G01 X31.7876 Y16.0404
G01 X31.7806 Y16.0686
G01 X31.7707 Y16.0963
G01 X31.7594 Y16.1204
G01 X31.7544 Y16.1295
G01 X31.7428 Y16.1482
G01 X31.7303 Y16.1653
G01 X31.7213 Y16.1761
G01 X31.7070 Y16.1917
G01 X31.6904 Y16.2069
G01 X31.6807 Y16.2150
G01 X31.6635 Y16.2276
G01 X31.6555 Y16.2327
G01 X31.6368 Y16.2435
G01 X31.6178 Y16.2527
G01 X31.6039 Y16.2584
G01 X31.5852 Y16.2649
G01 X31.5637 Y16.2705
G01 X31.5516 Y16.2731
G01 X31.5312 Y16.2761
G01 X31.5226 Y16.2769
G01 X31.5022 Y16.2778
G01 X31.4775 Y16.2770
G01 X31.4667 Y16.2761
G01 X31.4496 Y16.2736
G01 X31.4335 Y16.2704
G01 X31.4107 Y16.2643
G01 X31.3845 Y16.2547
G01 X31.3599 Y16.2429
G01 X31.3424 Y16.2327
G01 X31.3344 Y16.2275
G01 X31.3132 Y16.2118
G01 X31.2932 Y16.1940
G01 X31.0323 Y15.9331
G01 X27.9469 Y15.9331
G01 X27.9263 Y15.9323
G01 X27.9158 Y15.9314
G01 X27.8943 Y15.9283
G01 X27.8821 Y15.9258
G01 X27.8615 Y15.9204
G01 X27.8405 Y15.9131
G01 X27.8278 Y15.9078
G01 X27.8078 Y15.8982
G01 X27.7883 Y15.8866
G01 X27.7770 Y15.8790
G01 X27.7599 Y15.8660
G01 X27.7425 Y15.8505
G01 X27.7338 Y15.8416
G01 X27.7185 Y15.8244
G01 X27.7053 Y15.8067
G01 X27.6979 Y15.7954
G01 X27.6868 Y15.7763
G01 X27.6769 Y15.7557
G01 X27.6732 Y15.7468
G01 X27.6669 Y15.7292
G01 X27.6640 Y15.7196
G01 X27.6601 Y15.7043
G01 X27.6569 Y15.6882
G01 X27.6547 Y15.6727
G01 X27.6537 Y15.6622
G01 X27.6527 Y15.6389
G01 X27.6527 Y15.3535
G01 X25.6323 Y13.3331
G01 X24.6136 Y13.3331
G01 X23.1497 Y14.7967
G01 X23.1310 Y14.8132
G01 X23.1147 Y14.8253
G01 X23.1066 Y14.8307
G01 X23.0844 Y14.8438
G01 X23.0670 Y14.8521
G01 X23.0565 Y14.8567
G01 X23.0306 Y14.8657
G01 X23.0117 Y14.8706
G01 X23.0010 Y14.8728
G01 X22.9808 Y14.8759
G01 X22.9717 Y14.8768
G01 X22.9514 Y14.8778
G01 X22.9392 Y14.8777
G01 X22.9158 Y14.8762
G01 X22.8896 Y14.8722
G01 X22.8639 Y14.8659
G01 X22.8405 Y14.8579
G01 X22.8268 Y14.8521
G01 X22.8142 Y14.8461
G01 X22.8035 Y14.8405
G01 X22.7824 Y14.8275
G01 X22.7599 Y14.8107
G01 X22.7395 Y14.7923
G01 X22.7230 Y14.7744
G01 X22.7168 Y14.7670
G01 X22.7066 Y14.7532
G01 X22.6979 Y14.7402
G01 X22.6868 Y14.7210
G01 X22.6748 Y14.6954
G01 X22.6658 Y14.6703
G01 X22.6594 Y14.6459
G01 X22.6571 Y14.6338
G01 X22.6542 Y14.6135
G01 X22.6527 Y14.5845
G01 X22.6527 Y13.6535
G01 X21.9323 Y12.9331
G01 X16.5136 Y12.9331
G01 X15.7932 Y13.6535
G01 X15.7932 Y19.7722
G01 X16.5136 Y20.4926
G01 X21.7323 Y20.4926
G01 X22.0652 Y20.1598
G01 X22.0814 Y20.1448
G01 X22.0912 Y20.1368
G01 X22.1116 Y20.1221
G01 X22.1351 Y20.1082
G01 X22.1594 Y20.0967
G01 X22.1825 Y20.0882
G01 X22.1932 Y20.0850
G01 X22.2081 Y20.0812
G01 X22.2236 Y20.0781
G01 X22.2393 Y20.0759
G01 X22.2482 Y20.0750
G01 X22.2680 Y20.0740
G01 X22.2779 Y20.0740
G01 X22.3028 Y20.0754
G01 X22.3297 Y20.0794
G01 X22.3579 Y20.0864
G01 X22.3793 Y20.0939
G01 X22.3890 Y20.0978
G01 X22.4043 Y20.1049
G01 X22.4182 Y20.1123
G01 X22.4375 Y20.1242
G01 X22.4537 Y20.1361
G01 X22.4614 Y20.1422
G01 X22.4810 Y20.1601
G01 X23.0135 Y20.6926
G01 X24.0323 Y20.6926
G01 X24.7527 Y19.9723
G01 X24.7528 Y19.9372
G01 X24.7537 Y19.9185
G01 X24.7547 Y19.9084
G01 X24.7575 Y19.8895
G01 X24.7591 Y19.8809
G01 X24.7647 Y19.8591
G01 X24.7679 Y19.8489
G01 X24.7751 Y19.8295
G01 X24.7838 Y19.8107
G01 X24.7892 Y19.8002
G01 X24.7982 Y19.7850
G01 X24.8053 Y19.7743
G01 X24.8174 Y19.7580
G01 X24.8236 Y19.7506
G01 X24.8366 Y19.7364
G01 X24.8442 Y19.7290
G01 X24.8584 Y19.7162
G01 X24.8662 Y19.7100
G01 X24.8824 Y19.6982
G01 X24.9071 Y19.6832
G01 X24.9334 Y19.6707
G01 X24.9606 Y19.6608
G01 X24.9889 Y19.6537
G01 X25.0170 Y19.6494
G01 X25.0461 Y19.6479
G01 X25.0752 Y19.6492
G01 X25.1012 Y19.6529
G01 X25.1099 Y19.6547
G01 X25.1300 Y19.6599
G01 X25.1519 Y19.6673
G01 X25.1670 Y19.6736
G01 X25.1837 Y19.6816
G01 X25.1922 Y19.6863
G01 X25.2115 Y19.6982
G01 X25.2277 Y19.7100
G01 X25.2367 Y19.7173
G01 X25.2550 Y19.7341
G01 X25.9135 Y20.3926
G01 X26.9323 Y20.3926
G01 X27.6527 Y19.6723
G01 X27.6527 Y18.6869
G01 X27.6536 Y18.6654
G01 X27.6547 Y18.6532
G01 X27.6575 Y18.6342
G01 X27.6600 Y18.6221
G01 X27.6652 Y18.6019
G01 X27.6721 Y18.5819
G01 X27.6766 Y18.5707
G01 X27.6864 Y18.5501
G01 X27.6915 Y18.5410
G01 X27.7030 Y18.5223
G01 X27.7156 Y18.5051
G01 X27.7236 Y18.4954
G01 X27.7383 Y18.4794
G01 X27.7554 Y18.4635
G01 X27.7652 Y18.4555
G01 X27.7824 Y18.4429
G01 X27.8014 Y18.4312
G01 X27.8115 Y18.4257
G01 X27.8319 Y18.4161
G01 X27.8420 Y18.4121
G01 X27.8606 Y18.4056
G01 X27.8815 Y18.4001
G01 X27.8943 Y18.3974
G01 X27.9147 Y18.3944
G01 X27.9255 Y18.3935
G01 X27.9461 Y18.3926
G01 X31.0323 Y18.3926
G01 X31.2921 Y18.1329
G01 X31.3105 Y18.1162
G01 X31.3294 Y18.1018
G01 X31.3424 Y18.0931
G01 X31.3559 Y18.0850
G01 X31.3650 Y18.0802
G01 X31.3879 Y18.0697
G01 X31.4146 Y18.0602
G01 X31.4409 Y18.0537
G01 X31.4653 Y18.0498
G01 X31.4745 Y18.0489
G01 X31.4916 Y18.0480
G01 X31.5071 Y18.0481
G01 X31.5288 Y18.0494
G01 X31.5516 Y18.0527
G01 X31.5637 Y18.0552
G01 X31.5854 Y18.0609
G01 X31.6053 Y18.0679
G01 X31.6190 Y18.0736
G01 X31.6380 Y18.0828
G01 X31.6590 Y18.0953
G01 X31.6668 Y18.1005
G01 X31.6793 Y18.1097
G01 X31.6897 Y18.1182
G01 X31.7064 Y18.1335
G01 X31.7210 Y18.1492
G01 X31.7303 Y18.1604
G01 X31.7429 Y18.1776
G01 X31.7552 Y18.1976
G01 X31.7608 Y18.2081
G01 X31.7714 Y18.2310
G01 X31.7782 Y18.2496
G01 X31.7817 Y18.2607
G01 X31.7863 Y18.2791
G01 X31.7881 Y18.2878
G01 X31.7912 Y18.3084
G01 X31.7923 Y18.3207
G01 X31.7932 Y18.3421
G01 X31.7932 Y18.7722
G01 X31.9280 Y18.9071
G01 X31.9452 Y18.9262
G01 X31.9602 Y18.9463
G01 X31.9662 Y18.9555
G01 X31.9771 Y18.9739
G01 X31.9868 Y18.9940
G01 X31.9920 Y19.0067
G01 X31.9991 Y19.0271
G01 X32.0046 Y19.0481
G01 X32.0071 Y19.0602
G01 X32.0102 Y19.0813
G01 X32.0118 Y19.1055
G01 X32.0117 Y19.1211
G01 X32.0102 Y19.1444
G01 X32.0061 Y19.1711
G01 X31.9994 Y19.1977
G01 X31.9921 Y19.2190
G01 X31.9877 Y19.2297
G01 X31.9809 Y19.2442
G01 X31.9738 Y19.2576
G01 X31.9645 Y19.2729
G01 X31.9576 Y19.2830
G01 X31.9458 Y19.2986
G01 X31.9308 Y19.3156
G01 X31.7932 Y19.4535
G01 X31.7932 Y20.4723
G01 X32.5135 Y21.1926
G01 X35.6323 Y21.1926
G01 X36.3527 Y20.4722
G01 X36.3529 Y20.0347
G01 X36.3542 Y20.0124
G01 X36.3586 Y19.9837
G01 X36.3651 Y19.9574
G01 X36.3739 Y19.9325
G01 X36.3838 Y19.9107
G01 X36.3915 Y19.8963
G01 X36.4025 Y19.8783
G01 X36.4185 Y19.8567
G01 X36.4354 Y19.8376
G01 X36.4448 Y19.8284
G01 X36.4615 Y19.8137
G01 X36.4821 Y19.7984
G01 X36.5030 Y19.7855
G01 X36.5146 Y19.7794
G01 X36.5350 Y19.7700
G01 X36.5584 Y19.7615
G01 X36.5816 Y19.7553
G01 X36.5943 Y19.7526
G01 X36.6170 Y19.7494
G01 X36.6420 Y19.7479
G01 X36.6519 Y19.7479
G01 X36.6733 Y19.7491
G01 X36.7012 Y19.7529
G01 X36.7115 Y19.7551
G01 X36.7313 Y19.7602
G01 X36.7571 Y19.7693
G01 X36.7670 Y19.7736
G01 X36.7842 Y19.7818
G01 X36.8072 Y19.7954
G01 X36.8157 Y19.8012
G01 X36.8324 Y19.8137
G01 X36.8514 Y19.8306
G01 X38.8135 Y21.7926
G01 X39.8323 Y21.7926
G01 X40.6381 Y20.9869
G01 X40.6536 Y20.9725
G01 X40.6621 Y20.9654
G01 X40.6824 Y20.9505
G01 X40.7006 Y20.9393
G01 X40.7133 Y20.9325
G01 X40.7324 Y20.9236
G01 X40.7542 Y20.9155
G01 X40.7670 Y20.9116
G01 X40.7881 Y20.9065
G01 X40.8091 Y20.9031
G01 X40.8217 Y20.9017
G01 X40.8453 Y20.9007
G01 X40.8675 Y20.9016
G01 X40.8800 Y20.9027
G01 X40.9029 Y20.9062
G01 X40.9236 Y20.9112
G01 X40.9378 Y20.9154
G01 X40.9561 Y20.9220
G01 X40.9775 Y20.9318
G01 X40.9920 Y20.9395
G01 X41.0110 Y20.9512
G01 X41.0319 Y20.9668
G01 X41.0506 Y20.9834
G01 X41.0598 Y20.9928
G01 X41.0749 Y21.0099
G01 X41.0896 Y21.0298
G01 X41.1021 Y21.0499
G01 X41.1090 Y21.0629
G01 X41.1186 Y21.0838
G01 X41.1272 Y21.1079
G01 X41.1331 Y21.1303
G01 X41.1360 Y21.1448
G01 X41.1390 Y21.1667
G01 X41.1403 Y21.1900
G01 X41.1404 Y27.2311
G01 X45.2261 Y31.3169
G01 X56.1902 Y31.3169
G01 X60.8017 Y26.7055
G01 X60.8236 Y26.6857
G01 X60.8460 Y26.6692
G01 X60.8639 Y26.6582
G01 X60.8722 Y26.6536
G01 X60.8908 Y26.6447
G01 X60.9000 Y26.6408
G01 X60.9256 Y26.6318
G01 X60.9527 Y26.6252
G01 X60.9812 Y26.6210
G01 X61.0094 Y26.6196
G01 X65.1003 Y26.6196
G01 X65.1218 Y26.6205
G01 X65.1372 Y26.6221
G01 X65.1528 Y26.6244
G01 X65.1625 Y26.6263
G01 X65.1861 Y26.6324
G01 X65.2116 Y26.6415
G01 X65.2330 Y26.6514
G01 X65.2455 Y26.6581
G01 X65.2637 Y26.6692
G01 X65.2853 Y26.6851
G01 X65.2928 Y26.6915
G01 X65.3083 Y26.7058
G01 X65.6031 Y27.0006
G01 X67.0427 Y27.0006
G01 X68.0607 Y25.9827
G01 X68.0607 Y24.5431
G01 X67.7656 Y24.2479
G01 X67.7506 Y24.2317
G01 X67.7426 Y24.2219
G01 X67.7279 Y24.2015
G01 X67.7140 Y24.1781
G01 X67.7026 Y24.1540
G01 X67.6949 Y24.1334
G01 X67.6902 Y24.1177
G01 X67.6864 Y24.1025
G01 X67.6845 Y24.0928
G01 X67.6811 Y24.0684
G01 X67.6797 Y24.0435
G01 X67.6797 Y22.8125
G01 X67.6812 Y22.7827
G01 X67.6845 Y22.7599
G01 X67.6872 Y22.7471
G01 X67.6926 Y22.7263
G01 X67.7013 Y22.7019
G01 X67.7110 Y22.6808
G01 X67.7171 Y22.6691
G01 X67.7292 Y22.6492
G01 X67.7426 Y22.6308
G01 X67.7506 Y22.6211
G01 X67.7653 Y22.6051
G01 X67.9797 Y22.3907
G01 X67.9797 Y21.2667
G01 X67.1849 Y20.4719
G01 X67.1473 Y20.4718
G01 X67.1282 Y20.4709
G01 X67.1152 Y20.4695
G01 X67.0951 Y20.4663
G01 X67.0747 Y20.4614
G01 X67.0624 Y20.4578
G01 X67.0460 Y20.4520
G01 X67.0346 Y20.4473
G01 X67.0155 Y20.4382
G01 X67.0064 Y20.4331
G01 X66.9888 Y20.4224
G01 X66.9715 Y20.4098
G01 X66.9635 Y20.4034
G01 X66.9477 Y20.3892
G01 X66.9375 Y20.3791
G01 X66.8140 Y20.3791
G01 X66.7925 Y20.3782
G01 X66.7808 Y20.3772
G01 X66.7588 Y20.3739
G01 X66.7486 Y20.3717
G01 X66.7281 Y20.3663
G01 X66.7005 Y20.3563
G01 X66.6812 Y20.3474
G01 X66.6687 Y20.3407
G01 X66.6505 Y20.3295
G01 X66.6332 Y20.3169
G01 X66.6242 Y20.3097
G01 X66.6095 Y20.2964
G01 X61.8446 Y15.5316
G01 X61.8300 Y15.5156
G01 X61.8218 Y15.5055
G01 X61.8085 Y15.4871
G01 X61.7970 Y15.4682
G01 X61.7910 Y15.4569
G01 X61.7817 Y15.4366
G01 X61.7744 Y15.4166
G01 X61.7701 Y15.4023
G01 X61.7652 Y15.3815
G01 X61.7617 Y15.3586
G01 X61.7605 Y15.3463
G01 X61.7597 Y15.3240
G01 X61.7607 Y15.3008
G01 X61.7620 Y15.2886
G01 X61.7652 Y15.2681
G01 X61.7701 Y15.2473
G01 X61.7743 Y15.2333
G01 X61.7813 Y15.2142
G01 X61.7907 Y15.1934
G01 X61.7975 Y15.1805
G01 X61.8098 Y15.1605
G01 X61.8218 Y15.1440
G01 X61.8300 Y15.1340
G01 X61.8453 Y15.1173
G01 X61.8624 Y15.1015
G01 X61.8722 Y15.0935
G01 X61.8906 Y15.0801
G01 X61.9081 Y15.0694
G01 X61.9203 Y15.0627
G01 X61.9401 Y15.0535
G01 X61.9607 Y15.0458
G01 X61.9727 Y15.0420
G01 X61.9959 Y15.0363
G01 X62.0169 Y15.0330
G01 X62.0294 Y15.0316
G01 X62.0531 Y15.0306
G01 X63.2008 Y15.0307
G01 X63.2244 Y15.0321
G01 X63.2513 Y15.0361
G01 X63.2788 Y15.0429
G01 X63.2993 Y15.0500
G01 X63.3122 Y15.0552
G01 X63.3359 Y15.0669
G01 X63.3582 Y15.0804
G01 X63.3784 Y15.0953
G01 X63.3869 Y15.1024
G01 X63.4024 Y15.1167
G01 X64.5990 Y16.3133
G01 X64.6168 Y16.3328
G01 X64.6309 Y16.3512
G01 X64.6395 Y16.3640
G01 X64.6509 Y16.3835
G01 X64.6607 Y16.4039
G01 X64.6657 Y16.4164
G01 X64.6730 Y16.4375
G01 X64.6788 Y16.4607
G01 X64.6829 Y16.4852
G01 X64.6843 Y16.4999
G01 X64.6852 Y16.5214
G01 X64.6852 Y17.2827
G01 X65.7031 Y18.3006
G01 X66.5201 Y18.3006
G01 X66.5407 Y18.3014
G01 X66.5540 Y18.3026
G01 X66.5773 Y18.3062
G01 X66.5990 Y18.3115
G01 X66.6117 Y18.3153
G01 X66.6320 Y18.3227
G01 X66.6515 Y18.3317
G01 X66.6635 Y18.3380
G01 X66.6834 Y18.3501
G01 X66.7068 Y18.3675
G01 X66.7281 Y18.3868
G01 X68.4996 Y20.1585
G01 X68.5154 Y20.1764
G01 X68.5265 Y20.1911
G01 X68.5326 Y20.2000
G01 X68.5464 Y20.2234
G01 X68.5578 Y20.2475
G01 X68.5676 Y20.2743
G01 X68.5744 Y20.3006
G01 X68.5764 Y20.3111
G01 X68.5790 Y20.3291
G01 X68.5806 Y20.3539
G01 X68.5808 Y22.1394
G01 X69.2530 Y22.8117
G01 X69.2673 Y22.8272
G01 X69.2737 Y22.8347
G01 X69.2849 Y22.8495
G01 X69.2910 Y22.8584
G01 X69.3004 Y22.8739
G01 X69.3061 Y22.8842
G01 X69.3174 Y22.9087
G01 X69.3245 Y22.9281
G01 X69.3283 Y22.9406
G01 X69.3341 Y22.9654
G01 X69.3369 Y22.9835
G01 X69.3380 Y22.9940
G01 X69.3391 Y23.0164
G01 X69.3392 Y23.0775
G01 X70.2083 Y23.9466
G01 X71.4636 Y23.9466
G01 X71.4754 Y23.9414
G01 X71.4948 Y23.9343
G01 X71.5073 Y23.9305
G01 X71.5257 Y23.9260
G01 X71.5365 Y23.9240
G01 X71.5565 Y23.9212
G01 X71.5864 Y23.9196
G01 X75.5445 Y23.9198
G01 X75.5670 Y23.9212
G01 X75.5955 Y23.9255
G01 X75.6229 Y23.9324
G01 X75.6490 Y23.9417
G01 X75.6762 Y23.9546
G01 X75.7005 Y23.9691
G01 X75.7229 Y23.9857
G01 X75.7416 Y24.0024
G01 X75.7486 Y24.0093
G01 X75.7619 Y24.0241
G01 X75.7770 Y24.0437
G01 X75.7861 Y24.0573
G01 X75.7958 Y24.0737
G01 X75.8003 Y24.0825
G01 X75.8096 Y24.1028
G01 X75.8191 Y24.1300
G01 X75.8258 Y24.1571
G01 X75.8290 Y24.1777
G01 X75.8302 Y24.1881
G01 X75.8312 Y24.2065
G01 X75.8313 Y24.2171
G01 X75.8303 Y24.2379
G01 X75.8290 Y24.2500
G01 X75.8263 Y24.2681
G01 X75.8239 Y24.2793
G01 X75.8184 Y24.3001
G01 X75.8119 Y24.3188
G01 X75.8064 Y24.3323
G01 X75.7974 Y24.3510
G01 X75.7827 Y24.3758
G01 X75.7659 Y24.3989
G01 X75.7595 Y24.4064
G01 X75.7457 Y24.4213
G01 X71.6468 Y28.5202
G01 X71.6316 Y28.5343
G01 X71.6242 Y28.5406
G01 X71.6080 Y28.5527
G01 X71.5977 Y28.5596
G01 X71.5799 Y28.5702
G01 X71.5705 Y28.5750
G01 X71.5528 Y28.5832
G01 X71.5307 Y28.5914
G01 X71.5166 Y28.5956
G01 X71.5014 Y28.5994
G01 X71.4908 Y28.6015
G01 X71.4673 Y28.6047
G01 X71.4391 Y28.6061
G01 X66.9230 Y28.6060
G01 X66.8980 Y28.6046
G01 X66.8708 Y28.6005
G01 X66.8449 Y28.5941
G01 X66.8217 Y28.5862
G01 X66.8103 Y28.5815
G01 X66.7966 Y28.5750
G01 X66.7821 Y28.5673
G01 X66.7631 Y28.5556
G01 X66.7462 Y28.5432
G01 X66.7364 Y28.5352
G01 X66.7176 Y28.5176
G01 X66.6991 Y28.4969
G01 X66.6831 Y28.4751
G01 X66.6692 Y28.4520
G01 X66.6648 Y28.4432
G01 X66.6566 Y28.4257
G01 X66.6469 Y28.3989
G01 X66.6401 Y28.3726
G01 X66.6366 Y28.3521
G01 X63.4122 Y28.3521
G01 X63.4122 Y31.5736
G01 X66.6366 Y31.5736
G01 X66.6401 Y31.5531
G01 X66.6466 Y31.5276
G01 X66.6566 Y31.5002
G01 X66.6686 Y31.4748
G01 X66.6832 Y31.4505
G01 X66.6991 Y31.4289
G01 X66.7176 Y31.4081
G01 X66.7364 Y31.3905
G01 X66.7462 Y31.3825
G01 X66.7628 Y31.3703
G01 X66.7821 Y31.3584
G01 X66.7966 Y31.3507
G01 X66.8108 Y31.3440
G01 X66.8214 Y31.3397
G01 X66.8441 Y31.3318
G01 X66.8708 Y31.3252
G01 X66.8980 Y31.3212
G01 X66.9230 Y31.3197
G01 X72.6849 Y31.3196
G01 X80.1208 Y23.8838
G01 X80.1363 Y23.8695
G01 X80.1447 Y23.8623
G01 X80.1637 Y23.8483
G01 X80.1834 Y23.8361
G01 X80.1948 Y23.8300
G01 X80.2169 Y23.8198
G01 X80.2403 Y23.8113
G01 X80.2635 Y23.8051
G01 X80.2781 Y23.8021
G01 X80.3006 Y23.7990
G01 X80.3288 Y23.7976
G01 X80.9532 Y23.7976
G01 X80.9649 Y23.7936
G01 X80.9728 Y23.7913
G01 X80.9897 Y23.7871
G01 X80.9980 Y23.7854
G01 X81.0237 Y23.7818
G01 X81.0487 Y23.7805
G01 X83.6241 Y23.7804
G01 X88.1797 Y19.2249
G01 X88.1797 Y18.1009
G01 X84.4349 Y14.3561
G01 X84.4201 Y14.3401
G01 X84.4138 Y14.3325
G01 X84.3999 Y14.3139
G01 X84.3939 Y14.3046
G01 X84.3827 Y14.2853
G01 X84.3738 Y14.2667
G01 X84.3686 Y14.2542
G01 X84.3624 Y14.2366
G01 X84.3558 Y14.2117
G01 X84.3530 Y14.1974
G01 X84.3499 Y14.1738
G01 X84.3488 Y14.1481
G01 X84.3488 Y7.2595
G01 X79.9755 Y2.8863
G01 X79.0279 Y2.8863
G01 X79.0064 Y2.8854
G01 X78.9957 Y2.8845
G01 X78.9778 Y2.8819
G01 X78.9672 Y2.8799
G01 X78.9490 Y2.8754
G01 X78.9354 Y2.8713
G01 X78.9161 Y2.8642
G01 X78.8966 Y2.8552
G01 X78.8849 Y2.8491
G01 X78.8705 Y2.8406
G01 X78.8589 Y2.8328
G01 X78.8437 Y2.8215
G01 X78.8364 Y2.8154
G01 X78.8205 Y2.8007
G01 X78.8058 Y2.7849
G01 X78.7998 Y2.7778
G01 X78.7880 Y2.7622
G01 X78.7811 Y2.7521
G01 X75.5122 Y2.7521
G01 X75.5122 Y5.9736
G01 X78.8313 Y5.9736
G01 X78.8436 Y5.9630
G01 X78.8628 Y5.9488
G01 X78.8829 Y5.9364
G01 X78.8954 Y5.9297
G01 X78.9139 Y5.9211
G01 X78.9363 Y5.9128
G01 X78.9494 Y5.9088
G01 X78.9736 Y5.9031
G01 X78.9980 Y5.8996
G01 X79.0197 Y5.8983
G01 X79.0329 Y5.8981
G01 X79.0563 Y5.8994
G01 X79.0805 Y5.9028
G01 X79.0933 Y5.9055
G01 X79.1140 Y5.9109
G01 X79.1379 Y5.9194
G01 X79.1472 Y5.9234
G01 X79.1647 Y5.9318
G01 X79.1734 Y5.9366
G01 X79.1909 Y5.9473
G01 X79.2137 Y5.9641
G01 X79.2360 Y5.9842
G01 X81.5493 Y8.2976
G01 X81.5669 Y8.3169
G01 X81.5809 Y8.3352
G01 X81.5893 Y8.3477
G01 X81.6012 Y8.3679
G01 X81.6103 Y8.3870
G01 X81.6158 Y8.4004
G01 X81.6226 Y8.4200
G01 X81.6278 Y8.4399
G01 X81.6304 Y8.4527
G01 X81.6334 Y8.4731
G01 X81.6344 Y8.4838
G01 X81.6352 Y8.5053
G01 X81.6352 Y15.3939
G01 X83.0452 Y16.8038
G01 X83.0592 Y16.8190
G01 X83.0684 Y16.8302
G01 X83.0806 Y16.8468
G01 X83.0861 Y16.8553
G01 X83.0958 Y16.8717
G01 X83.1003 Y16.8805
G01 X83.1084 Y16.8980
G01 X83.1182 Y16.9249
G01 X83.1208 Y16.9344
G01 X83.1255 Y16.9535
G01 X83.1300 Y16.9836
G01 X83.1313 Y17.0127
G01 X83.1305 Y17.0334
G01 X83.1293 Y17.0457
G01 X83.1255 Y17.0702
G01 X83.1184 Y17.0981
G01 X83.1085 Y17.1255
G01 X83.0974 Y17.1490
G01 X83.0925 Y17.1577
G01 X83.0818 Y17.1752
G01 X83.0660 Y17.1968
G01 X83.0474 Y17.2176
G01 X83.0300 Y17.2340
G01 X83.0173 Y17.2444
G01 X83.0022 Y17.2554
G01 X82.9936 Y17.2609
G01 X82.9726 Y17.2730
G01 X82.9542 Y17.2817
G01 X82.9436 Y17.2861
G01 X82.9209 Y17.2939
G01 X82.8943 Y17.3005
G01 X82.8670 Y17.3046
G01 X82.8420 Y17.3060
G01 X76.9271 Y17.3061
G01 X76.8997 Y17.3047
G01 X76.8728 Y17.3009
G01 X76.8634 Y17.2989
G01 X76.8449 Y17.2941
G01 X76.8230 Y17.2867
G01 X76.8087 Y17.2808
G01 X76.7952 Y17.2744
G01 X76.7845 Y17.2687
G01 X76.7645 Y17.2565
G01 X76.7412 Y17.2393
G01 X76.7193 Y17.2193
G01 X76.7055 Y17.2044
G01 X76.6991 Y17.1968
G01 X76.6880 Y17.1820
G01 X76.6819 Y17.1732
G01 X76.6717 Y17.1563
G01 X76.6648 Y17.1432
G01 X76.6566 Y17.1257
G01 X76.6489 Y17.1051
G01 X76.6459 Y17.0957
G01 X76.6410 Y17.0765
G01 X76.6385 Y17.0645
G01 X76.6355 Y17.0441
G01 X76.6346 Y17.0334
G01 X76.6337 Y17.0151
G01 X76.6337 Y13.8106
G01 X76.6351 Y13.7856
G01 X76.6381 Y13.7637
G01 X76.6404 Y13.7516
G01 X76.6466 Y13.7276
G01 X76.6553 Y13.7033
G01 X76.6650 Y13.6819
G01 X76.6725 Y13.6680
G01 X76.6855 Y13.6472
G01 X76.6978 Y13.6305
G01 X76.7055 Y13.6213
G01 X76.7205 Y13.6052
G01 X76.7364 Y13.5905
G01 X76.7462 Y13.5825
G01 X76.7628 Y13.5703
G01 X76.7713 Y13.5649
G01 X76.7905 Y13.5537
G01 X76.8108 Y13.5440
G01 X76.8230 Y13.5391
G01 X76.8436 Y13.5320
G01 X76.8626 Y13.5271
G01 X76.8753 Y13.5244
G01 X76.8957 Y13.5214
G01 X76.9064 Y13.5205
G01 X76.9279 Y13.5196
G01 X78.3671 Y13.5198
G01 X78.3850 Y13.5208
G01 X78.3964 Y13.5221
G01 X78.4162 Y13.5252
G01 X78.4370 Y13.5301
G01 X78.4509 Y13.5343
G01 X78.4694 Y13.5410
G01 X78.4787 Y13.5449
G01 X78.4962 Y13.5534
G01 X78.5051 Y13.5583
G01 X78.5233 Y13.5695
G01 X78.5402 Y13.5818
G01 X78.5479 Y13.5879
G01 X78.5652 Y13.6035
G01 X78.6083 Y13.6466
G01 X79.8375 Y13.6466
G01 X80.7067 Y12.7775
G01 X80.7067 Y11.5483
G01 X79.8375 Y10.6791
G01 X78.6083 Y10.6791
G01 X78.5663 Y10.7211
G01 X78.5479 Y10.7378
G01 X78.5398 Y10.7443
G01 X78.5219 Y10.7572
G01 X78.4969 Y10.7720
G01 X78.4705 Y10.7843
G01 X78.4507 Y10.7915
G01 X78.4375 Y10.7955
G01 X78.4162 Y10.8006
G01 X78.3964 Y10.8037
G01 X78.3850 Y10.8050
G01 X78.3645 Y10.8060
G01 X75.6212 Y10.8061
G01 X73.2662 Y13.1612
G01 X73.2662 Y16.0848
G01 X73.3272 Y16.1459
G01 X73.3428 Y16.1630
G01 X73.3500 Y16.1720
G01 X73.3615 Y16.1876
G01 X73.3670 Y16.1962
G01 X73.3766 Y16.2126
G01 X73.3811 Y16.2213
G01 X73.3904 Y16.2417
G01 X73.3975 Y16.2611
G01 X73.4017 Y16.2752
G01 X73.4066 Y16.2960
G01 X73.4099 Y16.3165
G01 X73.4112 Y16.3287
G01 X73.4121 Y16.3494
G01 X73.4122 Y19.6736
G01 X74.5931 Y19.6736
G01 X74.6230 Y19.6752
G01 X74.6515 Y19.6795
G01 X74.6720 Y19.6845
G01 X74.6847 Y19.6883
G01 X74.7050 Y19.6957
G01 X74.7245 Y19.7047
G01 X74.7365 Y19.7110
G01 X74.7550 Y19.7222
G01 X74.7633 Y19.7279
G01 X74.7798 Y19.7405
G01 X74.8011 Y19.7598
G01 X75.0610 Y20.0196
G01 X82.8371 Y20.0196
G01 X82.8653 Y20.0210
G01 X82.8943 Y20.0252
G01 X82.9229 Y20.0324
G01 X82.9485 Y20.0415
G01 X82.9572 Y20.0454
G01 X82.9762 Y20.0546
G01 X83.0005 Y20.0691
G01 X83.0229 Y20.0857
G01 X83.0446 Y20.1052
G01 X83.0592 Y20.1210
G01 X83.0651 Y20.1279
G01 X83.0819 Y20.1507
G01 X83.0970 Y20.1760
G01 X83.1084 Y20.2000
G01 X83.1182 Y20.2269
G01 X83.1208 Y20.2364
G01 X83.1255 Y20.2555
G01 X83.1298 Y20.2840
G01 X83.1313 Y20.3130
G01 X83.1300 Y20.3421
G01 X83.1258 Y20.3706
G01 X83.1193 Y20.3969
G01 X83.1161 Y20.4071
G01 X83.1097 Y20.4245
G01 X83.1056 Y20.4339
G01 X83.0974 Y20.4510
G01 X83.0925 Y20.4597
G01 X83.0818 Y20.4772
G01 X83.0659 Y20.4989
G01 X83.0486 Y20.5184
G01 X82.5863 Y20.9807
G01 X82.5708 Y20.9951
G01 X82.5624 Y21.0022
G01 X82.5412 Y21.0177
G01 X82.5176 Y21.0318
G01 X82.4920 Y21.0440
G01 X82.4715 Y21.0516
G01 X82.4558 Y21.0564
G01 X82.4406 Y21.0602
G01 X82.4308 Y21.0621
G01 X82.4065 Y21.0655
G01 X82.3816 Y21.0669
G01 X79.1002 Y21.0669
G01 X79.0459 Y21.1211
G01 X79.0288 Y21.1367
G01 X79.0198 Y21.1439
G01 X79.0042 Y21.1554
G01 X78.9962 Y21.1606
G01 X78.9784 Y21.1710
G01 X78.9592 Y21.1804
G01 X78.9501 Y21.1843
G01 X78.9307 Y21.1914
G01 X78.9166 Y21.1956
G01 X78.8963 Y21.2005
G01 X78.8753 Y21.2038
G01 X78.8631 Y21.2051
G01 X78.8424 Y21.2061
G01 X71.7864 Y21.2061
G01 X71.7607 Y21.2050
G01 X71.7371 Y21.2018
G01 X71.7241 Y21.1994
G01 X71.7006 Y21.1933
G01 X71.6745 Y21.1840
G01 X71.6473 Y21.1712
G01 X71.6230 Y21.1565
G01 X71.6056 Y21.1439
G01 X71.5977 Y21.1376
G01 X71.5784 Y21.1199
G01 X71.3774 Y20.9189
G01 X71.3626 Y20.9025
G01 X71.3486 Y20.8842
G01 X71.3400 Y20.8714
G01 X71.3286 Y20.8519
G01 X71.3172 Y20.8278
G01 X71.3095 Y20.8072
G01 X71.3052 Y20.7931
G01 X71.2998 Y20.7707
G01 X71.2957 Y20.7422
G01 X71.2943 Y20.7140
G01 X71.2943 Y19.1155
G01 X68.2450 Y16.0661
G01 X68.2268 Y16.0458
G01 X68.2096 Y16.0224
G01 X68.1948 Y15.9974
G01 X68.1856 Y15.9784
G01 X68.1807 Y15.9665
G01 X68.1729 Y15.9437
G01 X68.1680 Y15.9246
G01 X68.1655 Y15.9126
G01 X68.1627 Y15.8939
G01 X68.1617 Y15.8840
G01 X68.1608 Y15.8649
G01 X68.1607 Y15.8431
G01 X67.1427 Y14.8251
G01 X67.0693 Y14.8251
G01 X67.0446 Y14.8240
G01 X67.0340 Y14.8228
G01 X67.0134 Y14.8196
G01 X66.9871 Y14.8131
G01 X66.9769 Y14.8099
G01 X66.9567 Y14.8023
G01 X66.9374 Y14.7934
G01 X66.9252 Y14.7868
G01 X66.9098 Y14.7776
G01 X66.9000 Y14.7708
G01 X66.8844 Y14.7590
G01 X66.8674 Y14.7440
G01 X64.4402 Y12.3170
G01 X53.7520 Y12.3170
G01 X48.9331 Y17.1360
G01 X48.9331 Y20.2179
G01 X48.9317 Y20.2461
G01 X48.9276 Y20.2746
G01 X48.9203 Y20.3037
G01 X48.9103 Y20.3314
G01 X48.8994 Y20.3546
G01 X48.8943 Y20.3637
G01 X48.8843 Y20.3801
G01 X48.8677 Y20.4029
G01 X48.8613 Y20.4104
G01 X48.8475 Y20.4253
G01 X48.8274 Y20.4438
G01 X48.8196 Y20.4499
G01 X48.8026 Y20.4623
G01 X48.7787 Y20.4768
G01 X48.7526 Y20.4892
G01 X48.7255 Y20.4990
G01 X48.6969 Y20.5063
G01 X48.6711 Y20.5103
G01 X48.6625 Y20.5111
G01 X48.6438 Y20.5120
G01 X48.6122 Y20.5121
G01 X48.6122 Y23.9401
G01 X48.6106 Y23.9700
G01 X48.6078 Y23.9902
G01 X48.6058 Y24.0008
G01 X48.6002 Y24.0231
G01 X48.5969 Y24.0333
G01 X48.5894 Y24.0536
G01 X48.5811 Y24.0714
G01 X48.5743 Y24.0844
G01 X48.5634 Y24.1023
G01 X48.5503 Y24.1204
G01 X48.5438 Y24.1286
G01 X48.5294 Y24.1446
G01 X48.5225 Y24.1516
G01 X48.5077 Y24.1649
G01 X48.4983 Y24.1725
G01 X48.4814 Y24.1847
G01 X48.4624 Y24.1963
G01 X48.4508 Y24.2025
G01 X48.4317 Y24.2114
G01 X48.4111 Y24.2191
G01 X48.4018 Y24.2221
G01 X48.3802 Y24.2276
G01 X48.3681 Y24.2299
G01 X48.3462 Y24.2329
G01 X48.3261 Y24.2341
G01 X48.3130 Y24.2342
G01 X48.2922 Y24.2332
G01 X48.2810 Y24.2319
G01 X48.2599 Y24.2285
G01 X48.2404 Y24.2238
G01 X48.2307 Y24.2210
G01 X48.2117 Y24.2144
G01 X48.1979 Y24.2086
G01 X48.1779 Y24.1988
G01 X48.1531 Y24.1838
G01 X48.1322 Y24.1682
G01 X48.1134 Y24.1516
G01 X47.7066 Y23.7449
G01 X47.6914 Y23.7283
G01 X47.6852 Y23.7209
G01 X47.6748 Y23.7070
G01 X47.6657 Y23.6934
G01 X47.6548 Y23.6747
G01 X47.6427 Y23.6490
G01 X47.6336 Y23.6238
G01 X47.6277 Y23.6014
G01 X47.6247 Y23.5861
G01 X47.6224 Y23.5705
G01 X47.6215 Y23.5608
G01 X47.6205 Y23.5368
G01 X47.6205 Y16.2078
G01 X47.6218 Y16.1795
G01 X47.6249 Y16.1576
G01 X47.6279 Y16.1424
G01 X47.6313 Y16.1289
G01 X47.6345 Y16.1180
G01 X47.6405 Y16.1014
G01 X47.6459 Y16.0883
G01 X47.6558 Y16.0681
G01 X47.6661 Y16.0505
G01 X47.6731 Y16.0400
G01 X47.6858 Y16.0229
G01 X47.6923 Y16.0153
G01 X47.7066 Y15.9997
G01 X52.2999 Y11.4065
G01 X52.3154 Y11.3922
G01 X52.3239 Y11.3850
G01 X52.3446 Y11.3698
G01 X52.3686 Y11.3554
G01 X52.3942 Y11.3432
G01 X52.4147 Y11.3356
G01 X52.4299 Y11.3309
G01 X52.4457 Y11.3270
G01 X52.4553 Y11.3251
G01 X52.4797 Y11.3217
G01 X52.5079 Y11.3203
G01 X65.2029 Y11.3203
G01 X68.5197 Y8.0035
G01 X68.5197 Y5.2059
G01 X68.5206 Y5.1844
G01 X68.5217 Y5.1721
G01 X68.5256 Y5.1476
G01 X68.5306 Y5.1270
G01 X68.5349 Y5.1127
G01 X68.5426 Y5.0923
G01 X68.5523 Y5.0713
G01 X68.5563 Y5.0638
G01 X68.5649 Y5.0494
G01 X68.5724 Y5.0379
G01 X68.5858 Y5.0202
G01 X68.6036 Y5.0002
G01 X68.7737 Y4.8301
G01 X68.7737 Y3.4957
G01 X67.8301 Y2.5521
G01 X66.4957 Y2.5521
G01 X66.1010 Y2.9468
G01 X66.0849 Y2.9617
G01 X66.0774 Y2.9680
G01 X66.0555 Y2.9840
G01 X66.0325 Y2.9978
G01 X66.0085 Y3.0094
G01 X65.9861 Y3.0178
G01 X65.9711 Y3.0224
G01 X65.9552 Y3.0263
G01 X65.9456 Y3.0282
G01 X65.9212 Y3.0317
G01 X65.8926 Y3.0330
G01 X65.8647 Y3.0317
G01 X65.8403 Y3.0282
G01 X65.8307 Y3.0263
G01 X65.8148 Y3.0224
G01 X65.7998 Y3.0178
G01 X65.7795 Y3.0103
G01 X65.7536 Y2.9979
G01 X65.7293 Y2.9833
G01 X65.7088 Y2.9682
G01 X65.7004 Y2.9612
G01 X65.6849 Y2.9468
G01 X65.2901 Y2.5521
G01 X63.9557 Y2.5521
G01 X63.5610 Y2.9469
G01 X63.5455 Y2.9612
G01 X63.5371 Y2.9682
G01 X63.5163 Y2.9835
G01 X63.4924 Y2.9979
G01 X63.4668 Y3.0101
G01 X63.4461 Y3.0178
G01 X63.4308 Y3.0224
G01 X63.4152 Y3.0263
G01 X63.4047 Y3.0284
G01 X63.3794 Y3.0318
G01 X63.3526 Y3.0330
G01 X63.3264 Y3.0318
G01 X63.3012 Y3.0284
G01 X63.2906 Y3.0263
G01 X63.2754 Y3.0225
G01 X63.2597 Y3.0178
G01 X63.2376 Y3.0095
G01 X63.2133 Y2.9978
G01 X63.1893 Y2.9833
G01 X63.1687 Y2.9682
G01 X63.1604 Y2.9612
G01 X63.1449 Y2.9469
G01 X62.7501 Y2.5521
G01 X61.4157 Y2.5521
G01 X60.4722 Y3.4957
G01 X60.4722 Y4.8318
G01 X60.4777 Y4.8386
G01 X60.4897 Y4.8551
G01 X60.5039 Y4.8782
G01 X60.5088 Y4.8877
G01 X60.5174 Y4.9062
G01 X60.5252 Y4.9270
G01 X60.5300 Y4.9427
G01 X60.5341 Y4.9595
G01 X60.5362 Y4.9709
G01 X60.5385 Y4.9864
G01 X60.5394 Y4.9962
G01 X60.5404 Y5.0153
G01 X60.5402 Y5.0284
G01 X60.5389 Y5.0501
G01 X60.5357 Y5.0728
G01 X60.5332 Y5.0848
G01 X60.5277 Y5.1059
G01 X60.5205 Y5.1266
G01 X60.5150 Y5.1397
G01 X60.5052 Y5.1599
G01 X60.4951 Y5.1770
G01 X60.4877 Y5.1882
G01 X60.4744 Y5.2060
G01 X60.4599 Y5.2223
G01 X60.4512 Y5.2312
G01 X60.4359 Y5.2451
G01 X60.4264 Y5.2527
G01 X60.4088 Y5.2654
G01 X60.3889 Y5.2775
G01 X60.3784 Y5.2830
G01 X60.3578 Y5.2925
G01 X60.3370 Y5.3000
G01 X60.3248 Y5.3037
G01 X60.3037 Y5.3088
G01 X60.2821 Y5.3122
G01 X60.2704 Y5.3134
G01 X60.2486 Y5.3144
G01 X56.6545 Y5.3144
G01 X56.6258 Y5.3130
G01 X56.5977 Y5.3088
G01 X56.5707 Y5.3021
G01 X56.5432 Y5.2923
G01 X56.5167 Y5.2799
G01 X56.4915 Y5.2647
G01 X56.4693 Y5.2484
G01 X56.4507 Y5.2318
G01 X54.8587 Y3.6399
G01 X54.8446 Y3.6245
G01 X54.8386 Y3.6173
G01 X54.8271 Y3.6019
G01 X54.8189 Y3.5895
G01 X54.8089 Y3.5726
G01 X54.7994 Y3.5531
G01 X54.7949 Y3.5427
G01 X54.7889 Y3.5262
G01 X54.7846 Y3.5120
G01 X54.7801 Y3.4937
G01 X54.7781 Y3.4832
G01 X54.7755 Y3.4653
G01 X54.7747 Y3.4570
G01 X54.7738 Y3.4379
G01 X54.7737 Y3.3957
G01 X53.8301 Y2.4521
G01 X53.7908 Y2.4521
G01 X53.7714 Y2.4512
G01 X53.7589 Y2.4501
G01 X53.7356 Y2.4465
G01 X53.7097 Y2.4401
G01 X53.6878 Y2.4327
G01 X53.6758 Y2.4278
G01 X53.6532 Y2.4169
G01 X53.6363 Y2.4069
G01 X53.6273 Y2.4011
G01 X53.6105 Y2.3888
G01 X53.6003 Y2.3803
G01 X53.5852 Y2.3664
G01 X53.4813 Y2.2625
G01 X53.0758 Y2.4304
G01 X53.0494 Y2.4397
G01 X53.0299 Y2.4448
G01 X53.0206 Y2.4468
G01 X52.9942 Y2.4506
G01 X52.9661 Y2.4521
G01 X52.4957 Y2.4521
G01 X52.1628 Y2.7850
G01 X52.1434 Y2.8026
G01 X52.1261 Y2.8157
G01 X52.1167 Y2.8222
G01 X52.0976 Y2.8336
G01 X52.0883 Y2.8385
G01 X52.0715 Y2.8463
G01 X51.8062 Y2.9563
G01 X51.8060 Y3.0272
G01 X51.8046 Y3.0497
G01 X51.8014 Y3.0724
G01 X51.7995 Y3.0821
G01 X51.7957 Y3.0973
G01 X51.7911 Y3.1125
G01 X51.7834 Y3.1334
G01 X51.7709 Y3.1595
G01 X51.7601 Y3.1777
G01 X51.7523 Y3.1893
G01 X51.7401 Y3.2056
G01 X51.7257 Y3.2219
G01 X51.5794 Y3.3684
G01 X51.6029 Y3.4001
G01 X51.6102 Y3.4110
G01 X51.6623 Y3.4980
G01 X51.6687 Y3.5096
G01 X51.7163 Y3.6108
G01 X51.7543 Y3.7166
G01 X51.7573 Y3.7273
G01 X51.7816 Y3.8240
G01 X51.7848 Y3.8401
G01 X51.7994 Y3.9388
G01 X51.8006 Y3.9489
G01 X51.8061 Y4.0637
G01 X51.8010 Y4.1707
G01 X51.8003 Y4.1799
G01 X51.7848 Y4.2856
G01 X51.7816 Y4.3017
G01 X51.7573 Y4.3984
G01 X51.7543 Y4.4091
G01 X51.7190 Y4.5080
G01 X51.7156 Y4.5166
G01 X51.6674 Y4.6187
G01 X51.6623 Y4.6277
G01 X51.6101 Y4.7149
G01 X51.6035 Y4.7247
G01 X51.5794 Y4.7573
G01 X52.4957 Y5.6736
G01 X52.9331 Y5.6736
G01 X52.9552 Y5.6745
G01 X52.9668 Y5.6756
G01 X52.9905 Y5.6793
G01 X53.0175 Y5.6860
G01 X53.0450 Y5.6957
G01 X53.0645 Y5.7047
G01 X53.0776 Y5.7117
G01 X53.0986 Y5.7246
G01 X53.1189 Y5.7397
G01 X53.1381 Y5.7568
G01 X55.4858 Y8.1045
G01 X55.5017 Y8.1218
G01 X55.5079 Y8.1292
G01 X55.5177 Y8.1424
G01 X55.5268 Y8.1560
G01 X55.5380 Y8.1752
G01 X55.5499 Y8.2008
G01 X55.5592 Y8.2266
G01 X55.5648 Y8.2479
G01 X55.5678 Y8.2632
G01 X55.5700 Y8.2787
G01 X55.5710 Y8.2885
G01 X55.5720 Y8.3134
G01 X55.5710 Y8.3366
G01 X55.5700 Y8.3464
G01 X55.5676 Y8.3627
G01 X55.5646 Y8.3780
G01 X55.5592 Y8.3984
G01 X55.5492 Y8.4262
G01 X55.5383 Y8.4493
G01 X55.5268 Y8.4691
G01 X55.5193 Y8.4806
G01 X55.5059 Y8.4983
G01 X55.4915 Y8.5147
G01 X55.4828 Y8.5236
G01 X55.4675 Y8.5374
G01 X55.4580 Y8.5450
G01 X55.4411 Y8.5573
G01 X55.4205 Y8.5699
G01 X55.4099 Y8.5754
G01 X55.3896 Y8.5847
G01 X55.3701 Y8.5919
G01 X55.3574 Y8.5958
G01 X55.3358 Y8.6010
G01 X55.3148 Y8.6044
G01 X55.3026 Y8.6057
G01 X55.2834 Y8.6067
G01 X51.2621 Y8.6068
G01 X44.9069 Y14.9619
G01 X44.9069 Y24.7827
G01 X48.2266 Y28.1023
G01 X48.2454 Y28.1233
G01 X48.2609 Y28.1441
G01 X48.2756 Y28.1682
G01 X48.2859 Y28.1891
G01 X48.2922 Y28.2042
G01 X48.2969 Y28.2176
G01 X48.3007 Y28.2301
G01 X48.3061 Y28.2524
G01 X48.3101 Y28.2793
G01 X48.3116 Y28.3084
G01 X48.3102 Y28.3374
G01 X48.3061 Y28.3659
G01 X48.2996 Y28.3922
G01 X48.2969 Y28.4007
G01 X48.2900 Y28.4198
G01 X48.2862 Y28.4287
G01 X48.2779 Y28.4459
G01 X48.2728 Y28.4550
G01 X48.2628 Y28.4714
G01 X48.2494 Y28.4899
G01 X48.2422 Y28.4989
G01 X48.2289 Y28.5137
G01 X48.2219 Y28.5207
G01 X48.2102 Y28.5313
G01 X48.1976 Y28.5417
G01 X48.1839 Y28.5517
G01 X48.1739 Y28.5582
G01 X48.1546 Y28.5694
G01 X48.1360 Y28.5784
G01 X48.1268 Y28.5823
G01 X48.1012 Y28.5912
G01 X48.0819 Y28.5962
G01 X48.0700 Y28.5986
G01 X48.0456 Y28.6020
G01 X48.0174 Y28.6034
G01 X46.4720 Y28.6034
G01 X46.4421 Y28.6019
G01 X46.4227 Y28.5992
G01 X46.4126 Y28.5974
G01 X46.3876 Y28.5910
G01 X46.3670 Y28.5840
G01 X46.3559 Y28.5795
G01 X46.3335 Y28.5688
G01 X46.3140 Y28.5573
G01 X46.3018 Y28.5491
G01 X46.2835 Y28.5351
G01 X46.2639 Y28.5172
G01 X43.9389 Y26.1921
G01 X43.9222 Y26.1738
G01 X43.9082 Y26.1555
G01 X43.9000 Y26.1433
G01 X43.8889 Y26.1246
G01 X43.8791 Y26.1043
G01 X43.8733 Y26.0902
G01 X43.8661 Y26.0691
G01 X43.8602 Y26.0460
G01 X43.8583 Y26.0355
G01 X43.8554 Y26.0152
G01 X43.8539 Y25.9853
G01 X43.8539 Y8.9578
G01 X41.8021 Y6.9061
G01 X29.5068 Y6.9061
G01 X29.4826 Y6.9051
G01 X29.4698 Y6.9037
G01 X29.4484 Y6.9002
G01 X29.4237 Y6.8941
G01 X29.4136 Y6.8909
G01 X29.3923 Y6.8829
G01 X29.3740 Y6.8744
G01 X29.3616 Y6.8677
G01 X29.3424 Y6.8559
G01 X29.3250 Y6.8431
G01 X29.3157 Y6.8356
G01 X29.2999 Y6.8211
G01 X26.4199 Y3.9411
G01 X26.4018 Y3.9212
G01 X26.3865 Y3.9011
G01 X26.3813 Y3.8934
G01 X26.3725 Y3.8788
G01 X26.3654 Y3.8658
G01 X26.3558 Y3.8449
G01 X26.3478 Y3.8230
G01 X26.3450 Y3.8136
G01 X26.3412 Y3.7984
G01 X26.3385 Y3.7856
G01 X26.3352 Y3.7629
G01 X26.3339 Y3.7404
G01 X26.3337 Y2.5521
G01 X23.1122 Y2.5521
G01 X23.1122 Y5.7736
G01 X24.2976 Y5.7737
G01 X24.3173 Y5.7747
G01 X24.3301 Y5.7761
G01 X24.3515 Y5.7795
G01 X24.3720 Y5.7845
G01 X24.3852 Y5.7885
G01 X24.4057 Y5.7961
G01 X24.4258 Y5.8054
G01 X24.4383 Y5.8121
G01 X24.4557 Y5.8226
G01 X24.4737 Y5.8357
G01 X24.4835 Y5.8436
G01 X24.4993 Y5.8580
G01 X24.9663 Y6.3250
G01 X24.9855 Y6.3464
G01 X25.0018 Y6.3686
G01 X25.0160 Y6.3921
G01 X25.0280 Y6.4171
G01 X25.0319 Y6.4269
G01 X25.0383 Y6.4453
G01 X25.0455 Y6.4735
G01 X25.0498 Y6.5020
G01 X25.0513 Y6.5310
G01 X25.0500 Y6.5601
G01 X25.0458 Y6.5886
G01 X25.0388 Y6.6168
G01 X25.0289 Y6.6445
G01 X25.0166 Y6.6706
G01 X25.0020 Y6.6949
G01 X24.9839 Y6.7193
G01 X24.9648 Y6.7402
G01 X24.9442 Y6.7590
G01 X24.9201 Y6.7768
G01 X24.8955 Y6.7915
G01 X24.8690 Y6.8040
G01 X24.8418 Y6.8136
G01 X24.8138 Y6.8206
G01 X24.7858 Y6.8247
G01 X24.7571 Y6.8261
G01 X15.8664 Y6.8261
G01 X15.8454 Y6.8253
G01 X15.8351 Y6.8244
G01 X15.8147 Y6.8215
G01 X15.8022 Y6.8189
G01 X15.7812 Y6.8135
G01 X15.7615 Y6.8067
G01 X15.7495 Y6.8019
G01 X15.7297 Y6.7924
G01 X15.7206 Y6.7873
G01 X15.7023 Y6.7761
G01 X15.6854 Y6.7637
G01 X15.6754 Y6.7556
G01 X15.6587 Y6.7402
G01 X15.6443 Y6.7247
G01 X15.6357 Y6.7144
G01 X15.6226 Y6.6965
G01 X15.6174 Y6.6884
G01 X15.6066 Y6.6699
G01 X15.5962 Y6.6482
G01 X15.5919 Y6.6377
G01 X15.5850 Y6.6179
G01 X15.5796 Y6.5973
G01 X15.5770 Y6.5845
G01 X15.5738 Y6.5627
G01 X15.5730 Y6.5525
G01 X15.5722 Y6.5310
G01 X15.5732 Y6.5084
G01 X15.5745 Y6.4957
G01 X15.5777 Y6.4750
G01 X15.5827 Y6.4544
G01 X15.5862 Y6.4422
G01 X15.5946 Y6.4192
G01 X15.6032 Y6.4005
G01 X15.6088 Y6.3897
G01 X15.6215 Y6.3689
G01 X15.6342 Y6.3513
G01 X15.6422 Y6.3414
G01 X15.6571 Y6.3251
G01 X16.7417 Y5.2405
G01 X16.7417 Y3.4852
G01 X15.5006 Y2.2441
G01 X13.7453 Y2.2441
G01 X12.5042 Y3.4852
G01 X12.5042 Y5.2405
G01 X13.7453 Y6.4816
G01 X15.1775 Y6.4816
G01 X15.2038 Y6.4830
G01 X15.2310 Y6.4870
G01 X15.2581 Y6.4936
G01 X15.2804 Y6.5012
G01 X15.3034 Y6.4376
G01 X15.3200 Y6.4443
G01 X15.3439 Y6.4558
G01 X15.3681 Y6.4698
G01 X15.3816 Y6.4787
G01 X15.4033 Y6.4950
G01 X15.4226 Y6.5120
G01 X15.4348 Y6.5238
G01 X15.4517 Y6.5425
G01 X15.4613 Y6.5545
G01 X15.4766 Y6.5757
G01 X15.4902 Y6.5980
G01 X15.4980 Y6.6126
G01 X15.5092 Y6.6369
G01 X15.5179 Y6.6601
G01 X15.5232 Y6.6770
G01 X15.5288 Y6.6992
G01 X15.5317 Y6.7149
G01 X15.5352 Y6.7398
G01 X15.5368 Y6.7665
G01 X15.5369 Y6.7824
G01 X15.5356 Y6.8069
G01 X15.5340 Y6.8218
G01 X15.5301 Y6.8461
G01 X15.5243 Y6.8707
G01 X15.5194 Y6.8873
G01 X15.5107 Y6.9113
G01 X15.5050 Y6.9243
G01 X15.4940 Y6.9469
G01 X15.4814 Y6.9685
G01 X15.4740 Y6.9799
G01 X15.4588 Y7.0005
G01 X15.4478 Y7.0136
G01 X15.4310 Y7.0317
G01 X13.4338 Y9.0289
G01 X13.4338 Y10.0968
G01 X14.1890 Y10.8520
G01 X15.2569 Y10.8520
G01 X16.5309 Y9.5780
G01 X16.5392 Y9.5700
G01 X16.5516 Y9.5589
G01 X16.5613 Y9.5508
G01 X16.5793 Y9.5374
G01 X16.5904 Y9.5300
G01 X16.6085 Y9.5190
G01 X16.6183 Y9.5136
G01 X16.6385 Y9.5038
G01 X16.6492 Y9.4992
G01 X16.6811 Y9.4878
G01 X16.6923 Y9.4846
G01 X16.7133 Y9.4795
G01 X16.7259 Y9.4772
G01 X16.7472 Y9.4742
G01 X16.7578 Y9.4732
G01 X16.7759 Y9.4722
G01 X16.7868 Y9.4720
G01 X27.1611 Y9.4720
G01 X27.1838 Y9.4729
G01 X27.1963 Y9.4739
G01 X27.2200 Y9.4771
G01 X27.2337 Y9.4797
G01 X27.2555 Y9.4850
G01 X27.2687 Y9.4889
G01 X27.2901 Y9.4964
G01 X27.3070 Y9.5035
G01 X27.3225 Y9.5109
G01 X27.3363 Y9.5182
G01 X27.3556 Y9.5297
G01 X27.3696 Y9.5393
G01 X27.3856 Y9.5514
G01 X27.3960 Y9.5601
G01 X27.4121 Y9.5748
G01 X27.4364 Y9.5990
G01 X28.6282 Y9.5990
G01 X28.6444 Y9.5904
G01 X28.6684 Y9.5793
G01 X28.6929 Y9.5703
G01 X28.7107 Y9.5649
G01 X28.7361 Y9.5589
G01 X28.7634 Y9.5546
G01 X28.7787 Y9.5531
G01 X28.8060 Y9.5520
G01 X40.5576 Y9.5520
G01 X40.5910 Y9.5536
G01 X40.6021 Y9.5550
G01 X40.6233 Y9.5582
G01 X40.6365 Y9.5610
G01 X40.6578 Y9.5665
G01 X40.6669 Y9.5693
G01 X40.6848 Y9.5756
G01 X40.6949 Y9.5796
G01 X40.7053 Y9.5842
G01 X40.7234 Y9.5929
G01 X40.7353 Y9.5994
G01 X40.7599 Y9.6147
G01 X40.7780 Y9.6279
G01 X40.7885 Y9.6363
G01 X40.8119 Y9.6577
G01 X41.1022 Y9.9479
G01 X41.1199 Y9.9671
G01 X41.1298 Y9.9790
G01 X41.1458 Y10.0009
G01 X41.1614 Y10.0261
G01 X41.1700 Y10.0425
G01 X41.1770 Y10.0572
G01 X41.1821 Y10.0691
G01 X41.1922 Y10.0980
G01 X41.1995 Y10.1257
G01 X41.2030 Y10.1444
G01 X41.2057 Y10.1631
G01 X41.2069 Y10.1755
G01 X41.2080 Y10.2037
G01 X41.2080 Y15.6312
G01 X41.2071 Y15.6548
G01 X41.2062 Y15.6674
G01 X41.2030 Y15.6900
G01 X41.2008 Y15.7024
G01 X41.1955 Y15.7247
G01 X41.1924 Y15.7358
G01 X41.1846 Y15.7585
G01 X41.1800 Y15.7703
G01 X41.1705 Y15.7911
G01 X41.1648 Y15.8023
G01 X41.1481 Y15.8302
G01 X41.1412 Y15.8402
G01 X41.1280 Y15.8577
G01 X41.1208 Y15.8663
G01 X41.1072 Y15.8814
G01 X41.0975 Y15.8911
G01 X41.0803 Y15.9067
G01 X41.0716 Y15.9138
G01 X41.0557 Y15.9257
G01 X41.0444 Y15.9335
G01 X41.0267 Y15.9443
G01 X41.0170 Y15.9498
G01 X41.0067 Y15.9550
G01 X40.9911 Y15.9623
G01 X40.9799 Y15.9670
G01 X40.9578 Y15.9750
G01 X40.9459 Y15.9786
G01 X40.9263 Y15.9836
G01 X40.9132 Y15.9864
G01 X40.8915 Y15.9898
G01 X40.8777 Y15.9913
G01 X40.8554 Y15.9925
G01 X40.8445 Y15.9927
G01 X40.8218 Y15.9918
G01 X40.8098 Y15.9909
G01 X40.7869 Y15.9877
G01 X40.7761 Y15.9858
G01 X40.7647 Y15.9833
G01 X40.7432 Y15.9777
G01 X40.7301 Y15.9735
G01 X40.7063 Y15.9646
G01 X40.6838 Y15.9541
G01 X40.6671 Y15.9452
G01 X40.6452 Y15.9318
G01 X40.6249 Y15.9171
G01 X40.6120 Y15.9067
G01 X40.5954 Y15.8917
G01 X39.8043 Y15.1008
G01 X38.8416 Y15.1008
G01 X38.1608 Y15.7815
G01 X38.1608 Y16.2389
G01 X38.1606 Y16.2500
G01 X38.1597 Y16.2671
G01 X38.1586 Y16.2786
G01 X38.1557 Y16.2994
G01 X38.1535 Y16.3113
G01 X38.1483 Y16.3328
G01 X38.1452 Y16.3439
G01 X38.1347 Y16.3737
G01 X38.1301 Y16.3847
G01 X38.1230 Y16.3999
G01 X38.1138 Y16.4172
G01 X38.1006 Y16.4387
G01 X38.0852 Y16.4601
G01 X38.0736 Y16.4744
G01 X38.0551 Y16.4945
G01 X38.0352 Y16.5129
G01 X38.0221 Y16.5237
G01 X38.0003 Y16.5396
G01 X37.9779 Y16.5534
G01 X37.9615 Y16.5621
G01 X37.9368 Y16.5735
G01 X37.9109 Y16.5829
G01 X37.8937 Y16.5880
G01 X37.8701 Y16.5937
G01 X37.8443 Y16.5978
G01 X37.8271 Y16.5996
G01 X37.7989 Y16.6008
G01 X36.7469 Y16.6008
G01 X36.7354 Y16.6005
G01 X36.7103 Y16.5989
G01 X36.6827 Y16.5950
G01 X36.6655 Y16.5914
G01 X36.6502 Y16.5875
G01 X36.6384 Y16.5841
G01 X36.6100 Y16.5739
G01 X36.5859 Y16.5629
G01 X36.5670 Y16.5528
G01 X36.5431 Y16.5379
G01 X36.5252 Y16.5248
G01 X36.5153 Y16.5169
G01 X36.4991 Y16.5024
G01 X36.4899 Y16.4936
G01 X36.4742 Y16.4767
G01 X36.4664 Y16.4675
G01 X36.4527 Y16.4493
G01 X36.4454 Y16.4389
G01 X36.4335 Y16.4195
G01 X36.4280 Y16.4099
G01 X36.4226 Y16.3992
G01 X36.4126 Y16.3774
G01 X36.4084 Y16.3666
G01 X36.4011 Y16.3455
G01 X36.3976 Y16.3328
G01 X36.3924 Y16.3113
G01 X36.3901 Y16.2985
G01 X36.3870 Y16.2763
G01 X36.3860 Y16.2641
G01 X36.3851 Y16.2430
G01 X36.3850 Y15.7815
G01 X35.7043 Y15.1008
G01 X32.5416 Y15.1008
G01 X31.8608 Y15.7815
G01 X31.8607 Y15.9902
G01 X31.8590 Y16.0202
G01 X31.8542 Y16.0528
G01 X31.8483 Y16.0776
G01 X31.8446 Y16.0908
G01 X31.8364 Y16.1142
G01 X31.8288 Y16.1321
G01 X31.8175 Y16.1553
G01 X31.8044 Y16.1776
G01 X31.7946 Y16.1922
G01 X31.7799 Y16.2117
G01 X31.7716 Y16.2214
G01 X31.7557 Y16.2386
G01 X31.7468 Y16.2472
G01 X31.7305 Y16.2617
G01 X31.7202 Y16.2699
G01 X31.7012 Y16.2837
G01 X31.6907 Y16.2904
G01 X31.6708 Y16.3021
G01 X31.6596 Y16.3078
G01 X31.6386 Y16.3175
G01 X31.6267 Y16.3221
G01 X31.6058 Y16.3294
G01 X31.5938 Y16.3328
G01 X31.5720 Y16.3380
G01 X31.5594 Y16.3403
G01 X31.5387 Y16.3433
G01 X31.5266 Y16.3444
G01 X31.5039 Y16.3455
G01 X31.4924 Y16.3454
G01 X31.4746 Y16.3446
G01 X31.4529 Y16.3425
G01 X31.4347 Y16.3397
G01 X31.4205 Y16.3369
G01 X31.3918 Y16.3293
G01 X31.3712 Y16.3221
G01 X31.3600 Y16.3178
G01 X31.3387 Y16.3080
G01 X31.3284 Y16.3028
G01 X31.3022 Y16.2873
G01 X31.2904 Y16.2793
G01 X31.2726 Y16.2660
G01 X31.2627 Y16.2577
G01 X31.2466 Y16.2430
G01 X31.0043 Y16.0008
G01 X27.9469 Y16.0008
G01 X27.9226 Y15.9998
G01 X27.9086 Y15.9987
G01 X27.8835 Y15.9951
G01 X27.8681 Y15.9920
G01 X27.8425 Y15.9854
G01 X27.8185 Y15.9771
G01 X27.8029 Y15.9708
G01 X27.7787 Y15.9593
G01 X27.7663 Y15.9523
G01 X27.7446 Y15.9389
G01 X27.7243 Y15.9241
G01 X27.7107 Y15.9129
G01 X27.6910 Y15.8948
G01 X27.6742 Y15.8767
G01 X27.6633 Y15.8635
G01 X27.6473 Y15.8418
G01 X27.6399 Y15.8302
G01 X27.6270 Y15.8081
G01 X27.6173 Y15.7879
G01 X27.6122 Y15.7765
G01 X27.6041 Y15.7544
G01 X27.6003 Y15.7428
G01 X27.5945 Y15.7207
G01 X27.5919 Y15.7089
G01 X27.5882 Y15.6858
G01 X27.5867 Y15.6738
G01 X27.5853 Y15.6504
G01 X27.5850 Y15.6393
G01 X27.5850 Y15.3815
G01 X25.6043 Y13.4008
G01 X24.6416 Y13.4008
G01 X23.2028 Y14.8395
G01 X23.1852 Y14.8558
G01 X23.1731 Y14.8661
G01 X23.1574 Y14.8779
G01 X23.1490 Y14.8838
G01 X23.1382 Y14.8907
G01 X23.1214 Y14.9007
G01 X23.1096 Y14.9068
G01 X23.0889 Y14.9165
G01 X23.0747 Y14.9221
G01 X23.0568 Y14.9284
G01 X23.0474 Y14.9313
G01 X23.0246 Y14.9371
G01 X23.0110 Y14.9398
G01 X22.9894 Y14.9430
G01 X22.9766 Y14.9443
G01 X22.9528 Y14.9454
G01 X22.9361 Y14.9453
G01 X22.9188 Y14.9444
G01 X22.9082 Y14.9434
G01 X22.8762 Y14.9385
G01 X22.8449 Y14.9308
G01 X22.8351 Y14.9277
G01 X22.8185 Y14.9219
G01 X22.8080 Y14.9178
G01 X22.7984 Y14.9135
G01 X22.7799 Y14.9046
G01 X22.7701 Y14.8993
G01 X22.7446 Y14.8837
G01 X22.7215 Y14.8667
G01 X22.7118 Y14.8586
G01 X22.6985 Y14.8467
G01 X22.6839 Y14.8321
G01 X22.6722 Y14.8192
G01 X22.6649 Y14.8104
G01 X22.6459 Y14.7844
G01 X22.6290 Y14.7564
G01 X22.6167 Y14.7314
G01 X22.6088 Y14.7125
G01 X22.6029 Y14.6956
G01 X22.5989 Y14.6829
G01 X22.5922 Y14.6553
G01 X22.5882 Y14.6305
G01 X22.5863 Y14.6132
G01 X22.5851 Y14.5877
G01 X22.5850 Y13.6815
G01 X21.9043 Y13.0008
G01 X16.5416 Y13.0008
G01 X15.8608 Y13.6815
G01 X15.8608 Y19.7442
G01 X16.5416 Y20.4250
G01 X21.7043 Y20.4250
G01 X22.0188 Y20.1105
G01 X22.0413 Y20.0901
G01 X22.0637 Y20.0730
G01 X22.0816 Y20.0611
G01 X22.0969 Y20.0520
G01 X22.1094 Y20.0454
G01 X22.1363 Y20.0330
G01 X22.1671 Y20.0221
G01 X22.1781 Y20.0190
G01 X22.1987 Y20.0139
G01 X22.2096 Y20.0119
G01 X22.2273 Y20.0092
G01 X22.2478 Y20.0072
G01 X22.2663 Y20.0063
G01 X22.2795 Y20.0063
G01 X22.2984 Y20.0072
G01 X22.3104 Y20.0082
G01 X22.3428 Y20.0130
G01 X22.3539 Y20.0155
G01 X22.3748 Y20.0209
G01 X22.4014 Y20.0299
G01 X22.4119 Y20.0340
G01 X22.4215 Y20.0382
G01 X22.4400 Y20.0471
G01 X22.4498 Y20.0524
G01 X22.4752 Y20.0681
G01 X22.5010 Y20.0871
G01 X22.5111 Y20.0957
G01 X22.5288 Y20.1122
G01 X23.0416 Y20.6250
G01 X24.0043 Y20.6250
G01 X24.6850 Y19.9442
G01 X24.6853 Y19.9310
G01 X24.6867 Y19.9072
G01 X24.6882 Y19.8955
G01 X24.6918 Y19.8723
G01 X24.6945 Y19.8603
G01 X24.7005 Y19.8374
G01 X24.7084 Y19.8144
G01 X24.7128 Y19.8032
G01 X24.7226 Y19.7818
G01 X24.7284 Y19.7704
G01 X24.7400 Y19.7505
G01 X24.7469 Y19.7398
G01 X24.7606 Y19.7209
G01 X24.7689 Y19.7105
G01 X24.7834 Y19.6943
G01 X24.7922 Y19.6850
G01 X24.8091 Y19.6694
G01 X24.8189 Y19.6611
G01 X24.8376 Y19.6470
G01 X24.8492 Y19.6390
G01 X24.8680 Y19.6276
G01 X24.8804 Y19.6208
G01 X24.9042 Y19.6096
G01 X24.9174 Y19.6043
G01 X24.9367 Y19.5974
G01 X24.9493 Y19.5937
G01 X24.9713 Y19.5882
G01 X24.9877 Y19.5852
G01 X25.0120 Y19.5819
G01 X25.0354 Y19.5805
G01 X25.0510 Y19.5803
G01 X25.0713 Y19.5811
G01 X25.0926 Y19.5832
G01 X25.1111 Y19.5860
G01 X25.1246 Y19.5887
G01 X25.1532 Y19.5962
G01 X25.1848 Y19.6075
G01 X25.1954 Y19.6122
G01 X25.2151 Y19.6217
G01 X25.2391 Y19.6355
G01 X25.2561 Y19.6469
G01 X25.2700 Y19.6573
G01 X25.2804 Y19.6657
G01 X25.3028 Y19.6862
G01 X25.9416 Y20.3250
G01 X26.9043 Y20.3250
G01 X27.5850 Y19.6442
G01 X27.5850 Y18.6864
G01 X27.5864 Y18.6552
G01 X27.5876 Y18.6442
G01 X27.5901 Y18.6272
G01 X27.5933 Y18.6101
G01 X27.5997 Y18.5850
G01 X27.6042 Y18.5709
G01 X27.6128 Y18.5479
G01 X27.6229 Y18.5259
G01 X27.6299 Y18.5124
G01 X27.6419 Y18.4922
G01 X27.6517 Y18.4776
G01 X27.6666 Y18.4580
G01 X27.6834 Y18.4390
G01 X27.6946 Y18.4275
G01 X27.7128 Y18.4110
G01 X27.7252 Y18.4009
G01 X27.7460 Y18.3859
G01 X27.7680 Y18.3724
G01 X27.7811 Y18.3652
G01 X27.8042 Y18.3543
G01 X27.8186 Y18.3486
G01 X27.8411 Y18.3408
G01 X27.8651 Y18.3344
G01 X27.8827 Y18.3307
G01 X27.9064 Y18.3273
G01 X27.9192 Y18.3261
G01 X27.9428 Y18.3250
G01 X31.0043 Y18.3250
G01 X31.2456 Y18.0837
G01 X31.2613 Y18.0693
G01 X31.2700 Y18.0618
G01 X31.2967 Y18.0420
G01 X31.3072 Y18.0353
G01 X31.3261 Y18.0242
G01 X31.3499 Y18.0124
G01 X31.3689 Y18.0045
G01 X31.3959 Y17.9952
G01 X31.4272 Y17.9874
G01 X31.4563 Y17.9828
G01 X31.4696 Y17.9814
G01 X31.4887 Y17.9804
G01 X31.5101 Y17.9805
G01 X31.5355 Y17.9821
G01 X31.5623 Y17.9859
G01 X31.5778 Y17.9890
G01 X31.6052 Y17.9962
G01 X31.6296 Y18.0047
G01 X31.6465 Y18.0117
G01 X31.6706 Y18.0235
G01 X31.6936 Y18.0371
G01 X31.7082 Y18.0469
G01 X31.7305 Y18.0641
G01 X31.7501 Y18.0816
G01 X31.7619 Y18.0936
G01 X31.7792 Y18.1132
G01 X31.7954 Y18.1346
G01 X31.8052 Y18.1495
G01 X31.8190 Y18.1731
G01 X31.8286 Y18.1931
G01 X31.8336 Y18.2044
G01 X31.8418 Y18.2265
G01 X31.8459 Y18.2391
G01 X31.8516 Y18.2612
G01 X31.8542 Y18.2729
G01 X31.8580 Y18.2973
G01 X31.8596 Y18.3124
G01 X31.8608 Y18.3421
G01 X31.8608 Y18.7442
G01 X31.9782 Y18.8617
G01 X31.9986 Y18.8848
G01 X32.0122 Y18.9027
G01 X32.0187 Y18.9119
G01 X32.0312 Y18.9322
G01 X32.0379 Y18.9443
G01 X32.0485 Y18.9664
G01 X32.0553 Y18.9828
G01 X32.0626 Y19.0035
G01 X32.0671 Y19.0189
G01 X32.0725 Y19.0417
G01 X32.0766 Y19.0669
G01 X32.0786 Y19.0873
G01 X32.0795 Y19.1063
G01 X32.0795 Y19.1194
G01 X32.0777 Y19.1492
G01 X32.0734 Y19.1793
G01 X32.0711 Y19.1908
G01 X32.0669 Y19.2074
G01 X32.0611 Y19.2268
G01 X32.0550 Y19.2438
G01 X32.0507 Y19.2545
G01 X32.0379 Y19.2814
G01 X32.0312 Y19.2935
G01 X32.0177 Y19.3151
G01 X32.0029 Y19.3355
G01 X31.9918 Y19.3491
G01 X31.9739 Y19.3684
G01 X31.8608 Y19.4815
G01 X31.8608 Y20.4442
G01 X32.5416 Y21.1250
G01 X35.6043 Y21.1250
G01 X36.2850 Y20.4442
G01 X36.2850 Y20.0421
G01 X36.2860 Y20.0174
G01 X36.2870 Y20.0043
G01 X36.2900 Y19.9828
G01 X36.2919 Y19.9721
G01 X36.2945 Y19.9602
G01 X36.2991 Y19.9422
G01 X36.3026 Y19.9308
G01 X36.3106 Y19.9085
G01 X36.3164 Y19.8949
G01 X36.3283 Y19.8706
G01 X36.3419 Y19.8474
G01 X36.3523 Y19.8322
G01 X36.3689 Y19.8104
G01 X36.3899 Y19.7874
G01 X36.4090 Y19.7695
G01 X36.4242 Y19.7569
G01 X36.4473 Y19.7403
G01 X36.4742 Y19.7241
G01 X36.4981 Y19.7123
G01 X36.5168 Y19.7045
G01 X36.5419 Y19.6958
G01 X36.5690 Y19.6887
G01 X36.5860 Y19.6855
G01 X36.6106 Y19.6820
G01 X36.6395 Y19.6803
G01 X36.6543 Y19.6803
G01 X36.6792 Y19.6817
G01 X36.6920 Y19.6831
G01 X36.7128 Y19.6863
G01 X36.7271 Y19.6893
G01 X36.7499 Y19.6952
G01 X36.7622 Y19.6991
G01 X36.7799 Y19.7056
G01 X36.7941 Y19.7116
G01 X36.8151 Y19.7217
G01 X36.8252 Y19.7272
G01 X36.8435 Y19.7383
G01 X36.8552 Y19.7462
G01 X36.8732 Y19.7597
G01 X36.8812 Y19.7664
G01 X36.8957 Y19.7794
G01 X38.8416 Y21.7250
G01 X39.8043 Y21.7250
G01 X40.5907 Y20.9386
G01 X40.6139 Y20.9174
G01 X40.6230 Y20.9101
G01 X40.6359 Y20.9004
G01 X40.6520 Y20.8896
G01 X40.6746 Y20.8763
G01 X40.6989 Y20.8644
G01 X40.7139 Y20.8581
G01 X40.7400 Y20.8490
G01 X40.7644 Y20.8425
G01 X40.7819 Y20.8388
G01 X40.8056 Y20.8353
G01 X40.8210 Y20.8340
G01 X40.8470 Y20.8330
G01 X40.8738 Y20.8341
G01 X40.8891 Y20.8356
G01 X40.9159 Y20.8398
G01 X40.9401 Y20.8455
G01 X40.9591 Y20.8512
G01 X40.9809 Y20.8591
G01 X40.9902 Y20.8630
G01 X41.0071 Y20.8709
G01 X41.0260 Y20.8810
G01 X41.0485 Y20.8950
G01 X41.0742 Y20.9139
G01 X41.0824 Y20.9209
G01 X41.0967 Y20.9339
G01 X41.1091 Y20.9465
G01 X41.1274 Y20.9672
G01 X41.1449 Y20.9908
G01 X41.1518 Y21.0014
G01 X41.1604 Y21.0156
G01 X41.1698 Y21.0333
G01 X41.1812 Y21.0583
G01 X41.1914 Y21.0867
G01 X41.1986 Y21.1135
G01 X41.2024 Y21.1315
G01 X41.2063 Y21.1600
G01 X41.2079 Y21.1875
G01 X41.2080 Y27.2031
G01 X45.2542 Y31.2493
G01 X56.1622 Y31.2493
G01 X60.7540 Y26.6575
G01 X60.7713 Y26.6415
G01 X60.7805 Y26.6336
G01 X60.7990 Y26.6196
G01 X60.8091 Y26.6125
G01 X60.8293 Y26.6001
G01 X60.8405 Y26.5938
G01 X60.8622 Y26.5833
G01 X60.8749 Y26.5779
G01 X60.8951 Y26.5706
G01 X60.9061 Y26.5670
G01 X60.9280 Y26.5613
G01 X60.9396 Y26.5588
G01 X60.9625 Y26.5551
G01 X60.9745 Y26.5537
G01 X60.9979 Y26.5523
G01 X61.0090 Y26.5520
G01 X65.1003 Y26.5520
G01 X65.1255 Y26.5529
G01 X65.1460 Y26.5550
G01 X65.1648 Y26.5578
G01 X65.1774 Y26.5603
G01 X65.2053 Y26.5676
G01 X65.2343 Y26.5777
G01 X65.2458 Y26.5826
G01 X65.2606 Y26.5895
G01 X65.2771 Y26.5982
G01 X65.3012 Y26.6129
G01 X65.3215 Y26.6276
G01 X65.3354 Y26.6389
G01 X65.3553 Y26.6571
G01 X65.6312 Y26.9330
G01 X67.0147 Y26.9330
G01 X67.9930 Y25.9546
G01 X67.9930 Y24.5711
G01 X67.7158 Y24.2938
G01 X67.6959 Y24.2719
G01 X67.6887 Y24.2628
G01 X67.6783 Y24.2487
G01 X67.6669 Y24.2315
G01 X67.6588 Y24.2179
G01 X67.6516 Y24.2045
G01 X67.6432 Y24.1870
G01 X67.6389 Y24.1770
G01 X67.6286 Y24.1484
G01 X67.6252 Y24.1365
G01 X67.6211 Y24.1204
G01 X67.6173 Y24.1011
G01 X67.6137 Y24.0743
G01 X67.6121 Y24.0443
G01 X67.6120 Y22.8125
G01 X67.6129 Y22.7886
G01 X67.6140 Y22.7751
G01 X67.6177 Y22.7492
G01 X67.6211 Y22.7323
G01 X67.6278 Y22.7069
G01 X67.6362 Y22.6826
G01 X67.6431 Y22.6660
G01 X67.6549 Y22.6418
G01 X67.6681 Y22.6192
G01 X67.6783 Y22.6040
G01 X67.6887 Y22.5899
G01 X67.6959 Y22.5809
G01 X67.7152 Y22.5596
G01 X67.9120 Y22.3626
G01 X67.9120 Y21.2947
G01 X67.1569 Y20.5396
G01 X67.1424 Y20.5394
G01 X67.1206 Y20.5382
G01 X67.1091 Y20.5370
G01 X67.0863 Y20.5335
G01 X67.0743 Y20.5310
G01 X67.0513 Y20.5252
G01 X67.0391 Y20.5214
G01 X67.0219 Y20.5152
G01 X67.0075 Y20.5093
G01 X66.9892 Y20.5007
G01 X66.9769 Y20.4943
G01 X66.9602 Y20.4843
G01 X66.9484 Y20.4767
G01 X66.9305 Y20.4636
G01 X66.9202 Y20.4554
G01 X66.9104 Y20.4468
G01 X66.8123 Y20.4467
G01 X66.7824 Y20.4454
G01 X66.7674 Y20.4437
G01 X66.7433 Y20.4398
G01 X66.7193 Y20.4341
G01 X66.7035 Y20.4294
G01 X66.6837 Y20.4224
G01 X66.6693 Y20.4165
G01 X66.6469 Y20.4059
G01 X66.6333 Y20.3983
G01 X66.6130 Y20.3858
G01 X66.5928 Y20.3712
G01 X66.5798 Y20.3608
G01 X66.5628 Y20.3454
G01 X61.7974 Y15.5801
G01 X61.7801 Y15.5614
G01 X61.7715 Y15.5511
G01 X61.7551 Y15.5289
G01 X61.7468 Y15.5161
G01 X61.7351 Y15.4960
G01 X61.7237 Y15.4728
G01 X61.7171 Y15.4570
G01 X61.7080 Y15.4313
G01 X61.7045 Y15.4187
G01 X61.6992 Y15.3964
G01 X61.6970 Y15.3840
G01 X61.6939 Y15.3614
G01 X61.6929 Y15.3488
G01 X61.6920 Y15.3256
G01 X61.6923 Y15.3133
G01 X61.6936 Y15.2907
G01 X61.6952 Y15.2779
G01 X61.6988 Y15.2548
G01 X61.7015 Y15.2429
G01 X61.7076 Y15.2198
G01 X61.7111 Y15.2090
G01 X61.7187 Y15.1884
G01 X61.7242 Y15.1758
G01 X61.7337 Y15.1563
G01 X61.7404 Y15.1442
G01 X61.7519 Y15.1254
G01 X61.7590 Y15.1151
G01 X61.7731 Y15.0965
G01 X61.7812 Y15.0870
G01 X61.7974 Y15.0695
G01 X61.8061 Y15.0612
G01 X61.8223 Y15.0467
G01 X61.8327 Y15.0385
G01 X61.8516 Y15.0248
G01 X61.8626 Y15.0177
G01 X61.8820 Y15.0063
G01 X61.8926 Y15.0009
G01 X61.9141 Y14.9910
G01 X61.9250 Y14.9867
G01 X61.9454 Y14.9796
G01 X61.9565 Y14.9763
G01 X61.9737 Y14.9720
G01 X61.9930 Y14.9682
G01 X62.0192 Y14.9646
G01 X62.0498 Y14.9630
G01 X63.1944 Y14.9629
G01 X63.2059 Y14.9632
G01 X63.2290 Y14.9646
G01 X63.2409 Y14.9660
G01 X63.2618 Y14.9693
G01 X63.2750 Y14.9721
G01 X63.2973 Y14.9779
G01 X63.3243 Y14.9871
G01 X63.3381 Y14.9927
G01 X63.3574 Y15.0018
G01 X63.3688 Y15.0078
G01 X63.3857 Y15.0177
G01 X63.3962 Y15.0244
G01 X63.4049 Y15.0305
G01 X63.4207 Y15.0424
G01 X63.4325 Y15.0524
G01 X63.4503 Y15.0689
G01 X64.6468 Y16.2655
G01 X64.6647 Y16.2848
G01 X64.6740 Y16.2959
G01 X64.6917 Y16.3201
G01 X64.7048 Y16.3415
G01 X64.7137 Y16.3578
G01 X64.7260 Y16.3846
G01 X64.7367 Y16.4147
G01 X64.7436 Y16.4407
G01 X64.7476 Y16.4604
G01 X64.7502 Y16.4784
G01 X64.7514 Y16.4898
G01 X64.7528 Y16.5214
G01 X64.7528 Y17.2546
G01 X65.7312 Y18.2330
G01 X66.5201 Y18.2330
G01 X66.5458 Y18.2340
G01 X66.5628 Y18.2355
G01 X66.5901 Y18.2398
G01 X66.6161 Y18.2460
G01 X66.6332 Y18.2512
G01 X66.6575 Y18.2601
G01 X66.6811 Y18.2708
G01 X66.6977 Y18.2796
G01 X66.7211 Y18.2939
G01 X66.7406 Y18.3080
G01 X66.7497 Y18.3151
G01 X66.7584 Y18.3226
G01 X66.7760 Y18.3390
G01 X68.5424 Y20.1054
G01 X68.5594 Y20.1237
G01 X68.5686 Y20.1346
G01 X68.5873 Y20.1600
G01 X68.6017 Y20.1836
G01 X68.6082 Y20.1955
G01 X68.6165 Y20.2129
G01 X68.6247 Y20.2328
G01 X68.6338 Y20.2594
G01 X68.6390 Y20.2799
G01 X68.6416 Y20.2913
G01 X68.6465 Y20.3239
G01 X68.6482 Y20.3510
G01 X68.6484 Y22.1114
G01 X69.3010 Y22.7640
G01 X69.3176 Y22.7819
G01 X69.3262 Y22.7920
G01 X69.3392 Y22.8092
G01 X69.3463 Y22.8194
G01 X69.3584 Y22.8391
G01 X69.3644 Y22.8496
G01 X69.3693 Y22.8594
G01 X69.3788 Y22.8801
G01 X69.3834 Y22.8920
G01 X69.3907 Y22.9131
G01 X69.3943 Y22.9258
G01 X69.3995 Y22.9473
G01 X69.4017 Y22.9592
G01 X69.4046 Y22.9799
G01 X69.4057 Y22.9915
G01 X69.4067 Y23.0123
G01 X69.4068 Y23.0494
G01 X70.2364 Y23.8790
G01 X71.4493 Y23.8790
G01 X71.4704 Y23.8712
G01 X71.4830 Y23.8671
G01 X71.5046 Y23.8614
G01 X71.5164 Y23.8588
G01 X71.5395 Y23.8551
G01 X71.5515 Y23.8537
G01 X71.5749 Y23.8523
G01 X71.5860 Y23.8520
G01 X75.5371 Y23.8520
G01 X75.5624 Y23.8529
G01 X75.5785 Y23.8544
G01 X75.6010 Y23.8577
G01 X75.6142 Y23.8603
G01 X75.6310 Y23.8645
G01 X75.6422 Y23.8676
G01 X75.6529 Y23.8711
G01 X75.6718 Y23.8780
G01 X75.6851 Y23.8837
G01 X75.7001 Y23.8909
G01 X75.7116 Y23.8968
G01 X75.7291 Y23.9072
G01 X75.7409 Y23.9148
G01 X75.7588 Y23.9279
G01 X75.7697 Y23.9366
G01 X75.7877 Y23.9528
G01 X75.7976 Y23.9627
G01 X75.8112 Y23.9776
G01 X75.8187 Y23.9866
G01 X75.8318 Y24.0040
G01 X75.8397 Y24.0154
G01 X75.8510 Y24.0339
G01 X75.8571 Y24.0449
G01 X75.8674 Y24.0662
G01 X75.8721 Y24.0771
G01 X75.8798 Y24.0979
G01 X75.8839 Y24.1104
G01 X75.8918 Y24.1422
G01 X75.8940 Y24.1546
G01 X75.8971 Y24.1773
G01 X75.8980 Y24.1886
G01 X75.8989 Y24.2098
G01 X75.8988 Y24.2241
G01 X75.8974 Y24.2480
G01 X75.8959 Y24.2604
G01 X75.8923 Y24.2830
G01 X75.8896 Y24.2953
G01 X75.8842 Y24.3164
G01 X75.8798 Y24.3298
G01 X75.8723 Y24.3502
G01 X75.8668 Y24.3629
G01 X75.8562 Y24.3846
G01 X75.8506 Y24.3945
G01 X75.8381 Y24.4148
G01 X75.8315 Y24.4242
G01 X75.8176 Y24.4425
G01 X75.8098 Y24.4516
G01 X75.7942 Y24.4686
G01 X71.6935 Y28.5693
G01 X71.6757 Y28.5856
G01 X71.6661 Y28.5937
G01 X71.6470 Y28.6080
G01 X71.6315 Y28.6183
G01 X71.6100 Y28.6308
G01 X71.5879 Y28.6416
G01 X71.5745 Y28.6474
G01 X71.5527 Y28.6554
G01 X71.5330 Y28.6612
G01 X71.5146 Y28.6658
G01 X71.5017 Y28.6682
G01 X71.4732 Y28.6721
G01 X71.4506 Y28.6735
G01 X71.4395 Y28.6738
G01 X66.9213 Y28.6737
G01 X66.8930 Y28.6721
G01 X66.8630 Y28.6679
G01 X66.8508 Y28.6654
G01 X66.8333 Y28.6611
G01 X66.8127 Y28.6548
G01 X66.7874 Y28.6453
G01 X66.7676 Y28.6362
G01 X66.7574 Y28.6310
G01 X66.7476 Y28.6255
G01 X66.7291 Y28.6142
G01 X66.7067 Y28.5982
G01 X66.6903 Y28.5847
G01 X66.6768 Y28.5724
G01 X66.6674 Y28.5630
G01 X66.6474 Y28.5405
G01 X66.6292 Y28.5160
G01 X66.6234 Y28.5074
G01 X66.6140 Y28.4918
G01 X66.6042 Y28.4735
G01 X66.5929 Y28.4487
G01 X66.5825 Y28.4198
G01 X63.4798 Y28.4198
G01 X63.4798 Y31.5060
G01 X66.5825 Y31.5060
G01 X66.5927 Y31.4775
G01 X66.6046 Y31.4515
G01 X66.6137 Y31.4344
G01 X66.6285 Y31.4106
G01 X66.6467 Y31.3862
G01 X66.6539 Y31.3776
G01 X66.6674 Y31.3627
G01 X66.6768 Y31.3534
G01 X66.6903 Y31.3410
G01 X66.7067 Y31.3276
G01 X66.7282 Y31.3121
G01 X66.7570 Y31.2949
G01 X66.7673 Y31.2897
G01 X66.7871 Y31.2805
G01 X66.8119 Y31.2712
G01 X66.8332 Y31.2647
G01 X66.8508 Y31.2603
G01 X66.8630 Y31.2579
G01 X66.8930 Y31.2537
G01 X66.9213 Y31.2521
G01 X72.6569 Y31.2520
G01 X80.0729 Y23.8360
G01 X80.0922 Y23.8181
G01 X80.1033 Y23.8088
G01 X80.1280 Y23.7908
G01 X80.1525 Y23.7759
G01 X80.1637 Y23.7698
G01 X80.1816 Y23.7614
G01 X80.2011 Y23.7534
G01 X80.2268 Y23.7446
G01 X80.2492 Y23.7389
G01 X80.2603 Y23.7365
G01 X80.2922 Y23.7318
G01 X80.3222 Y23.7301
G01 X80.9418 Y23.7300
G01 X80.9548 Y23.7261
G01 X80.9713 Y23.7219
G01 X80.9915 Y23.7179
G01 X81.0092 Y23.7153
G01 X81.0203 Y23.7142
G01 X81.0515 Y23.7128
G01 X83.5961 Y23.7128
G01 X88.1120 Y19.1968
G01 X88.1120 Y18.1289
G01 X84.3867 Y14.4036
G01 X84.3698 Y14.3853
G01 X84.3611 Y14.3750
G01 X84.3448 Y14.3531
G01 X84.3363 Y14.3399
G01 X84.3231 Y14.3172
G01 X84.3125 Y14.2953
G01 X84.3067 Y14.2816
G01 X84.2981 Y14.2575
G01 X84.2943 Y14.2445
G01 X84.2900 Y14.2277
G01 X84.2862 Y14.2079
G01 X84.2837 Y14.1910
G01 X84.2825 Y14.1797
G01 X84.2811 Y14.1481
G01 X84.2811 Y7.2875
G01 X79.9475 Y2.9539
G01 X79.0278 Y2.9539
G01 X79.0039 Y2.9530
G01 X78.9905 Y2.9520
G01 X78.9683 Y2.9489
G01 X78.9563 Y2.9468
G01 X78.9340 Y2.9414
G01 X78.9225 Y2.9382
G01 X78.9119 Y2.9347
G01 X78.8898 Y2.9265
G01 X78.8676 Y2.9164
G01 X78.8569 Y2.9110
G01 X78.8366 Y2.8991
G01 X78.8260 Y2.8924
G01 X78.8061 Y2.8778
G01 X78.7963 Y2.8701
G01 X78.7801 Y2.8556
G01 X78.7709 Y2.8468
G01 X78.7551 Y2.8297
G01 X78.7467 Y2.8198
G01 X75.5798 Y2.8198
G01 X75.5798 Y5.9060
G01 X78.8067 Y5.9060
G01 X78.8274 Y5.8910
G01 X78.8513 Y5.8765
G01 X78.8670 Y5.8682
G01 X78.8910 Y5.8573
G01 X78.9143 Y5.8488
G01 X78.9319 Y5.8434
G01 X78.9579 Y5.8372
G01 X78.9826 Y5.8333
G01 X79.0000 Y5.8315
G01 X79.0272 Y5.8304
G01 X79.0546 Y5.8314
G01 X79.0709 Y5.8330
G01 X79.0979 Y5.8372
G01 X79.1226 Y5.8431
G01 X79.1404 Y5.8484
G01 X79.1641 Y5.8570
G01 X79.1765 Y5.8624
G01 X79.1988 Y5.8733
G01 X79.2085 Y5.8788
G01 X79.2284 Y5.8910
G01 X79.2384 Y5.8980
G01 X79.2568 Y5.9120
G01 X79.2661 Y5.9199
G01 X79.2835 Y5.9361
G01 X81.5975 Y8.2501
G01 X81.6185 Y8.2731
G01 X81.6254 Y8.2816
G01 X81.6357 Y8.2954
G01 X81.6470 Y8.3124
G01 X81.6615 Y8.3374
G01 X81.6722 Y8.3596
G01 X81.6792 Y8.3768
G01 X81.6873 Y8.4003
G01 X81.6935 Y8.4239
G01 X81.6971 Y8.4411
G01 X81.7007 Y8.4656
G01 X81.7019 Y8.4801
G01 X81.7029 Y8.5049
G01 X81.7029 Y15.3659
G01 X83.0935 Y16.7564
G01 X83.1095 Y16.7737
G01 X83.1176 Y16.7833
G01 X83.1314 Y16.8014
G01 X83.1385 Y16.8116
G01 X83.1506 Y16.8313
G01 X83.1565 Y16.8418
G01 X83.1670 Y16.8634
G01 X83.1721 Y16.8751
G01 X83.1798 Y16.8959
G01 X83.1839 Y16.9084
G01 X83.1898 Y16.9312
G01 X83.1928 Y16.9451
G01 X83.1961 Y16.9666
G01 X83.1976 Y16.9803
G01 X83.1989 Y17.0045
G01 X83.1989 Y17.0168
G01 X83.1978 Y17.0401
G01 X83.1967 Y17.0524
G01 X83.1932 Y17.0761
G01 X83.1895 Y17.0937
G01 X83.1832 Y17.1176
G01 X83.1756 Y17.1396
G01 X83.1704 Y17.1529
G01 X83.1611 Y17.1728
G01 X83.1537 Y17.1872
G01 X83.1425 Y17.2060
G01 X83.1342 Y17.2184
G01 X83.1223 Y17.2345
G01 X83.1121 Y17.2470
G01 X83.0959 Y17.2648
G01 X83.0859 Y17.2746
G01 X83.0697 Y17.2891
G01 X83.0588 Y17.2978
G01 X83.0401 Y17.3114
G01 X83.0292 Y17.3184
G01 X83.0085 Y17.3306
G01 X82.9856 Y17.3418
G01 X82.9725 Y17.3474
G01 X82.9500 Y17.3556
G01 X82.9310 Y17.3612
G01 X82.9071 Y17.3669
G01 X82.8802 Y17.3711
G01 X82.8653 Y17.3726
G01 X82.8384 Y17.3738
G01 X76.9230 Y17.3737
G01 X76.8938 Y17.3721
G01 X76.8675 Y17.3686
G01 X76.8500 Y17.3652
G01 X76.8229 Y17.3582
G01 X76.7983 Y17.3497
G01 X76.7808 Y17.3424
G01 X76.7574 Y17.3310
G01 X76.7338 Y17.3172
G01 X76.7175 Y17.3061
G01 X76.7025 Y17.2949
G01 X76.6943 Y17.2882
G01 X76.6732 Y17.2689
G01 X76.6556 Y17.2500
G01 X76.6431 Y17.2350
G01 X76.6272 Y17.2131
G01 X76.6132 Y17.1903
G01 X76.6042 Y17.1735
G01 X76.5941 Y17.1514
G01 X76.5852 Y17.1279
G01 X76.5807 Y17.1137
G01 X76.5751 Y17.0921
G01 X76.5718 Y17.0761
G01 X76.5683 Y17.0516
G01 X76.5670 Y17.0371
G01 X76.5661 Y17.0135
G01 X76.5661 Y13.8098
G01 X76.5670 Y13.7886
G01 X76.5679 Y13.7773
G01 X76.5710 Y13.7546
G01 X76.5732 Y13.7422
G01 X76.5786 Y13.7199
G01 X76.5818 Y13.7082
G01 X76.5927 Y13.6775
G01 X76.5983 Y13.6648
G01 X76.6078 Y13.6451
G01 X76.6141 Y13.6338
G01 X76.6252 Y13.6156
G01 X76.6317 Y13.6061
G01 X76.6455 Y13.5876
G01 X76.6529 Y13.5787
G01 X76.6644 Y13.5660
G01 X76.6750 Y13.5551
G01 X76.6896 Y13.5416
G01 X76.6990 Y13.5336
G01 X76.7074 Y13.5270
G01 X76.7238 Y13.5151
G01 X76.7339 Y13.5085
G01 X76.7535 Y13.4968
G01 X76.7670 Y13.4898
G01 X76.7815 Y13.4830
G01 X76.7925 Y13.4783
G01 X76.8132 Y13.4707
G01 X76.8289 Y13.4658
G01 X76.8500 Y13.4605
G01 X76.8620 Y13.4580
G01 X76.8850 Y13.4546
G01 X76.8997 Y13.4531
G01 X76.9279 Y13.4520
G01 X78.3599 Y13.4520
G01 X78.3834 Y13.4529
G01 X78.3964 Y13.4539
G01 X78.4200 Y13.4571
G01 X78.4342 Y13.4598
G01 X78.4541 Y13.4647
G01 X78.4667 Y13.4683
G01 X78.4898 Y13.4763
G01 X78.5066 Y13.4833
G01 X78.5265 Y13.4929
G01 X78.5367 Y13.4984
G01 X78.5562 Y13.5102
G01 X78.5699 Y13.5196
G01 X78.5858 Y13.5315
G01 X78.5971 Y13.5410
G01 X78.6124 Y13.5551
G01 X78.6364 Y13.5790
G01 X79.8095 Y13.5790
G01 X80.6390 Y12.7494
G01 X80.6390 Y11.5763
G01 X79.8095 Y10.7468
G01 X78.6364 Y10.7468
G01 X78.6132 Y10.7698
G01 X78.5971 Y10.7847
G01 X78.5858 Y10.7942
G01 X78.5699 Y10.8061
G01 X78.5543 Y10.8168
G01 X78.5361 Y10.8277
G01 X78.5255 Y10.8334
G01 X78.5083 Y10.8416
G01 X78.4949 Y10.8474
G01 X78.4718 Y10.8558
G01 X78.4584 Y10.8599
G01 X78.4366 Y10.8654
G01 X78.4228 Y10.8681
G01 X78.3992 Y10.8715
G01 X78.3877 Y10.8726
G01 X78.3663 Y10.8737
G01 X75.6493 Y10.8738
G01 X73.3338 Y13.1892
G01 X73.3338 Y16.0568
G01 X73.3768 Y16.0999
G01 X73.3917 Y16.1161
G01 X73.3992 Y16.1250
G01 X73.4127 Y16.1429
G01 X73.4206 Y16.1543
G01 X73.4327 Y16.1742
G01 X73.4403 Y16.1884
G01 X73.4496 Y16.2081
G01 X73.4564 Y16.2250
G01 X73.4647 Y16.2493
G01 X73.4704 Y16.2709
G01 X73.4741 Y16.2885
G01 X73.4775 Y16.3121
G01 X73.4787 Y16.3245
G01 X73.4798 Y16.3478
G01 X73.4798 Y19.6060
G01 X74.5943 Y19.6060
G01 X74.6175 Y19.6069
G01 X74.6305 Y19.6079
G01 X74.6535 Y19.6111
G01 X74.6679 Y19.6138
G01 X74.6899 Y19.6192
G01 X74.7071 Y19.6245
G01 X74.7305 Y19.6331
G01 X74.7534 Y19.6435
G01 X74.7699 Y19.6522
G01 X74.7912 Y19.6651
G01 X74.8029 Y19.6731
G01 X74.8206 Y19.6864
G01 X74.8309 Y19.6952
G01 X74.8487 Y19.7117
G01 X75.0890 Y19.9520
G01 X82.8375 Y19.9520
G01 X82.8486 Y19.9523
G01 X82.8720 Y19.9537
G01 X82.8840 Y19.9551
G01 X82.9071 Y19.9588
G01 X82.9189 Y19.9614
G01 X82.9422 Y19.9676
G01 X82.9525 Y19.9710
G01 X82.9733 Y19.9786
G01 X82.9857 Y19.9840
G01 X83.0076 Y19.9947
G01 X83.0177 Y20.0004
G01 X83.0380 Y20.0129
G01 X83.0476 Y20.0196
G01 X83.0658 Y20.0334
G01 X83.0749 Y20.0412
G01 X83.0918 Y20.0568
G01 X83.1009 Y20.0663
G01 X83.1172 Y20.0848
G01 X83.1314 Y20.1034
G01 X83.1379 Y20.1126
G01 X83.1506 Y20.1332
G01 X83.1565 Y20.1438
G01 X83.1704 Y20.1729
G01 X83.1756 Y20.1861
G01 X83.1829 Y20.2072
G01 X83.1865 Y20.2199
G01 X83.1918 Y20.2422
G01 X83.1940 Y20.2546
G01 X83.1971 Y20.2773
G01 X83.1981 Y20.2894
G01 X83.1990 Y20.3122
G01 X83.1987 Y20.3250
G01 X83.1973 Y20.3488
G01 X83.1958 Y20.3608
G01 X83.1923 Y20.3830
G01 X83.1896 Y20.3953
G01 X83.1842 Y20.4164
G01 X83.1801 Y20.4290
G01 X83.1729 Y20.4487
G01 X83.1671 Y20.4621
G01 X83.1572 Y20.4827
G01 X83.1508 Y20.4942
G01 X83.1386 Y20.5141
G01 X83.1316 Y20.5239
G01 X83.1176 Y20.5425
G01 X83.1098 Y20.5516
G01 X83.0939 Y20.5689
G01 X82.6297 Y21.0329
G01 X82.6149 Y21.0464
G01 X82.6065 Y21.0535
G01 X82.5813 Y21.0722
G01 X82.5707 Y21.0791
G01 X82.5519 Y21.0902
G01 X82.5426 Y21.0950
G01 X82.5273 Y21.1023
G01 X82.5091 Y21.1100
G01 X82.4865 Y21.1180
G01 X82.4730 Y21.1218
G01 X82.4531 Y21.1267
G01 X82.4387 Y21.1294
G01 X82.4157 Y21.1326
G01 X82.4027 Y21.1336
G01 X82.3800 Y21.1345
G01 X79.1282 Y21.1345
G01 X79.0914 Y21.1713
G01 X79.0757 Y21.1856
G01 X79.0666 Y21.1933
G01 X79.0489 Y21.2066
G01 X79.0360 Y21.2155
G01 X79.0172 Y21.2268
G01 X79.0027 Y21.2346
G01 X78.9833 Y21.2438
G01 X78.9668 Y21.2504
G01 X78.9425 Y21.2586
G01 X78.9205 Y21.2644
G01 X78.9040 Y21.2679
G01 X78.8801 Y21.2714
G01 X78.8673 Y21.2726
G01 X78.8432 Y21.2737
G01 X71.7864 Y21.2738
G01 X71.7548 Y21.2724
G01 X71.7445 Y21.2713
G01 X71.7272 Y21.2688
G01 X71.7085 Y21.2652
G01 X71.6813 Y21.2582
G01 X71.6706 Y21.2546
G01 X71.6490 Y21.2467
G01 X71.6375 Y21.2416
G01 X71.6159 Y21.2310
G01 X71.6058 Y21.2253
G01 X71.5854 Y21.2128
G01 X71.5658 Y21.1987
G01 X71.5563 Y21.1912
G01 X71.5389 Y21.1757
G01 X71.5308 Y21.1681
G01 X71.3292 Y20.9664
G01 X71.3105 Y20.9457
G01 X71.2938 Y20.9238
G01 X71.2840 Y20.9095
G01 X71.2691 Y20.8841
G01 X71.2572 Y20.8593
G01 X71.2500 Y20.8417
G01 X71.2418 Y20.8174
G01 X71.2345 Y20.7888
G01 X71.2318 Y20.7745
G01 X71.2285 Y20.7506
G01 X71.2275 Y20.7380
G01 X71.2266 Y20.7144
G01 X71.2266 Y19.1435
G01 X68.1965 Y16.1133
G01 X68.1812 Y16.0966
G01 X68.1741 Y16.0883
G01 X68.1607 Y16.0705
G01 X68.1539 Y16.0608
G01 X68.1479 Y16.0513
G01 X68.1366 Y16.0321
G01 X68.1310 Y16.0212
G01 X68.1212 Y15.9999
G01 X68.1164 Y15.9877
G01 X68.1088 Y15.9657
G01 X68.1009 Y15.9348
G01 X68.0987 Y15.9234
G01 X68.0953 Y15.9006
G01 X68.0942 Y15.8891
G01 X68.0933 Y15.8714
G01 X67.1147 Y14.8928
G01 X67.0639 Y14.8927
G01 X67.0419 Y14.8916
G01 X67.0304 Y14.8905
G01 X67.0092 Y14.8875
G01 X66.9954 Y14.8849
G01 X66.9734 Y14.8795
G01 X66.9568 Y14.8745
G01 X66.9361 Y14.8670
G01 X66.9246 Y14.8622
G01 X66.9031 Y14.8519
G01 X66.8896 Y14.8444
G01 X66.8687 Y14.8315
G01 X66.8494 Y14.8175
G01 X66.8366 Y14.8073
G01 X66.8214 Y14.7936
G01 X64.4122 Y12.3847
G01 X53.7801 Y12.3847
G01 X49.0008 Y17.1640
G01 X49.0008 Y20.2179
G01 X49.0005 Y20.2294
G01 X48.9991 Y20.2528
G01 X48.9945 Y20.2846
G01 X48.9922 Y20.2958
G01 X48.9877 Y20.3139
G01 X48.9835 Y20.3282
G01 X48.9774 Y20.3456
G01 X48.9729 Y20.3571
G01 X48.9687 Y20.3666
G01 X48.9568 Y20.3908
G01 X48.9454 Y20.4102
G01 X48.9383 Y20.4211
G01 X48.9190 Y20.4470
G01 X48.9113 Y20.4560
G01 X48.8957 Y20.4729
G01 X48.8873 Y20.4809
G01 X48.8711 Y20.4954
G01 X48.8615 Y20.5031
G01 X48.8464 Y20.5143
G01 X48.8370 Y20.5207
G01 X48.8188 Y20.5318
G01 X48.7999 Y20.5418
G01 X48.7853 Y20.5487
G01 X48.7734 Y20.5538
G01 X48.7532 Y20.5611
G01 X48.7422 Y20.5647
G01 X48.7106 Y20.5726
G01 X48.6798 Y20.5774
G01 X48.6798 Y23.9401
G01 X48.6789 Y23.9641
G01 X48.6780 Y23.9767
G01 X48.6748 Y23.9993
G01 X48.6727 Y24.0117
G01 X48.6673 Y24.0340
G01 X48.6638 Y24.0465
G01 X48.6564 Y24.0678
G01 X48.6514 Y24.0807
G01 X48.6413 Y24.1024
G01 X48.6328 Y24.1184
G01 X48.6227 Y24.1352
G01 X48.6146 Y24.1473
G01 X48.6007 Y24.1660
G01 X48.5906 Y24.1779
G01 X48.5767 Y24.1930
G01 X48.5655 Y24.2039
G01 X48.5468 Y24.2204
G01 X48.5284 Y24.2343
G01 X48.5161 Y24.2429
G01 X48.4947 Y24.2558
G01 X48.4812 Y24.2630
G01 X48.4621 Y24.2720
G01 X48.4494 Y24.2772
G01 X48.4255 Y24.2856
G01 X48.4127 Y24.2892
G01 X48.3926 Y24.2942
G01 X48.3784 Y24.2968
G01 X48.3554 Y24.3000
G01 X48.3423 Y24.3010
G01 X48.3196 Y24.3019
G01 X48.3068 Y24.3017
G01 X48.2830 Y24.3003
G01 X48.2710 Y24.2988
G01 X48.2481 Y24.2952
G01 X48.2219 Y24.2889
G01 X48.2042 Y24.2835
G01 X48.1802 Y24.2747
G01 X48.1570 Y24.2641
G01 X48.1403 Y24.2552
G01 X48.1183 Y24.2419
G01 X48.0967 Y24.2264
G01 X48.0844 Y24.2165
G01 X48.0621 Y24.1960
G01 X47.6556 Y23.7894
G01 X47.6409 Y23.7734
G01 X47.6342 Y23.7654
G01 X47.6150 Y23.7396
G01 X47.6081 Y23.7289
G01 X47.5971 Y23.7103
G01 X47.5920 Y23.7004
G01 X47.5840 Y23.6837
G01 X47.5787 Y23.6711
G01 X47.5720 Y23.6528
G01 X47.5655 Y23.6316
G01 X47.5612 Y23.6140
G01 X47.5589 Y23.6027
G01 X47.5556 Y23.5813
G01 X47.5542 Y23.5684
G01 X47.5528 Y23.5368
G01 X47.5528 Y16.2078
G01 X47.5542 Y16.1762
G01 X47.5554 Y16.1652
G01 X47.5578 Y16.1485
G01 X47.5614 Y16.1298
G01 X47.5688 Y16.1014
G01 X47.5770 Y16.0779
G01 X47.5843 Y16.0603
G01 X47.5960 Y16.0363
G01 X47.6077 Y16.0164
G01 X47.6181 Y16.0006
G01 X47.6326 Y15.9811
G01 X47.6419 Y15.9702
G01 X47.6585 Y15.9522
G01 X52.2520 Y11.3587
G01 X52.2698 Y11.3422
G01 X52.2799 Y11.3336
G01 X52.2975 Y11.3203
G01 X52.3068 Y11.3137
G01 X52.3342 Y11.2971
G01 X52.3459 Y11.2910
G01 X52.3638 Y11.2827
G01 X52.3757 Y11.2777
G01 X52.3919 Y11.2719
G01 X52.4024 Y11.2684
G01 X52.4129 Y11.2654
G01 X52.4317 Y11.2608
G01 X52.4441 Y11.2584
G01 X52.4738 Y11.2543
G01 X52.5067 Y11.2527
G01 X65.1749 Y11.2527
G01 X68.4520 Y7.9755
G01 X68.4520 Y5.2059
G01 X68.4530 Y5.1807
G01 X68.4546 Y5.1630
G01 X68.4589 Y5.1359
G01 X68.4651 Y5.1099
G01 X68.4709 Y5.0908
G01 X68.4800 Y5.0665
G01 X68.4911 Y5.0426
G01 X68.4996 Y5.0267
G01 X68.5134 Y5.0043
G01 X68.5330 Y4.9778
G01 X68.5402 Y4.9694
G01 X68.5546 Y4.9536
G01 X68.7060 Y4.8020
G01 X68.7060 Y3.5237
G01 X67.8021 Y2.6198
G01 X66.5238 Y2.6198
G01 X66.1482 Y2.9953
G01 X66.1286 Y3.0133
G01 X66.1151 Y3.0244
G01 X66.0920 Y3.0410
G01 X66.0730 Y3.0526
G01 X66.0631 Y3.0582
G01 X66.0420 Y3.0685
G01 X66.0320 Y3.0729
G01 X66.0048 Y3.0829
G01 X65.9919 Y3.0869
G01 X65.9744 Y3.0913
G01 X65.9539 Y3.0954
G01 X65.9359 Y3.0981
G01 X65.9246 Y3.0993
G01 X65.8926 Y3.1007
G01 X65.8814 Y3.1004
G01 X65.8588 Y3.0991
G01 X65.8296 Y3.0950
G01 X65.8174 Y3.0927
G01 X65.7987 Y3.0881
G01 X65.7786 Y3.0821
G01 X65.7524 Y3.0723
G01 X65.7327 Y3.0631
G01 X65.7220 Y3.0577
G01 X65.6956 Y3.0421
G01 X65.6847 Y3.0346
G01 X65.6706 Y3.0242
G01 X65.6574 Y3.0135
G01 X65.6375 Y2.9951
G01 X65.2621 Y2.6198
G01 X63.9838 Y2.6198
G01 X63.6082 Y2.9953
G01 X63.5885 Y3.0135
G01 X63.5753 Y3.0242
G01 X63.5525 Y3.0407
G01 X63.5240 Y3.0577
G01 X63.5136 Y3.0630
G01 X63.4930 Y3.0725
G01 X63.4652 Y3.0828
G01 X63.4520 Y3.0868
G01 X63.4348 Y3.0912
G01 X63.4146 Y3.0953
G01 X63.3959 Y3.0981
G01 X63.3851 Y3.0992
G01 X63.3526 Y3.1007
G01 X63.3204 Y3.0992
G01 X63.3100 Y3.0981
G01 X63.2904 Y3.0952
G01 X63.2774 Y3.0927
G01 X63.2590 Y3.0882
G01 X63.2387 Y3.0821
G01 X63.2230 Y3.0765
G01 X63.2111 Y3.0717
G01 X63.1824 Y3.0580
G01 X63.1723 Y3.0523
G01 X63.1539 Y3.0410
G01 X63.1306 Y3.0242
G01 X63.1174 Y3.0135
G01 X63.0977 Y2.9954
G01 X62.7221 Y2.6198
G01 X61.4438 Y2.6198
G01 X60.5398 Y3.5237
G01 X60.5398 Y4.8089
G01 X60.5459 Y4.8174
G01 X60.5533 Y4.8289
G01 X60.5627 Y4.8448
G01 X60.5695 Y4.8577
G01 X60.5771 Y4.8737
G01 X60.5820 Y4.8852
G01 X60.5892 Y4.9050
G01 X60.5935 Y4.9186
G01 X60.5987 Y4.9388
G01 X60.6013 Y4.9502
G01 X60.6063 Y4.9836
G01 X60.6072 Y4.9958
G01 X60.6081 Y5.0186
G01 X60.6070 Y5.0484
G01 X60.6052 Y5.0655
G01 X60.6009 Y5.0918
G01 X60.5951 Y5.1163
G01 X60.5898 Y5.1338
G01 X60.5802 Y5.1594
G01 X60.5702 Y5.1812
G01 X60.5615 Y5.1977
G01 X60.5489 Y5.2186
G01 X60.5405 Y5.2307
G01 X60.5243 Y5.2518
G01 X60.5073 Y5.2708
G01 X60.4966 Y5.2814
G01 X60.4778 Y5.2983
G01 X60.4567 Y5.3145
G01 X60.4441 Y5.3232
G01 X60.4229 Y5.3360
G01 X60.4075 Y5.3441
G01 X60.3838 Y5.3549
G01 X60.3592 Y5.3639
G01 X60.3423 Y5.3691
G01 X60.3168 Y5.3751
G01 X60.2915 Y5.3792
G01 X60.2753 Y5.3809
G01 X60.2496 Y5.3821
G01 X56.6542 Y5.3821
G01 X56.6309 Y5.3812
G01 X56.6191 Y5.3803
G01 X56.5959 Y5.3771
G01 X56.5848 Y5.3752
G01 X56.5733 Y5.3726
G01 X56.5511 Y5.3668
G01 X56.5391 Y5.3629
G01 X56.5183 Y5.3552
G01 X56.5061 Y5.3499
G01 X56.4848 Y5.3395
G01 X56.4745 Y5.3337
G01 X56.4561 Y5.3224
G01 X56.4452 Y5.3149
G01 X56.4284 Y5.3023
G01 X56.4197 Y5.2950
G01 X56.4067 Y5.2832
G01 X54.8119 Y3.6888
G01 X54.7956 Y3.6711
G01 X54.7876 Y3.6619
G01 X54.7737 Y3.6435
G01 X54.7664 Y3.6330
G01 X54.7543 Y3.6134
G01 X54.7481 Y3.6024
G01 X54.7380 Y3.5815
G01 X54.7321 Y3.5678
G01 X54.7250 Y3.5482
G01 X54.7211 Y3.5364
G01 X54.7152 Y3.5137
G01 X54.7123 Y3.4997
G01 X54.7090 Y3.4783
G01 X54.7074 Y3.4646
G01 X54.7062 Y3.4404
G01 X54.7060 Y3.4237
G01 X53.8021 Y2.5198
G01 X53.7835 Y2.5196
G01 X53.7569 Y2.5180
G01 X53.7311 Y2.5144
G01 X53.7148 Y2.5112
G01 X53.6879 Y2.5042
G01 X53.6643 Y2.4961
G01 X53.6477 Y2.4893
G01 X53.6231 Y2.4775
G01 X53.6122 Y2.4713
G01 X53.5909 Y2.4582
G01 X53.5709 Y2.4437
G01 X53.5593 Y2.4343
G01 X53.5392 Y2.4160
G01 X53.4654 Y2.3423
G01 X53.1000 Y2.4936
G01 X53.0792 Y2.5012
G01 X53.0682 Y2.5047
G01 X53.0459 Y2.5105
G01 X53.0334 Y2.5132
G01 X53.0008 Y2.5180
G01 X52.9893 Y2.5188
G01 X52.9677 Y2.5197
G01 X52.5238 Y2.5198
G01 X52.2101 Y2.8334
G01 X52.1869 Y2.8544
G01 X52.1664 Y2.8701
G01 X52.1533 Y2.8791
G01 X52.1316 Y2.8922
G01 X52.1211 Y2.8977
G01 X52.1005 Y2.9075
G01 X51.8738 Y3.0015
G01 X51.8737 Y3.0272
G01 X51.8722 Y3.0539
G01 X51.8687 Y3.0803
G01 X51.8655 Y3.0969
G01 X51.8583 Y3.1248
G01 X51.8496 Y3.1497
G01 X51.8422 Y3.1675
G01 X51.8298 Y3.1927
G01 X51.8186 Y3.2118
G01 X51.8103 Y3.2245
G01 X51.7964 Y3.2434
G01 X51.7860 Y3.2560
G01 X51.7687 Y3.2748
G01 X51.6679 Y3.3756
G01 X51.7256 Y3.4724
G01 X51.7310 Y3.4830
G01 X51.7741 Y3.5742
G01 X51.7787 Y3.5846
G01 X51.7825 Y3.5945
G01 X51.8163 Y3.6888
G01 X51.8203 Y3.7012
G01 X51.8495 Y3.8178
G01 X51.8517 Y3.8302
G01 X51.8663 Y3.9288
G01 X51.8676 Y3.9394
G01 X51.8686 Y3.9512
G01 X51.8738 Y4.0620
G01 X51.8735 Y4.0744
G01 X51.8686 Y4.1745
G01 X51.8676 Y4.1863
G01 X51.8663 Y4.1969
G01 X51.8517 Y4.2955
G01 X51.8495 Y4.3079
G01 X51.8203 Y4.4246
G01 X51.8163 Y4.4369
G01 X51.7827 Y4.5308
G01 X51.7742 Y4.5513
G01 X51.7312 Y4.6422
G01 X51.7256 Y4.6534
G01 X51.6679 Y4.7501
G01 X52.5238 Y5.6060
G01 X52.9361 Y5.6060
G01 X52.9667 Y5.6075
G01 X52.9943 Y5.6113
G01 X53.0145 Y5.6154
G01 X53.0339 Y5.6203
G01 X53.0436 Y5.6233
G01 X53.0712 Y5.6333
G01 X53.1001 Y5.6469
G01 X53.1112 Y5.6529
G01 X53.1251 Y5.6612
G01 X53.1418 Y5.6723
G01 X53.1561 Y5.6829
G01 X53.1647 Y5.6898
G01 X53.1853 Y5.7083
G01 X55.5337 Y8.0567
G01 X55.5542 Y8.0791
G01 X55.5615 Y8.0879
G01 X55.5725 Y8.1027
G01 X55.5844 Y8.1205
G01 X55.5930 Y8.1349
G01 X55.5983 Y8.1446
G01 X55.6076 Y8.1638
G01 X55.6123 Y8.1745
G01 X55.6237 Y8.2061
G01 X55.6306 Y8.2323
G01 X55.6346 Y8.2529
G01 X55.6372 Y8.2704
G01 X55.6385 Y8.2835
G01 X55.6397 Y8.3134
G01 X55.6385 Y8.3416
G01 X55.6372 Y8.3547
G01 X55.6346 Y8.3722
G01 X55.6305 Y8.3932
G01 X55.6237 Y8.4190
G01 X55.6163 Y8.4403
G01 X55.6117 Y8.4520
G01 X55.5980 Y8.4811
G01 X55.5849 Y8.5039
G01 X55.5755 Y8.5183
G01 X55.5597 Y8.5395
G01 X55.5525 Y8.5481
G01 X55.5414 Y8.5604
G01 X55.5295 Y8.5725
G01 X55.5119 Y8.5885
G01 X55.4983 Y8.5994
G01 X55.4783 Y8.6138
G01 X55.4537 Y8.6288
G01 X55.4391 Y8.6364
G01 X55.4157 Y8.6472
G01 X55.3920 Y8.6559
G01 X55.3768 Y8.6606
G01 X55.3535 Y8.6664
G01 X55.3375 Y8.6694
G01 X55.3135 Y8.6727
G01 X55.2871 Y8.6743
G01 X51.2901 Y8.6744
G01 X44.9746 Y14.9900
G01 X44.9746 Y24.7546
G01 X48.2753 Y28.0554
G01 X48.2902 Y28.0716
G01 X48.2979 Y28.0806
G01 X48.3171 Y28.1064
G01 X48.3240 Y28.1171
G01 X48.3346 Y28.1350
G01 X48.3398 Y28.1449
G01 X48.3471 Y28.1603
G01 X48.3517 Y28.1706
G01 X48.3556 Y28.1809
G01 X48.3627 Y28.2010
G01 X48.3659 Y28.2120
G01 X48.3726 Y28.2400
G01 X48.3773 Y28.2718
G01 X48.3783 Y28.2848
G01 X48.3792 Y28.3075
G01 X48.3790 Y28.3195
G01 X48.3779 Y28.3408
G01 X48.3764 Y28.3540
G01 X48.3730 Y28.3759
G01 X48.3707 Y28.3871
G01 X48.3662 Y28.4052
G01 X48.3617 Y28.4204
G01 X48.3548 Y28.4398
G01 X48.3489 Y28.4542
G01 X48.3417 Y28.4695
G01 X48.3360 Y28.4806
G01 X48.3308 Y28.4898
G01 X48.3198 Y28.5078
G01 X48.3126 Y28.5184
G01 X48.3022 Y28.5323
G01 X48.2938 Y28.5427
G01 X48.2784 Y28.5597
G01 X48.2703 Y28.5679
G01 X48.2540 Y28.5829
G01 X48.2454 Y28.5902
G01 X48.2276 Y28.6037
G01 X48.2177 Y28.6106
G01 X48.1889 Y28.6278
G01 X48.1777 Y28.6335
G01 X48.1552 Y28.6438
G01 X48.1451 Y28.6477
G01 X48.1235 Y28.6551
G01 X48.1113 Y28.6586
G01 X48.0905 Y28.6636
G01 X48.0770 Y28.6660
G01 X48.0540 Y28.6692
G01 X48.0414 Y28.6702
G01 X48.0178 Y28.6711
G01 X46.4716 Y28.6711
G01 X46.4480 Y28.6702
G01 X46.4354 Y28.6692
G01 X46.4127 Y28.6661
G01 X46.4009 Y28.6640
G01 X46.3780 Y28.6586
G01 X46.3670 Y28.6555
G01 X46.3560 Y28.6519
G01 X46.3346 Y28.6440
G01 X46.3230 Y28.6388
G01 X46.3020 Y28.6287
G01 X46.2914 Y28.6227
G01 X46.2723 Y28.6110
G01 X46.2615 Y28.6034
G01 X46.2439 Y28.5902
G01 X46.2354 Y28.5829
G01 X46.2190 Y28.5679
G01 X43.8901 Y26.2391
G01 X43.8701 Y26.2170
G01 X43.8538 Y26.1958
G01 X43.8424 Y26.1789
G01 X43.8292 Y26.1564
G01 X43.8174 Y26.1322
G01 X43.8098 Y26.1136
G01 X43.8013 Y26.0888
G01 X43.7940 Y26.0601
G01 X43.7914 Y26.0458
G01 X43.7881 Y26.0219
G01 X43.7871 Y26.0093
G01 X43.7862 Y25.9853
G01 X43.7862 Y8.9859
G01 X41.7741 Y6.9738
G01 X29.5068 Y6.9738
G01 X29.4783 Y6.9726
G01 X29.4603 Y6.9707
G01 X29.4344 Y6.9664
G01 X29.4059 Y6.9594
G01 X29.3908 Y6.9546
G01 X29.3660 Y6.9453
G01 X29.3437 Y6.9349
G01 X29.3274 Y6.9261
G01 X29.3048 Y6.9121
G01 X29.2843 Y6.8972
G01 X29.2714 Y6.8867
G01 X29.2524 Y6.8693
G01 X26.3720 Y3.9889
G01 X26.3500 Y3.9647
G01 X26.3428 Y3.9557
G01 X26.3318 Y3.9409
G01 X26.3209 Y3.9243
G01 X26.3122 Y3.9098
G01 X26.3059 Y3.8980
G01 X26.2941 Y3.8726
G01 X26.2850 Y3.8484
G01 X26.2792 Y3.8296
G01 X26.2729 Y3.8030
G01 X26.2685 Y3.7752
G01 X26.2669 Y3.7570
G01 X26.2660 Y3.7330
G01 X26.2660 Y2.6198
G01 X23.1798 Y2.6198
G01 X23.1798 Y5.7060
G01 X24.2931 Y5.7060
G01 X24.3044 Y5.7062
G01 X24.3295 Y5.7078
G01 X24.3573 Y5.7117
G01 X24.3745 Y5.7153
G01 X24.4013 Y5.7225
G01 X24.4310 Y5.7333
G01 X24.4541 Y5.7438
G01 X24.4707 Y5.7526
G01 X24.4951 Y5.7676
G01 X24.5136 Y5.7810
G01 X24.5229 Y5.7883
G01 X24.5475 Y5.8105
G01 X25.0177 Y6.2808
G01 X25.0316 Y6.2961
G01 X25.0393 Y6.3054
G01 X25.0535 Y6.3243
G01 X25.0607 Y6.3350
G01 X25.0720 Y6.3537
G01 X25.0793 Y6.3671
G01 X25.0893 Y6.3883
G01 X25.0954 Y6.4037
G01 X25.1013 Y6.4203
G01 X25.1052 Y6.4330
G01 X25.1103 Y6.4535
G01 X25.1129 Y6.4660
G01 X25.1161 Y6.4866
G01 X25.1176 Y6.5003
G01 X25.1189 Y6.5245
G01 X25.1189 Y6.5368
G01 X25.1180 Y6.5573
G01 X25.1170 Y6.5693
G01 X25.1139 Y6.5915
G01 X25.1117 Y6.6043
G01 X25.1065 Y6.6258
G01 X25.1031 Y6.6378
G01 X25.0953 Y6.6603
G01 X25.0901 Y6.6734
G01 X25.0760 Y6.7029
G01 X25.0642 Y6.7232
G01 X25.0573 Y6.7339
G01 X25.0438 Y6.7525
G01 X25.0363 Y6.7621
G01 X25.0209 Y6.7794
G01 X25.0124 Y6.7884
G01 X24.9954 Y6.8041
G01 X24.9869 Y6.8114
G01 X24.9676 Y6.8261
G01 X24.9577 Y6.8331
G01 X24.9377 Y6.8453
G01 X24.9271 Y6.8514
G01 X24.9061 Y6.8615
G01 X24.8949 Y6.8665
G01 X24.8731 Y6.8746
G01 X24.8614 Y6.8784
G01 X24.8389 Y6.8843
G01 X24.8271 Y6.8869
G01 X24.8040 Y6.8906
G01 X24.7926 Y6.8920
G01 X24.7811 Y6.8929
G01 X24.7574 Y6.8938
G01 X15.8664 Y6.8938
G01 X15.8551 Y6.8935
G01 X15.8328 Y6.8922
G01 X15.8035 Y6.8882
G01 X15.7872 Y6.8849
G01 X15.7623 Y6.8785
G01 X15.7504 Y6.8746
G01 X15.7271 Y6.8659
G01 X15.7054 Y6.8559
G01 X15.6917 Y6.8488
G01 X15.6704 Y6.8360
G01 X15.6559 Y6.8261
G01 X15.6373 Y6.8120
G01 X15.6180 Y6.7949
G01 X15.6062 Y6.7833
G01 X15.6029 Y6.7798
G01 X15.6026 Y6.7794
G01 X15.5942 Y6.7702
G01 X15.5902 Y6.7657
G01 X15.5809 Y6.7541
G01 X15.5654 Y6.7327
G01 X15.5520 Y6.7109
G01 X15.5440 Y6.6961
G01 X15.5342 Y6.6754
G01 X15.5279 Y6.6596
G01 X15.5199 Y6.6362
G01 X15.5133 Y6.6107
G01 X15.5102 Y6.5957
G01 X15.5066 Y6.5703
G01 X15.5054 Y6.5562
G01 X15.5045 Y6.5310
G01 X15.5055 Y6.5068
G01 X15.5067 Y6.4923
G01 X15.5104 Y6.4670
G01 X15.5139 Y6.4503
G01 X15.5202 Y6.4264
G01 X15.5231 Y6.4177
G01 X15.5237 Y6.4159
G01 X15.5279 Y6.4041
G01 X15.5282 Y6.4034
G01 X15.5345 Y6.3878
G01 X15.5459 Y6.3638
G01 X15.5602 Y6.3391
G01 X15.5713 Y6.3225
G01 X15.5820 Y6.3082
G01 X15.5886 Y6.3000
G01 X15.6087 Y6.2778
G01 X16.6740 Y5.2125
G01 X16.6740 Y3.5133
G01 X15.4725 Y2.3118
G01 X13.7733 Y2.3118
G01 X12.5718 Y3.5133
G01 X12.5718 Y5.2125
G01 X13.7733 Y6.4140
G01 X15.1793 Y6.4140
G01 X15.2113 Y6.4158
G01 X15.2434 Y6.4205
G01 X15.2548 Y6.4229
G01 X15.2763 Y6.4284
G01 X15.2869 Y6.4317
G01 X15.3034 Y6.4376
G01 X15.3497 Y6.3104
G01 X15.3625 Y6.3153
G01 X15.3755 Y6.3209
G01 X15.3958 Y6.3304
G01 X15.4090 Y6.3371
G01 X15.4204 Y6.3123
G01 X15.4284 Y6.2965
G01 X15.4369 Y6.2817
G01 X15.4522 Y6.2568
G01 X15.4573 Y6.2493
G01 X15.4597 Y6.2459
G01 X15.4602 Y6.2453
G01 X15.4603 Y6.2451
G01 X15.4607 Y6.2446
G01 X15.4625 Y6.2422
G01 X15.4797 Y6.2193
G01 X15.4823 Y6.2162
G01 X15.4845 Y6.2135
G01 X15.4848 Y6.2131
G01 X15.4849 Y6.2130
G01 X15.4856 Y6.2122
G01 X15.4911 Y6.2059
G01 X15.5090 Y6.1863
G01 X16.5387 Y5.1564
G01 X16.5387 Y3.5693
G01 X15.4165 Y2.4471
G01 X13.8294 Y2.4471
G01 X12.7072 Y3.5693
G01 X12.7072 Y5.1564
G01 X13.8294 Y6.2786
G01 X15.1754 Y6.2787
G01 X15.2063 Y6.2797
G01 X15.2251 Y6.2812
G01 X15.2604 Y6.2861
G01 X15.2845 Y6.2909
G01 X15.3179 Y6.2996
G01 X15.3316 Y6.3040
G01 X15.3497 Y6.3104
G01 X15.4462 Y6.4427
G01 X15.4549 Y6.4086
G01 X15.4643 Y6.3810
G01 X15.4726 Y6.3603
G01 X15.4870 Y6.3306
G01 X15.5026 Y6.3036
G01 X15.5031 Y6.3029
G01 X15.5048 Y6.3001
G01 X15.5057 Y6.2987
G01 X15.5086 Y6.2943
G01 X15.5152 Y6.2847
G01 X15.5339 Y6.2599
G01 X15.5541 Y6.2371
G01 X15.5627 Y6.2281
G01 X16.6064 Y5.1844
G01 X16.6064 Y3.5413
G01 X15.4445 Y2.3794
G01 X13.8014 Y2.3794
G01 X12.6395 Y3.5413
G01 X12.6395 Y5.1844
G01 X13.8014 Y6.3463
G01 X15.1751 Y6.3463
G01 X15.2048 Y6.3474
G01 X15.2180 Y6.3485
G01 X15.2307 Y6.3500
G01 X15.2518 Y6.3532
G01 X15.2668 Y6.3563
G01 X15.2887 Y6.3617
G01 X15.3014 Y6.3653
G01 X15.3132 Y6.3692
G01 X15.3256 Y6.3737
G01 X15.3266 Y6.3740
G01 X15.3285 Y6.3747
G01 X15.3351 Y6.3772
G01 X15.3489 Y6.3831
G01 X15.3683 Y6.3923
G01 X15.3891 Y6.4035
G01 X15.4055 Y6.4134
G01 X15.4167 Y6.4207
G01 X15.4361 Y6.4348
G01 X15.4462 Y6.4427
G01 X15.4683 Y6.1312
G01 X15.3905 Y6.1680
G01 X15.3721 Y6.1760
G01 X15.3549 Y6.1826
G01 X15.2580 Y6.2173
G01 X15.2748 Y6.2199
G01 X15.2890 Y6.2226
G01 X15.3233 Y6.2309
G01 X15.3487 Y6.2383
G01 X15.3778 Y6.2487
G01 X15.3882 Y6.2314
G01 X15.3978 Y6.2164
G01 X15.4072 Y6.2031
G01 X15.4212 Y6.1843
G01 X15.4301 Y6.1731
G01 X15.4405 Y6.1610
G01 X15.4563 Y6.1436
G01 X15.4683 Y6.1312
G01 X15.6582 Y7.0683
G01 X15.6737 Y7.0627
G01 X15.6637 Y7.0590
G01 X15.6582 Y7.0683
G00 Z0.5000
G00 X15.2573 Y6.5648
G01 F250.00
G01 Z-0.0400
G01 F2500.00
G01 X15.2647 Y6.5678
G01 X15.2806 Y6.5753
G01 X15.3006 Y6.5872
G01 X15.3205 Y6.6021
G01 X15.3335 Y6.6139
G01 X15.3387 Y6.6192
G01 X15.3501 Y6.6319
G01 X15.3607 Y6.6460
G01 X15.3644 Y6.6513
G01 X15.3733 Y6.6662
G01 X15.3767 Y6.6725
G01 X15.3844 Y6.6892
G01 X15.3908 Y6.7067
G01 X15.3930 Y6.7138
G01 X15.3972 Y6.7313
G01 X15.4000 Y6.7488
G01 X15.4008 Y6.7564
G01 X15.4016 Y6.7722
G01 X15.4016 Y6.7794
G01 X15.4007 Y6.7969
G01 X15.3973 Y6.8202
G01 X15.3915 Y6.8428
G01 X15.3854 Y6.8602
G01 X15.3824 Y6.8670
G01 X15.3751 Y6.8823
G01 X15.3656 Y6.8984
G01 X15.3618 Y6.9042
G01 X15.3508 Y6.9189
G01 X15.3353 Y6.9361
G01 X13.2985 Y8.9728
G01 X13.2985 Y10.1529
G01 X14.1329 Y10.9873
G01 X15.3130 Y10.9873
G01 X16.6281 Y9.6722
G01 X16.6441 Y9.6579
G01 X16.6607 Y9.6456
G01 X16.6814 Y9.6333
G01 X16.7012 Y9.6241
G01 X16.7210 Y9.6170
G01 X16.7425 Y9.6117
G01 X16.7629 Y9.6086
G01 X16.7819 Y9.6074
G01 X27.1595 Y9.6073
G01 X27.1790 Y9.6082
G01 X27.1865 Y9.6090
G01 X27.2038 Y9.6117
G01 X27.2205 Y9.6157
G01 X27.2274 Y9.6177
G01 X27.2458 Y9.6244
G01 X27.2687 Y9.6354
G01 X27.2853 Y9.6455
G01 X27.2998 Y9.6560
G01 X27.3059 Y9.6610
G01 X27.3197 Y9.6736
G01 X27.3803 Y9.7343
G01 X28.6684 Y9.7343
G01 X28.6803 Y9.7256
G01 X28.6996 Y9.7140
G01 X28.7190 Y9.7048
G01 X28.7360 Y9.6986
G01 X28.7453 Y9.6957
G01 X28.7598 Y9.6922
G01 X28.7670 Y9.6908
G01 X28.7841 Y9.6884
G01 X28.8064 Y9.6873
G01 X40.5563 Y9.6873
G01 X40.5787 Y9.6884
G01 X40.5986 Y9.6913
G01 X40.6215 Y9.6969
G01 X40.6385 Y9.7028
G01 X40.6475 Y9.7065
G01 X40.6587 Y9.7118
G01 X40.6674 Y9.7164
G01 X40.6833 Y9.7262
G01 X40.7017 Y9.7401
G01 X40.7165 Y9.7536
G01 X41.0063 Y10.0435
G01 X41.0199 Y10.0583
G01 X41.0317 Y10.0738
G01 X41.0371 Y10.0819
G01 X41.0459 Y10.0969
G01 X41.0554 Y10.1170
G01 X41.0628 Y10.1375
G01 X41.0673 Y10.1547
G01 X41.0692 Y10.1643
G01 X41.0713 Y10.1790
G01 X41.0720 Y10.1863
G01 X41.0727 Y10.2037
G01 X41.0727 Y15.6308
G01 X41.0716 Y15.6532
G01 X41.0683 Y15.6751
G01 X41.0631 Y15.6960
G01 X41.0556 Y15.7172
G01 X41.0461 Y15.7373
G01 X41.0345 Y15.7567
G01 X41.0199 Y15.7762
G01 X41.0080 Y15.7893
G01 X41.0028 Y15.7944
G01 X40.9915 Y15.8046
G01 X40.9860 Y15.8089
G01 X40.9722 Y15.8190
G01 X40.9572 Y15.8282
G01 X40.9491 Y15.8325
G01 X40.9328 Y15.8401
G01 X40.9139 Y15.8470
G01 X40.8904 Y15.8530
G01 X40.8685 Y15.8563
G01 X40.8461 Y15.8574
G01 X40.8213 Y15.8560
G01 X40.8005 Y15.8527
G01 X40.7851 Y15.8489
G01 X40.7757 Y15.8461
G01 X40.7640 Y15.8419
G01 X40.7550 Y15.8381
G01 X40.7397 Y15.8308
G01 X40.7244 Y15.8218
G01 X40.7163 Y15.8164
G01 X40.7035 Y15.8068
G01 X40.6859 Y15.7910
G01 X39.8604 Y14.9654
G01 X38.7855 Y14.9654
G01 X38.0255 Y15.7254
G01 X38.0255 Y16.2413
G01 X38.0246 Y16.2587
G01 X38.0239 Y16.2654
G01 X38.0211 Y16.2832
G01 X38.0171 Y16.2999
G01 X38.0142 Y16.3093
G01 X38.0065 Y16.3296
G01 X37.9989 Y16.3453
G01 X37.9873 Y16.3647
G01 X37.9768 Y16.3792
G01 X37.9709 Y16.3863
G01 X37.9592 Y16.3991
G01 X37.9443 Y16.4126
G01 X37.9288 Y16.4244
G01 X37.9207 Y16.4299
G01 X37.9057 Y16.4387
G01 X37.8856 Y16.4482
G01 X37.8684 Y16.4545
G01 X37.8600 Y16.4570
G01 X37.8432 Y16.4611
G01 X37.8237 Y16.4641
G01 X37.7989 Y16.4654
G01 X36.7445 Y16.4654
G01 X36.7246 Y16.4643
G01 X36.7075 Y16.4619
G01 X36.7003 Y16.4606
G01 X36.6810 Y16.4556
G01 X36.6610 Y16.4485
G01 X36.6445 Y16.4409
G01 X36.6359 Y16.4363
G01 X36.6252 Y16.4299
G01 X36.6171 Y16.4244
G01 X36.6016 Y16.4126
G01 X36.5885 Y16.4008
G01 X36.5834 Y16.3955
G01 X36.5732 Y16.3842
G01 X36.5688 Y16.3788
G01 X36.5587 Y16.3650
G01 X36.5495 Y16.3499
G01 X36.5459 Y16.3433
G01 X36.5376 Y16.3256
G01 X36.5301 Y16.3046
G01 X36.5247 Y16.2832
G01 X36.5220 Y16.2654
G01 X36.5211 Y16.2562
G01 X36.5204 Y16.2389
G01 X36.5204 Y15.7254
G01 X35.7604 Y14.9654
G01 X32.4855 Y14.9654
G01 X31.7255 Y15.7255
G01 X31.7255 Y15.9836
G01 X31.7248 Y16.0010
G01 X31.7238 Y16.0107
G01 X31.7205 Y16.0308
G01 X31.7155 Y16.0503
G01 X31.7084 Y16.0700
G01 X31.7010 Y16.0861
G01 X31.6964 Y16.0947
G01 X31.6873 Y16.1095
G01 X31.6768 Y16.1239
G01 X31.6718 Y16.1300
G01 X31.6592 Y16.1438
G01 X31.6453 Y16.1565
G01 X31.6393 Y16.1614
G01 X31.6250 Y16.1719
G01 X31.6090 Y16.1816
G01 X31.6014 Y16.1856
G01 X31.5856 Y16.1929
G01 X31.5673 Y16.1996
G01 X31.5600 Y16.2017
G01 X31.5432 Y16.2058
G01 X31.5237 Y16.2088
G01 X31.4989 Y16.2102
G01 X31.4791 Y16.2093
G01 X31.4571 Y16.2063
G01 X31.4379 Y16.2017
G01 X31.4285 Y16.1989
G01 X31.4168 Y16.1947
G01 X31.4078 Y16.1910
G01 X31.3897 Y16.1821
G01 X31.3756 Y16.1736
G01 X31.3691 Y16.1692
G01 X31.3536 Y16.1574
G01 X31.3387 Y16.1438
G01 X31.0604 Y15.8654
G01 X27.9469 Y15.8654
G01 X27.9231 Y15.8642
G01 X27.9033 Y15.8612
G01 X27.8859 Y15.8570
G01 X27.8790 Y15.8550
G01 X27.8605 Y15.8483
G01 X27.8445 Y15.8409
G01 X27.8359 Y15.8363
G01 X27.8210 Y15.8273
G01 X27.8066 Y15.8167
G01 X27.8005 Y15.8117
G01 X27.7867 Y15.7991
G01 X27.7741 Y15.7853
G01 X27.7688 Y15.7788
G01 X27.7587 Y15.7650
G01 X27.7489 Y15.7489
G01 X27.7452 Y15.7418
G01 X27.7367 Y15.7232
G01 X27.7301 Y15.7046
G01 X27.7247 Y15.6832
G01 X27.7215 Y15.6612
G01 X27.7205 Y15.6438
G01 X27.7204 Y15.3254
G01 X25.6603 Y13.2654
G01 X24.5855 Y13.2654
G01 X23.1056 Y14.7453
G01 X23.0896 Y14.7596
G01 X23.0730 Y14.7719
G01 X23.0537 Y14.7834
G01 X23.0325 Y14.7934
G01 X23.0127 Y14.8004
G01 X22.9905 Y14.8060
G01 X22.9668 Y14.8093
G01 X22.9505 Y14.8101
G01 X22.9420 Y14.8101
G01 X22.9231 Y14.8089
G01 X22.9026 Y14.8058
G01 X22.8817 Y14.8006
G01 X22.8648 Y14.7947
G01 X22.8558 Y14.7910
G01 X22.8445 Y14.7856
G01 X22.8359 Y14.7810
G01 X22.8211 Y14.7720
G01 X22.8026 Y14.7583
G01 X22.7867 Y14.7438
G01 X22.7725 Y14.7282
G01 X22.7587 Y14.7097
G01 X22.7495 Y14.6947
G01 X22.7452 Y14.6866
G01 X22.7367 Y14.6680
G01 X22.7301 Y14.6494
G01 X22.7247 Y14.6279
G01 X22.7215 Y14.6060
G01 X22.7204 Y14.5836
G01 X22.7204 Y13.6255
G01 X21.9603 Y12.8654
G01 X16.4855 Y12.8654
G01 X15.7255 Y13.6255
G01 X15.7255 Y19.8003
G01 X16.4855 Y20.5603
G01 X21.7604 Y20.5603
G01 X22.1127 Y20.2079
G01 X22.1303 Y20.1921
G01 X22.1469 Y20.1799
G01 X22.1661 Y20.1683
G01 X22.1855 Y20.1591
G01 X22.2025 Y20.1528
G01 X22.2119 Y20.1500
G01 X22.2263 Y20.1464
G01 X22.2335 Y20.1451
G01 X22.2531 Y20.1424
G01 X22.2754 Y20.1416
G01 X22.2953 Y20.1427
G01 X22.3172 Y20.1459
G01 X22.3381 Y20.1511
G01 X22.3551 Y20.1570
G01 X22.3641 Y20.1608
G01 X22.3754 Y20.1661
G01 X22.3840 Y20.1707
G01 X22.3988 Y20.1797
G01 X22.4132 Y20.1903
G01 X22.4193 Y20.1952
G01 X22.4331 Y20.2079
G01 X22.9855 Y20.7603
G01 X24.0604 Y20.7603
G01 X24.8204 Y20.0003
G01 X24.8204 Y19.9421
G01 X24.8212 Y19.9223
G01 X24.8247 Y19.8978
G01 X24.8299 Y19.8769
G01 X24.8382 Y19.8539
G01 X24.8449 Y19.8397
G01 X24.8495 Y19.8311
G01 X24.8585 Y19.8162
G01 X24.8691 Y19.8018
G01 X24.8741 Y19.7957
G01 X24.8850 Y19.7836
G01 X24.9016 Y19.7683
G01 X24.9208 Y19.7539
G01 X24.9401 Y19.7423
G01 X24.9595 Y19.7331
G01 X24.9812 Y19.7253
G01 X25.0026 Y19.7199
G01 X25.0246 Y19.7166
G01 X25.0469 Y19.7155
G01 X25.0693 Y19.7166
G01 X25.0912 Y19.7199
G01 X25.1121 Y19.7251
G01 X25.1291 Y19.7310
G01 X25.1381 Y19.7348
G01 X25.1494 Y19.7401
G01 X25.1580 Y19.7447
G01 X25.1728 Y19.7537
G01 X25.1872 Y19.7643
G01 X25.1933 Y19.7692
G01 X25.2071 Y19.7819
G01 X25.8855 Y20.4603
G01 X26.9604 Y20.4603
G01 X27.7204 Y19.7003
G01 X27.7204 Y18.6869
G01 X27.7215 Y18.6645
G01 X27.7239 Y18.6475
G01 X27.7254 Y18.6397
G01 X27.7299 Y18.6217
G01 X27.7359 Y18.6047
G01 X27.7396 Y18.5957
G01 X27.7469 Y18.5804
G01 X27.7585 Y18.5610
G01 X27.7691 Y18.5465
G01 X27.7741 Y18.5405
G01 X27.7867 Y18.5266
G01 X27.7995 Y18.5149
G01 X27.8066 Y18.5090
G01 X27.8208 Y18.4986
G01 X27.8425 Y18.4858
G01 X27.8558 Y18.4795
G01 X27.8648 Y18.4758
G01 X27.8812 Y18.4700
G01 X27.8980 Y18.4657
G01 X27.9051 Y18.4642
G01 X27.9246 Y18.4614
G01 X27.9469 Y18.4603
G01 X31.0604 Y18.4603
G01 X31.3387 Y18.1819
G01 X31.3563 Y18.1661
G01 X31.3729 Y18.1539
G01 X31.3921 Y18.1423
G01 X31.4116 Y18.1331
G01 X31.4306 Y18.1261
G01 X31.4533 Y18.1202
G01 X31.4724 Y18.1172
G01 X31.4794 Y18.1164
