(G-CODE GENERATED BY FLATCAM v2022 - www.flatcam.org - Version Date: 2021/12/01)

(Name: Cncjob_drill_0.8mm)
(Type: G-code from Excellon)
(Units: MM)

(Created on Friday, 18 October 2024 at 10:54)

(Feedrate: 480 mm/min)
(Feedrate rapids 1500 mm/min)

(Z_Cut: -2 mm)
(Z_Move: 1 mm)
(Z Toolchange: 15 mm)
(X,Y Toolchange: None mm)
(Z Start: None mm)
(Z End: 0.5 mm)
(Steps per circle: 64)
(Preprocessor Excellon: default)

(X range:  -33.9890 ...   39.8890  mm)
(Y range:   -5.4890 ...   21.5080  mm)

(Spindle Speed: 0 RPM)
G21
G90
G94




G01 F480.00
G00 Z1.0000

M03
G4 P1.0
G00 X79.2229 Y12.1629
G01 Z-2.0000
G01 Z0
G00 Z1.0000
G00 X70.8229 Y22.4629
G01 Z-2.0000
G01 Z0
G00 Z1.0000
G00 X70.8229 Y27.5429
G01 Z-2.0000
G01 Z0
G00 Z1.0000
G00 X66.3229 Y21.8629
G01 Z-2.0000
G01 Z0
G00 Z1.0000
G00 X56.1629 Y21.8629
G01 Z-2.0000
G01 Z0
G00 Z1.0000
G00 X28.0229 Y13.2629
G01 Z-2.0000
G01 Z0
G00 Z1.0000
G00 X28.0229 Y8.1829
G01 Z-2.0000
G01 Z0
G00 Z1.0000
G00 X48.0829 Y4.0629
G01 Z-2.0000
G01 Z0
G00 Z1.0000
G00 X50.6229 Y4.0629
G01 Z-2.0000
G01 Z0
G00 Z1.0000
G00 X53.1629 Y4.0629
G01 Z-2.0000
G01 Z0
G00 Z1.0000
G00 X62.0829 Y4.1629
G01 Z-2.0000
G01 Z0
G00 Z1.0000
G00 X64.6229 Y4.1629
G01 Z-2.0000
G01 Z0
G00 Z1.0000
G00 X67.1629 Y4.1629
G01 Z-2.0000
G01 Z0
G00 Z1.0000
G00 X69.0629 Y12.1629
G01 Z-2.0000
G01 Z0
G00 Z1.0000
M03
G4 P1.0
G00 X79.5229 Y22.5629
G01 Z-2.0000
G01 Z0
G00 Z1.0000
G00 X79.5229 Y27.5629
G01 Z-2.0000
G01 Z0
G00 Z1.0000
G00 X36.4229 Y13.2629
G01 Z-2.0000
G01 Z0
G00 Z1.0000
G00 X36.4229 Y8.2629
G01 Z-2.0000
G01 Z0
G00 Z1.0000
M05
G00 Z0.50

