(G-CODE GENERATED BY FLATCAM v2022 - www.flatcam.org - Version Date: 2021/12/01)

(Name: Cncjob_drill_1.0mm)
(Type: G-code from Excellon)
(Units: MM)

(Created on Friday, 18 October 2024 at 10:54)

(Feedrate: 480 mm/min)
(Feedrate rapids 1500 mm/min)

(Z_Cut: -2 mm)
(Z_Move: 1 mm)
(Z Toolchange: 15 mm)
(X,Y Toolchange: None mm)
(Z Start: None mm)
(Z End: 0.5 mm)
(Steps per circle: 64)
(Preprocessor Excellon: default)

(X range:  -33.9890 ...   39.8890  mm)
(Y range:   -5.4890 ...   21.5080  mm)

(Spindle Speed: 0 RPM)
G21
G90
G94




G01 F480.00
G00 Z1.0000

M03
G4 P1.0
G00 X50.2229 Y27.2029
G01 Z-2.0000
G01 Z0
G00 Z1.0000
G00 X50.2229 Y24.6629
G01 Z-2.0000
G01 Z0
G00 Z1.0000
G00 X50.2229 Y22.1229
G01 Z-2.0000
G01 Z0
G00 Z1.0000
G00 X14.7229 Y14.4629
G01 Z-2.0000
G01 Z0
G00 Z1.0000
G00 X14.7229 Y9.5629
G01 Z-2.0000
G01 Z0
G00 Z1.0000
G00 X19.7229 Y4.1629
G01 Z-2.0000
G01 Z0
G00 Z1.0000
G00 X24.7229 Y4.1629
G01 Z-2.0000
G01 Z0
G00 Z1.0000
G00 X56.2629 Y16.5629
G01 Z-2.0000
G01 Z0
G00 Z1.0000
G00 X72.1229 Y4.3629
G01 Z-2.0000
G01 Z0
G00 Z1.0000
G00 X77.1229 Y4.3629
G01 Z-2.0000
G01 Z0
G00 Z1.0000
G00 X86.8229 Y13.6629
G01 Z-2.0000
G01 Z0
G00 Z1.0000
G00 X86.8229 Y18.6629
G01 Z-2.0000
G01 Z0
G00 Z1.0000
G00 X75.0229 Y18.0629
G01 Z-2.0000
G01 Z0
G00 Z1.0000
G00 X75.0229 Y15.5229
G01 Z-2.0000
G01 Z0
G00 Z1.0000
G00 X66.4229 Y16.5629
G01 Z-2.0000
G01 Z0
G00 Z1.0000
G00 X66.3229 Y25.2629
G01 Z-2.0000
G01 Z0
G00 Z1.0000
G00 X65.0229 Y29.9629
G01 Z-2.0000
G01 Z0
G00 Z1.0000
G00 X60.0229 Y29.9629
G01 Z-2.0000
G01 Z0
G00 Z1.0000
G00 X56.1629 Y25.2629
G01 Z-2.0000
G01 Z0
G00 Z1.0000
M05
G00 Z0.50

