(G-CODE GENERATED BY FLATCAM v2022 - www.flatcam.org - Version Date: 2021/12/01)

(Name: Cncjob_Milled_Drills)
(Type: G-code from Geometry)
(Units: MM)

(Created on Friday, 18 October 2024 at 10:54)

(TOOL DIAMETER: 1.499 mm)
(Feedrate: 1250.0 mm/min)
(Feedrate_Z: 250.0 mm/min)
(Feedrate rapids 1500.0 mm/min)

(Z_Cut: -1.7 mm)
(Z_Move: 0.5 mm)
(Z Toolchange: 15.0 mm)
(X,Y Toolchange: 0.0000, 0.0000 mm)
(Z Start: 0.5 mm)
(Z End: 15.0 mm)
(Steps per circle: 64)
(Preprocessor Geometry: default)

(X range:   14.4834 ...   86.8624  mm)
(Y range:    4.2234 ...   29.5024  mm)

(Spindle Speed: None RPM)
G21
G90
G94




G01 F1250.00
G00 Z0.5000
G00 Z0.5000
M03
G4 P1.0
G00 X14.7624 Y4.3629
G01 F250.00
G01 Z-0.1000
G01 F1250.00
G01 X14.7618 Y4.3492
G01 X14.7598 Y4.3356
G01 X14.7564 Y4.3224
G01 X14.7518 Y4.3095
G01 X14.7460 Y4.2971
G01 X14.7389 Y4.2854
G01 X14.7308 Y4.2744
G01 X14.7216 Y4.2642
G01 X14.7114 Y4.2550
G01 X14.7004 Y4.2469
G01 X14.6887 Y4.2398
G01 X14.6763 Y4.2340
G01 X14.6634 Y4.2294
G01 X14.6502 Y4.2260
G01 X14.6366 Y4.2240
G01 X14.6229 Y4.2234
G01 X14.6093 Y4.2240
G01 X14.5957 Y4.2260
G01 X14.5824 Y4.2294
G01 X14.5696 Y4.2340
G01 X14.5572 Y4.2398
G01 X14.5454 Y4.2469
G01 X14.5344 Y4.2550
G01 X14.5243 Y4.2642
G01 X14.5151 Y4.2744
G01 X14.5069 Y4.2854
G01 X14.4999 Y4.2971
G01 X14.4941 Y4.3095
G01 X14.4894 Y4.3224
G01 X14.4861 Y4.3356
G01 X14.4841 Y4.3492
G01 X14.4834 Y4.3629
G01 X14.4841 Y4.3765
G01 X14.4861 Y4.3901
G01 X14.4894 Y4.4034
G01 X14.4941 Y4.4162
G01 X14.4999 Y4.4286
G01 X14.5069 Y4.4404
G01 X14.5151 Y4.4514
G01 X14.5243 Y4.4615
G01 X14.5344 Y4.4707
G01 X14.5454 Y4.4789
G01 X14.5572 Y4.4859
G01 X14.5696 Y4.4917
G01 X14.5824 Y4.4964
G01 X14.5957 Y4.4997
G01 X14.6093 Y4.5017
G01 X14.6229 Y4.5024
G01 X14.6366 Y4.5017
G01 X14.6502 Y4.4997
G01 X14.6634 Y4.4964
G01 X14.6763 Y4.4917
G01 X14.6887 Y4.4859
G01 X14.7004 Y4.4789
G01 X14.7114 Y4.4707
G01 X14.7216 Y4.4615
G01 X14.7308 Y4.4514
G01 X14.7389 Y4.4404
G01 X14.7460 Y4.4286
G01 X14.7518 Y4.4162
G01 X14.7564 Y4.4034
G01 X14.7598 Y4.3901
G01 X14.7618 Y4.3765
G01 X14.7624 Y4.3629
G00 X14.7624 Y4.3629
G01 F250.00
G01 Z-0.2000
G01 F1250.00
G01 X14.7618 Y4.3492
G01 X14.7598 Y4.3356
G01 X14.7564 Y4.3224
G01 X14.7518 Y4.3095
G01 X14.7460 Y4.2971
G01 X14.7389 Y4.2854
G01 X14.7308 Y4.2744
G01 X14.7216 Y4.2642
G01 X14.7114 Y4.2550
G01 X14.7004 Y4.2469
G01 X14.6887 Y4.2398
G01 X14.6763 Y4.2340
G01 X14.6634 Y4.2294
G01 X14.6502 Y4.2260
G01 X14.6366 Y4.2240
G01 X14.6229 Y4.2234
G01 X14.6093 Y4.2240
G01 X14.5957 Y4.2260
G01 X14.5824 Y4.2294
G01 X14.5696 Y4.2340
G01 X14.5572 Y4.2398
G01 X14.5454 Y4.2469
G01 X14.5344 Y4.2550
G01 X14.5243 Y4.2642
G01 X14.5151 Y4.2744
G01 X14.5069 Y4.2854
G01 X14.4999 Y4.2971
G01 X14.4941 Y4.3095
G01 X14.4894 Y4.3224
G01 X14.4861 Y4.3356
G01 X14.4841 Y4.3492
G01 X14.4834 Y4.3629
G01 X14.4841 Y4.3765
G01 X14.4861 Y4.3901
G01 X14.4894 Y4.4034
G01 X14.4941 Y4.4162
G01 X14.4999 Y4.4286
G01 X14.5069 Y4.4404
G01 X14.5151 Y4.4514
G01 X14.5243 Y4.4615
G01 X14.5344 Y4.4707
G01 X14.5454 Y4.4789
G01 X14.5572 Y4.4859
G01 X14.5696 Y4.4917
G01 X14.5824 Y4.4964
G01 X14.5957 Y4.4997
G01 X14.6093 Y4.5017
G01 X14.6229 Y4.5024
G01 X14.6366 Y4.5017
G01 X14.6502 Y4.4997
G01 X14.6634 Y4.4964
G01 X14.6763 Y4.4917
G01 X14.6887 Y4.4859
G01 X14.7004 Y4.4789
G01 X14.7114 Y4.4707
G01 X14.7216 Y4.4615
G01 X14.7308 Y4.4514
G01 X14.7389 Y4.4404
G01 X14.7460 Y4.4286
G01 X14.7518 Y4.4162
G01 X14.7564 Y4.4034
G01 X14.7598 Y4.3901
G01 X14.7618 Y4.3765
G01 X14.7624 Y4.3629
G00 X14.7624 Y4.3629
G01 F250.00
G01 Z-0.3000
G01 F1250.00
G01 X14.7618 Y4.3492
G01 X14.7598 Y4.3356
G01 X14.7564 Y4.3224
G01 X14.7518 Y4.3095
G01 X14.7460 Y4.2971
G01 X14.7389 Y4.2854
G01 X14.7308 Y4.2744
G01 X14.7216 Y4.2642
G01 X14.7114 Y4.2550
G01 X14.7004 Y4.2469
G01 X14.6887 Y4.2398
G01 X14.6763 Y4.2340
G01 X14.6634 Y4.2294
G01 X14.6502 Y4.2260
G01 X14.6366 Y4.2240
G01 X14.6229 Y4.2234
G01 X14.6093 Y4.2240
G01 X14.5957 Y4.2260
G01 X14.5824 Y4.2294
G01 X14.5696 Y4.2340
G01 X14.5572 Y4.2398
G01 X14.5454 Y4.2469
G01 X14.5344 Y4.2550
G01 X14.5243 Y4.2642
G01 X14.5151 Y4.2744
G01 X14.5069 Y4.2854
G01 X14.4999 Y4.2971
G01 X14.4941 Y4.3095
G01 X14.4894 Y4.3224
G01 X14.4861 Y4.3356
G01 X14.4841 Y4.3492
G01 X14.4834 Y4.3629
G01 X14.4841 Y4.3765
G01 X14.4861 Y4.3901
G01 X14.4894 Y4.4034
G01 X14.4941 Y4.4162
G01 X14.4999 Y4.4286
G01 X14.5069 Y4.4404
G01 X14.5151 Y4.4514
G01 X14.5243 Y4.4615
G01 X14.5344 Y4.4707
G01 X14.5454 Y4.4789
G01 X14.5572 Y4.4859
G01 X14.5696 Y4.4917
G01 X14.5824 Y4.4964
G01 X14.5957 Y4.4997
G01 X14.6093 Y4.5017
G01 X14.6229 Y4.5024
G01 X14.6366 Y4.5017
G01 X14.6502 Y4.4997
G01 X14.6634 Y4.4964
G01 X14.6763 Y4.4917
G01 X14.6887 Y4.4859
G01 X14.7004 Y4.4789
G01 X14.7114 Y4.4707
G01 X14.7216 Y4.4615
G01 X14.7308 Y4.4514
G01 X14.7389 Y4.4404
G01 X14.7460 Y4.4286
G01 X14.7518 Y4.4162
G01 X14.7564 Y4.4034
G01 X14.7598 Y4.3901
G01 X14.7618 Y4.3765
G01 X14.7624 Y4.3629
G00 X14.7624 Y4.3629
G01 F250.00
G01 Z-0.4000
G01 F1250.00
G01 X14.7618 Y4.3492
G01 X14.7598 Y4.3356
G01 X14.7564 Y4.3224
G01 X14.7518 Y4.3095
G01 X14.7460 Y4.2971
G01 X14.7389 Y4.2854
G01 X14.7308 Y4.2744
G01 X14.7216 Y4.2642
G01 X14.7114 Y4.2550
G01 X14.7004 Y4.2469
G01 X14.6887 Y4.2398
G01 X14.6763 Y4.2340
G01 X14.6634 Y4.2294
G01 X14.6502 Y4.2260
G01 X14.6366 Y4.2240
G01 X14.6229 Y4.2234
G01 X14.6093 Y4.2240
G01 X14.5957 Y4.2260
G01 X14.5824 Y4.2294
G01 X14.5696 Y4.2340
G01 X14.5572 Y4.2398
G01 X14.5454 Y4.2469
G01 X14.5344 Y4.2550
G01 X14.5243 Y4.2642
G01 X14.5151 Y4.2744
G01 X14.5069 Y4.2854
G01 X14.4999 Y4.2971
G01 X14.4941 Y4.3095
G01 X14.4894 Y4.3224
G01 X14.4861 Y4.3356
G01 X14.4841 Y4.3492
G01 X14.4834 Y4.3629
G01 X14.4841 Y4.3765
G01 X14.4861 Y4.3901
G01 X14.4894 Y4.4034
G01 X14.4941 Y4.4162
G01 X14.4999 Y4.4286
G01 X14.5069 Y4.4404
G01 X14.5151 Y4.4514
G01 X14.5243 Y4.4615
G01 X14.5344 Y4.4707
G01 X14.5454 Y4.4789
G01 X14.5572 Y4.4859
G01 X14.5696 Y4.4917
G01 X14.5824 Y4.4964
G01 X14.5957 Y4.4997
G01 X14.6093 Y4.5017
G01 X14.6229 Y4.5024
G01 X14.6366 Y4.5017
G01 X14.6502 Y4.4997
G01 X14.6634 Y4.4964
G01 X14.6763 Y4.4917
G01 X14.6887 Y4.4859
G01 X14.7004 Y4.4789
G01 X14.7114 Y4.4707
G01 X14.7216 Y4.4615
G01 X14.7308 Y4.4514
G01 X14.7389 Y4.4404
G01 X14.7460 Y4.4286
G01 X14.7518 Y4.4162
G01 X14.7564 Y4.4034
G01 X14.7598 Y4.3901
G01 X14.7618 Y4.3765
G01 X14.7624 Y4.3629
G00 X14.7624 Y4.3629
G01 F250.00
G01 Z-0.5000
G01 F1250.00
G01 X14.7618 Y4.3492
G01 X14.7598 Y4.3356
G01 X14.7564 Y4.3224
G01 X14.7518 Y4.3095
G01 X14.7460 Y4.2971
G01 X14.7389 Y4.2854
G01 X14.7308 Y4.2744
G01 X14.7216 Y4.2642
G01 X14.7114 Y4.2550
G01 X14.7004 Y4.2469
G01 X14.6887 Y4.2398
G01 X14.6763 Y4.2340
G01 X14.6634 Y4.2294
G01 X14.6502 Y4.2260
G01 X14.6366 Y4.2240
G01 X14.6229 Y4.2234
G01 X14.6093 Y4.2240
G01 X14.5957 Y4.2260
G01 X14.5824 Y4.2294
G01 X14.5696 Y4.2340
G01 X14.5572 Y4.2398
G01 X14.5454 Y4.2469
G01 X14.5344 Y4.2550
G01 X14.5243 Y4.2642
G01 X14.5151 Y4.2744
G01 X14.5069 Y4.2854
G01 X14.4999 Y4.2971
G01 X14.4941 Y4.3095
G01 X14.4894 Y4.3224
G01 X14.4861 Y4.3356
G01 X14.4841 Y4.3492
G01 X14.4834 Y4.3629
G01 X14.4841 Y4.3765
G01 X14.4861 Y4.3901
G01 X14.4894 Y4.4034
G01 X14.4941 Y4.4162
G01 X14.4999 Y4.4286
G01 X14.5069 Y4.4404
G01 X14.5151 Y4.4514
G01 X14.5243 Y4.4615
G01 X14.5344 Y4.4707
G01 X14.5454 Y4.4789
G01 X14.5572 Y4.4859
G01 X14.5696 Y4.4917
G01 X14.5824 Y4.4964
G01 X14.5957 Y4.4997
G01 X14.6093 Y4.5017
G01 X14.6229 Y4.5024
G01 X14.6366 Y4.5017
G01 X14.6502 Y4.4997
G01 X14.6634 Y4.4964
G01 X14.6763 Y4.4917
G01 X14.6887 Y4.4859
G01 X14.7004 Y4.4789
G01 X14.7114 Y4.4707
G01 X14.7216 Y4.4615
G01 X14.7308 Y4.4514
G01 X14.7389 Y4.4404
G01 X14.7460 Y4.4286
G01 X14.7518 Y4.4162
G01 X14.7564 Y4.4034
G01 X14.7598 Y4.3901
G01 X14.7618 Y4.3765
G01 X14.7624 Y4.3629
G00 X14.7624 Y4.3629
G01 F250.00
G01 Z-0.6000
G01 F1250.00
G01 X14.7618 Y4.3492
G01 X14.7598 Y4.3356
G01 X14.7564 Y4.3224
G01 X14.7518 Y4.3095
G01 X14.7460 Y4.2971
G01 X14.7389 Y4.2854
G01 X14.7308 Y4.2744
G01 X14.7216 Y4.2642
G01 X14.7114 Y4.2550
G01 X14.7004 Y4.2469
G01 X14.6887 Y4.2398
G01 X14.6763 Y4.2340
G01 X14.6634 Y4.2294
G01 X14.6502 Y4.2260
G01 X14.6366 Y4.2240
G01 X14.6229 Y4.2234
G01 X14.6093 Y4.2240
G01 X14.5957 Y4.2260
G01 X14.5824 Y4.2294
G01 X14.5696 Y4.2340
G01 X14.5572 Y4.2398
G01 X14.5454 Y4.2469
G01 X14.5344 Y4.2550
G01 X14.5243 Y4.2642
G01 X14.5151 Y4.2744
G01 X14.5069 Y4.2854
G01 X14.4999 Y4.2971
G01 X14.4941 Y4.3095
G01 X14.4894 Y4.3224
G01 X14.4861 Y4.3356
G01 X14.4841 Y4.3492
G01 X14.4834 Y4.3629
G01 X14.4841 Y4.3765
G01 X14.4861 Y4.3901
G01 X14.4894 Y4.4034
G01 X14.4941 Y4.4162
G01 X14.4999 Y4.4286
G01 X14.5069 Y4.4404
G01 X14.5151 Y4.4514
G01 X14.5243 Y4.4615
G01 X14.5344 Y4.4707
G01 X14.5454 Y4.4789
G01 X14.5572 Y4.4859
G01 X14.5696 Y4.4917
G01 X14.5824 Y4.4964
G01 X14.5957 Y4.4997
G01 X14.6093 Y4.5017
G01 X14.6229 Y4.5024
G01 X14.6366 Y4.5017
G01 X14.6502 Y4.4997
G01 X14.6634 Y4.4964
G01 X14.6763 Y4.4917
G01 X14.6887 Y4.4859
G01 X14.7004 Y4.4789
G01 X14.7114 Y4.4707
G01 X14.7216 Y4.4615
G01 X14.7308 Y4.4514
G01 X14.7389 Y4.4404
G01 X14.7460 Y4.4286
G01 X14.7518 Y4.4162
G01 X14.7564 Y4.4034
G01 X14.7598 Y4.3901
G01 X14.7618 Y4.3765
G01 X14.7624 Y4.3629
G00 X14.7624 Y4.3629
G01 F250.00
G01 Z-0.7000
G01 F1250.00
G01 X14.7618 Y4.3492
G01 X14.7598 Y4.3356
G01 X14.7564 Y4.3224
G01 X14.7518 Y4.3095
G01 X14.7460 Y4.2971
G01 X14.7389 Y4.2854
G01 X14.7308 Y4.2744
G01 X14.7216 Y4.2642
G01 X14.7114 Y4.2550
G01 X14.7004 Y4.2469
G01 X14.6887 Y4.2398
G01 X14.6763 Y4.2340
G01 X14.6634 Y4.2294
G01 X14.6502 Y4.2260
G01 X14.6366 Y4.2240
G01 X14.6229 Y4.2234
G01 X14.6093 Y4.2240
G01 X14.5957 Y4.2260
G01 X14.5824 Y4.2294
G01 X14.5696 Y4.2340
G01 X14.5572 Y4.2398
G01 X14.5454 Y4.2469
G01 X14.5344 Y4.2550
G01 X14.5243 Y4.2642
G01 X14.5151 Y4.2744
G01 X14.5069 Y4.2854
G01 X14.4999 Y4.2971
G01 X14.4941 Y4.3095
G01 X14.4894 Y4.3224
G01 X14.4861 Y4.3356
G01 X14.4841 Y4.3492
G01 X14.4834 Y4.3629
G01 X14.4841 Y4.3765
G01 X14.4861 Y4.3901
G01 X14.4894 Y4.4034
G01 X14.4941 Y4.4162
G01 X14.4999 Y4.4286
G01 X14.5069 Y4.4404
G01 X14.5151 Y4.4514
G01 X14.5243 Y4.4615
G01 X14.5344 Y4.4707
G01 X14.5454 Y4.4789
G01 X14.5572 Y4.4859
G01 X14.5696 Y4.4917
G01 X14.5824 Y4.4964
G01 X14.5957 Y4.4997
G01 X14.6093 Y4.5017
G01 X14.6229 Y4.5024
G01 X14.6366 Y4.5017
G01 X14.6502 Y4.4997
G01 X14.6634 Y4.4964
G01 X14.6763 Y4.4917
G01 X14.6887 Y4.4859
G01 X14.7004 Y4.4789
G01 X14.7114 Y4.4707
G01 X14.7216 Y4.4615
G01 X14.7308 Y4.4514
G01 X14.7389 Y4.4404
G01 X14.7460 Y4.4286
G01 X14.7518 Y4.4162
G01 X14.7564 Y4.4034
G01 X14.7598 Y4.3901
G01 X14.7618 Y4.3765
G01 X14.7624 Y4.3629
G00 X14.7624 Y4.3629
G01 F250.00
G01 Z-0.8000
G01 F1250.00
G01 X14.7618 Y4.3492
G01 X14.7598 Y4.3356
G01 X14.7564 Y4.3224
G01 X14.7518 Y4.3095
G01 X14.7460 Y4.2971
G01 X14.7389 Y4.2854
G01 X14.7308 Y4.2744
G01 X14.7216 Y4.2642
G01 X14.7114 Y4.2550
G01 X14.7004 Y4.2469
G01 X14.6887 Y4.2398
G01 X14.6763 Y4.2340
G01 X14.6634 Y4.2294
G01 X14.6502 Y4.2260
G01 X14.6366 Y4.2240
G01 X14.6229 Y4.2234
G01 X14.6093 Y4.2240
G01 X14.5957 Y4.2260
G01 X14.5824 Y4.2294
G01 X14.5696 Y4.2340
G01 X14.5572 Y4.2398
G01 X14.5454 Y4.2469
G01 X14.5344 Y4.2550
G01 X14.5243 Y4.2642
G01 X14.5151 Y4.2744
G01 X14.5069 Y4.2854
G01 X14.4999 Y4.2971
G01 X14.4941 Y4.3095
G01 X14.4894 Y4.3224
G01 X14.4861 Y4.3356
G01 X14.4841 Y4.3492
G01 X14.4834 Y4.3629
G01 X14.4841 Y4.3765
G01 X14.4861 Y4.3901
G01 X14.4894 Y4.4034
G01 X14.4941 Y4.4162
G01 X14.4999 Y4.4286
G01 X14.5069 Y4.4404
G01 X14.5151 Y4.4514
G01 X14.5243 Y4.4615
G01 X14.5344 Y4.4707
G01 X14.5454 Y4.4789
G01 X14.5572 Y4.4859
G01 X14.5696 Y4.4917
G01 X14.5824 Y4.4964
G01 X14.5957 Y4.4997
G01 X14.6093 Y4.5017
G01 X14.6229 Y4.5024
G01 X14.6366 Y4.5017
G01 X14.6502 Y4.4997
G01 X14.6634 Y4.4964
G01 X14.6763 Y4.4917
G01 X14.6887 Y4.4859
G01 X14.7004 Y4.4789
G01 X14.7114 Y4.4707
G01 X14.7216 Y4.4615
G01 X14.7308 Y4.4514
G01 X14.7389 Y4.4404
G01 X14.7460 Y4.4286
G01 X14.7518 Y4.4162
G01 X14.7564 Y4.4034
G01 X14.7598 Y4.3901
G01 X14.7618 Y4.3765
G01 X14.7624 Y4.3629
G00 X14.7624 Y4.3629
G01 F250.00
G01 Z-0.9000
G01 F1250.00
G01 X14.7618 Y4.3492
G01 X14.7598 Y4.3356
G01 X14.7564 Y4.3224
G01 X14.7518 Y4.3095
G01 X14.7460 Y4.2971
G01 X14.7389 Y4.2854
G01 X14.7308 Y4.2744
G01 X14.7216 Y4.2642
G01 X14.7114 Y4.2550
G01 X14.7004 Y4.2469
G01 X14.6887 Y4.2398
G01 X14.6763 Y4.2340
G01 X14.6634 Y4.2294
G01 X14.6502 Y4.2260
G01 X14.6366 Y4.2240
G01 X14.6229 Y4.2234
G01 X14.6093 Y4.2240
G01 X14.5957 Y4.2260
G01 X14.5824 Y4.2294
G01 X14.5696 Y4.2340
G01 X14.5572 Y4.2398
G01 X14.5454 Y4.2469
G01 X14.5344 Y4.2550
G01 X14.5243 Y4.2642
G01 X14.5151 Y4.2744
G01 X14.5069 Y4.2854
G01 X14.4999 Y4.2971
G01 X14.4941 Y4.3095
G01 X14.4894 Y4.3224
G01 X14.4861 Y4.3356
G01 X14.4841 Y4.3492
G01 X14.4834 Y4.3629
G01 X14.4841 Y4.3765
G01 X14.4861 Y4.3901
G01 X14.4894 Y4.4034
G01 X14.4941 Y4.4162
G01 X14.4999 Y4.4286
G01 X14.5069 Y4.4404
G01 X14.5151 Y4.4514
G01 X14.5243 Y4.4615
G01 X14.5344 Y4.4707
G01 X14.5454 Y4.4789
G01 X14.5572 Y4.4859
G01 X14.5696 Y4.4917
G01 X14.5824 Y4.4964
G01 X14.5957 Y4.4997
G01 X14.6093 Y4.5017
G01 X14.6229 Y4.5024
G01 X14.6366 Y4.5017
G01 X14.6502 Y4.4997
G01 X14.6634 Y4.4964
G01 X14.6763 Y4.4917
G01 X14.6887 Y4.4859
G01 X14.7004 Y4.4789
G01 X14.7114 Y4.4707
G01 X14.7216 Y4.4615
G01 X14.7308 Y4.4514
G01 X14.7389 Y4.4404
G01 X14.7460 Y4.4286
G01 X14.7518 Y4.4162
G01 X14.7564 Y4.4034
G01 X14.7598 Y4.3901
G01 X14.7618 Y4.3765
G01 X14.7624 Y4.3629
G00 X14.7624 Y4.3629
G01 F250.00
G01 Z-1.0000
G01 F1250.00
G01 X14.7618 Y4.3492
G01 X14.7598 Y4.3356
G01 X14.7564 Y4.3224
G01 X14.7518 Y4.3095
G01 X14.7460 Y4.2971
G01 X14.7389 Y4.2854
G01 X14.7308 Y4.2744
G01 X14.7216 Y4.2642
G01 X14.7114 Y4.2550
G01 X14.7004 Y4.2469
G01 X14.6887 Y4.2398
G01 X14.6763 Y4.2340
G01 X14.6634 Y4.2294
G01 X14.6502 Y4.2260
G01 X14.6366 Y4.2240
G01 X14.6229 Y4.2234
G01 X14.6093 Y4.2240
G01 X14.5957 Y4.2260
G01 X14.5824 Y4.2294
G01 X14.5696 Y4.2340
G01 X14.5572 Y4.2398
G01 X14.5454 Y4.2469
G01 X14.5344 Y4.2550
G01 X14.5243 Y4.2642
G01 X14.5151 Y4.2744
G01 X14.5069 Y4.2854
G01 X14.4999 Y4.2971
G01 X14.4941 Y4.3095
G01 X14.4894 Y4.3224
G01 X14.4861 Y4.3356
G01 X14.4841 Y4.3492
G01 X14.4834 Y4.3629
G01 X14.4841 Y4.3765
G01 X14.4861 Y4.3901
G01 X14.4894 Y4.4034
G01 X14.4941 Y4.4162
G01 X14.4999 Y4.4286
G01 X14.5069 Y4.4404
G01 X14.5151 Y4.4514
G01 X14.5243 Y4.4615
G01 X14.5344 Y4.4707
G01 X14.5454 Y4.4789
G01 X14.5572 Y4.4859
G01 X14.5696 Y4.4917
G01 X14.5824 Y4.4964
G01 X14.5957 Y4.4997
G01 X14.6093 Y4.5017
G01 X14.6229 Y4.5024
G01 X14.6366 Y4.5017
G01 X14.6502 Y4.4997
G01 X14.6634 Y4.4964
G01 X14.6763 Y4.4917
G01 X14.6887 Y4.4859
G01 X14.7004 Y4.4789
G01 X14.7114 Y4.4707
G01 X14.7216 Y4.4615
G01 X14.7308 Y4.4514
G01 X14.7389 Y4.4404
G01 X14.7460 Y4.4286
G01 X14.7518 Y4.4162
G01 X14.7564 Y4.4034
G01 X14.7598 Y4.3901
G01 X14.7618 Y4.3765
G01 X14.7624 Y4.3629
G00 X14.7624 Y4.3629
G01 F250.00
G01 Z-1.1000
G01 F1250.00
G01 X14.7618 Y4.3492
G01 X14.7598 Y4.3356
G01 X14.7564 Y4.3224
G01 X14.7518 Y4.3095
G01 X14.7460 Y4.2971
G01 X14.7389 Y4.2854
G01 X14.7308 Y4.2744
G01 X14.7216 Y4.2642
G01 X14.7114 Y4.2550
G01 X14.7004 Y4.2469
G01 X14.6887 Y4.2398
G01 X14.6763 Y4.2340
G01 X14.6634 Y4.2294
G01 X14.6502 Y4.2260
G01 X14.6366 Y4.2240
G01 X14.6229 Y4.2234
G01 X14.6093 Y4.2240
G01 X14.5957 Y4.2260
G01 X14.5824 Y4.2294
G01 X14.5696 Y4.2340
G01 X14.5572 Y4.2398
G01 X14.5454 Y4.2469
G01 X14.5344 Y4.2550
G01 X14.5243 Y4.2642
G01 X14.5151 Y4.2744
G01 X14.5069 Y4.2854
G01 X14.4999 Y4.2971
G01 X14.4941 Y4.3095
G01 X14.4894 Y4.3224
G01 X14.4861 Y4.3356
G01 X14.4841 Y4.3492
G01 X14.4834 Y4.3629
G01 X14.4841 Y4.3765
G01 X14.4861 Y4.3901
G01 X14.4894 Y4.4034
G01 X14.4941 Y4.4162
G01 X14.4999 Y4.4286
G01 X14.5069 Y4.4404
G01 X14.5151 Y4.4514
G01 X14.5243 Y4.4615
G01 X14.5344 Y4.4707
G01 X14.5454 Y4.4789
G01 X14.5572 Y4.4859
G01 X14.5696 Y4.4917
G01 X14.5824 Y4.4964
G01 X14.5957 Y4.4997
G01 X14.6093 Y4.5017
G01 X14.6229 Y4.5024
G01 X14.6366 Y4.5017
G01 X14.6502 Y4.4997
G01 X14.6634 Y4.4964
G01 X14.6763 Y4.4917
G01 X14.6887 Y4.4859
G01 X14.7004 Y4.4789
G01 X14.7114 Y4.4707
G01 X14.7216 Y4.4615
G01 X14.7308 Y4.4514
G01 X14.7389 Y4.4404
G01 X14.7460 Y4.4286
G01 X14.7518 Y4.4162
G01 X14.7564 Y4.4034
G01 X14.7598 Y4.3901
G01 X14.7618 Y4.3765
G01 X14.7624 Y4.3629
G00 X14.7624 Y4.3629
G01 F250.00
G01 Z-1.2000
G01 F1250.00
G01 X14.7618 Y4.3492
G01 X14.7598 Y4.3356
G01 X14.7564 Y4.3224
G01 X14.7518 Y4.3095
G01 X14.7460 Y4.2971
G01 X14.7389 Y4.2854
G01 X14.7308 Y4.2744
G01 X14.7216 Y4.2642
G01 X14.7114 Y4.2550
G01 X14.7004 Y4.2469
G01 X14.6887 Y4.2398
G01 X14.6763 Y4.2340
G01 X14.6634 Y4.2294
G01 X14.6502 Y4.2260
G01 X14.6366 Y4.2240
G01 X14.6229 Y4.2234
G01 X14.6093 Y4.2240
G01 X14.5957 Y4.2260
G01 X14.5824 Y4.2294
G01 X14.5696 Y4.2340
G01 X14.5572 Y4.2398
G01 X14.5454 Y4.2469
G01 X14.5344 Y4.2550
G01 X14.5243 Y4.2642
G01 X14.5151 Y4.2744
G01 X14.5069 Y4.2854
G01 X14.4999 Y4.2971
G01 X14.4941 Y4.3095
G01 X14.4894 Y4.3224
G01 X14.4861 Y4.3356
G01 X14.4841 Y4.3492
G01 X14.4834 Y4.3629
G01 X14.4841 Y4.3765
G01 X14.4861 Y4.3901
G01 X14.4894 Y4.4034
G01 X14.4941 Y4.4162
G01 X14.4999 Y4.4286
G01 X14.5069 Y4.4404
G01 X14.5151 Y4.4514
G01 X14.5243 Y4.4615
G01 X14.5344 Y4.4707
G01 X14.5454 Y4.4789
G01 X14.5572 Y4.4859
G01 X14.5696 Y4.4917
G01 X14.5824 Y4.4964
G01 X14.5957 Y4.4997
G01 X14.6093 Y4.5017
G01 X14.6229 Y4.5024
G01 X14.6366 Y4.5017
G01 X14.6502 Y4.4997
G01 X14.6634 Y4.4964
G01 X14.6763 Y4.4917
G01 X14.6887 Y4.4859
G01 X14.7004 Y4.4789
G01 X14.7114 Y4.4707
G01 X14.7216 Y4.4615
G01 X14.7308 Y4.4514
G01 X14.7389 Y4.4404
G01 X14.7460 Y4.4286
G01 X14.7518 Y4.4162
G01 X14.7564 Y4.4034
G01 X14.7598 Y4.3901
G01 X14.7618 Y4.3765
G01 X14.7624 Y4.3629
G00 X14.7624 Y4.3629
G01 F250.00
G01 Z-1.3000
G01 F1250.00
G01 X14.7618 Y4.3492
G01 X14.7598 Y4.3356
G01 X14.7564 Y4.3224
G01 X14.7518 Y4.3095
G01 X14.7460 Y4.2971
G01 X14.7389 Y4.2854
G01 X14.7308 Y4.2744
G01 X14.7216 Y4.2642
G01 X14.7114 Y4.2550
G01 X14.7004 Y4.2469
G01 X14.6887 Y4.2398
G01 X14.6763 Y4.2340
G01 X14.6634 Y4.2294
G01 X14.6502 Y4.2260
G01 X14.6366 Y4.2240
G01 X14.6229 Y4.2234
G01 X14.6093 Y4.2240
G01 X14.5957 Y4.2260
G01 X14.5824 Y4.2294
G01 X14.5696 Y4.2340
G01 X14.5572 Y4.2398
G01 X14.5454 Y4.2469
G01 X14.5344 Y4.2550
G01 X14.5243 Y4.2642
G01 X14.5151 Y4.2744
G01 X14.5069 Y4.2854
G01 X14.4999 Y4.2971
G01 X14.4941 Y4.3095
G01 X14.4894 Y4.3224
G01 X14.4861 Y4.3356
G01 X14.4841 Y4.3492
G01 X14.4834 Y4.3629
G01 X14.4841 Y4.3765
G01 X14.4861 Y4.3901
G01 X14.4894 Y4.4034
G01 X14.4941 Y4.4162
G01 X14.4999 Y4.4286
G01 X14.5069 Y4.4404
G01 X14.5151 Y4.4514
G01 X14.5243 Y4.4615
G01 X14.5344 Y4.4707
G01 X14.5454 Y4.4789
G01 X14.5572 Y4.4859
G01 X14.5696 Y4.4917
G01 X14.5824 Y4.4964
G01 X14.5957 Y4.4997
G01 X14.6093 Y4.5017
G01 X14.6229 Y4.5024
G01 X14.6366 Y4.5017
G01 X14.6502 Y4.4997
G01 X14.6634 Y4.4964
G01 X14.6763 Y4.4917
G01 X14.6887 Y4.4859
G01 X14.7004 Y4.4789
G01 X14.7114 Y4.4707
G01 X14.7216 Y4.4615
G01 X14.7308 Y4.4514
G01 X14.7389 Y4.4404
G01 X14.7460 Y4.4286
G01 X14.7518 Y4.4162
G01 X14.7564 Y4.4034
G01 X14.7598 Y4.3901
G01 X14.7618 Y4.3765
G01 X14.7624 Y4.3629
G00 X14.7624 Y4.3629
G01 F250.00
G01 Z-1.4000
G01 F1250.00
G01 X14.7618 Y4.3492
G01 X14.7598 Y4.3356
G01 X14.7564 Y4.3224
G01 X14.7518 Y4.3095
G01 X14.7460 Y4.2971
G01 X14.7389 Y4.2854
G01 X14.7308 Y4.2744
G01 X14.7216 Y4.2642
G01 X14.7114 Y4.2550
G01 X14.7004 Y4.2469
G01 X14.6887 Y4.2398
G01 X14.6763 Y4.2340
G01 X14.6634 Y4.2294
G01 X14.6502 Y4.2260
G01 X14.6366 Y4.2240
G01 X14.6229 Y4.2234
G01 X14.6093 Y4.2240
G01 X14.5957 Y4.2260
G01 X14.5824 Y4.2294
G01 X14.5696 Y4.2340
G01 X14.5572 Y4.2398
G01 X14.5454 Y4.2469
G01 X14.5344 Y4.2550
G01 X14.5243 Y4.2642
G01 X14.5151 Y4.2744
G01 X14.5069 Y4.2854
G01 X14.4999 Y4.2971
G01 X14.4941 Y4.3095
G01 X14.4894 Y4.3224
G01 X14.4861 Y4.3356
G01 X14.4841 Y4.3492
G01 X14.4834 Y4.3629
G01 X14.4841 Y4.3765
G01 X14.4861 Y4.3901
G01 X14.4894 Y4.4034
G01 X14.4941 Y4.4162
G01 X14.4999 Y4.4286
G01 X14.5069 Y4.4404
G01 X14.5151 Y4.4514
G01 X14.5243 Y4.4615
G01 X14.5344 Y4.4707
G01 X14.5454 Y4.4789
G01 X14.5572 Y4.4859
G01 X14.5696 Y4.4917
G01 X14.5824 Y4.4964
G01 X14.5957 Y4.4997
G01 X14.6093 Y4.5017
G01 X14.6229 Y4.5024
G01 X14.6366 Y4.5017
G01 X14.6502 Y4.4997
G01 X14.6634 Y4.4964
G01 X14.6763 Y4.4917
G01 X14.6887 Y4.4859
G01 X14.7004 Y4.4789
G01 X14.7114 Y4.4707
G01 X14.7216 Y4.4615
G01 X14.7308 Y4.4514
G01 X14.7389 Y4.4404
G01 X14.7460 Y4.4286
G01 X14.7518 Y4.4162
G01 X14.7564 Y4.4034
G01 X14.7598 Y4.3901
G01 X14.7618 Y4.3765
G01 X14.7624 Y4.3629
G00 X14.7624 Y4.3629
G01 F250.00
G01 Z-1.5000
G01 F1250.00
G01 X14.7618 Y4.3492
G01 X14.7598 Y4.3356
G01 X14.7564 Y4.3224
G01 X14.7518 Y4.3095
G01 X14.7460 Y4.2971
G01 X14.7389 Y4.2854
G01 X14.7308 Y4.2744
G01 X14.7216 Y4.2642
G01 X14.7114 Y4.2550
G01 X14.7004 Y4.2469
G01 X14.6887 Y4.2398
G01 X14.6763 Y4.2340
G01 X14.6634 Y4.2294
G01 X14.6502 Y4.2260
G01 X14.6366 Y4.2240
G01 X14.6229 Y4.2234
G01 X14.6093 Y4.2240
G01 X14.5957 Y4.2260
G01 X14.5824 Y4.2294
G01 X14.5696 Y4.2340
G01 X14.5572 Y4.2398
G01 X14.5454 Y4.2469
G01 X14.5344 Y4.2550
G01 X14.5243 Y4.2642
G01 X14.5151 Y4.2744
G01 X14.5069 Y4.2854
G01 X14.4999 Y4.2971
G01 X14.4941 Y4.3095
G01 X14.4894 Y4.3224
G01 X14.4861 Y4.3356
G01 X14.4841 Y4.3492
G01 X14.4834 Y4.3629
G01 X14.4841 Y4.3765
G01 X14.4861 Y4.3901
G01 X14.4894 Y4.4034
G01 X14.4941 Y4.4162
G01 X14.4999 Y4.4286
G01 X14.5069 Y4.4404
G01 X14.5151 Y4.4514
G01 X14.5243 Y4.4615
G01 X14.5344 Y4.4707
G01 X14.5454 Y4.4789
G01 X14.5572 Y4.4859
G01 X14.5696 Y4.4917
G01 X14.5824 Y4.4964
G01 X14.5957 Y4.4997
G01 X14.6093 Y4.5017
G01 X14.6229 Y4.5024
G01 X14.6366 Y4.5017
G01 X14.6502 Y4.4997
G01 X14.6634 Y4.4964
G01 X14.6763 Y4.4917
G01 X14.6887 Y4.4859
G01 X14.7004 Y4.4789
G01 X14.7114 Y4.4707
G01 X14.7216 Y4.4615
G01 X14.7308 Y4.4514
G01 X14.7389 Y4.4404
G01 X14.7460 Y4.4286
G01 X14.7518 Y4.4162
G01 X14.7564 Y4.4034
G01 X14.7598 Y4.3901
G01 X14.7618 Y4.3765
G01 X14.7624 Y4.3629
G00 X14.7624 Y4.3629
G01 F250.00
G01 Z-1.6000
G01 F1250.00
G01 X14.7618 Y4.3492
G01 X14.7598 Y4.3356
G01 X14.7564 Y4.3224
G01 X14.7518 Y4.3095
G01 X14.7460 Y4.2971
G01 X14.7389 Y4.2854
G01 X14.7308 Y4.2744
G01 X14.7216 Y4.2642
G01 X14.7114 Y4.2550
G01 X14.7004 Y4.2469
G01 X14.6887 Y4.2398
G01 X14.6763 Y4.2340
G01 X14.6634 Y4.2294
G01 X14.6502 Y4.2260
G01 X14.6366 Y4.2240
G01 X14.6229 Y4.2234
G01 X14.6093 Y4.2240
G01 X14.5957 Y4.2260
G01 X14.5824 Y4.2294
G01 X14.5696 Y4.2340
G01 X14.5572 Y4.2398
G01 X14.5454 Y4.2469
G01 X14.5344 Y4.2550
G01 X14.5243 Y4.2642
G01 X14.5151 Y4.2744
G01 X14.5069 Y4.2854
G01 X14.4999 Y4.2971
G01 X14.4941 Y4.3095
G01 X14.4894 Y4.3224
G01 X14.4861 Y4.3356
G01 X14.4841 Y4.3492
G01 X14.4834 Y4.3629
G01 X14.4841 Y4.3765
G01 X14.4861 Y4.3901
G01 X14.4894 Y4.4034
G01 X14.4941 Y4.4162
G01 X14.4999 Y4.4286
G01 X14.5069 Y4.4404
G01 X14.5151 Y4.4514
G01 X14.5243 Y4.4615
G01 X14.5344 Y4.4707
G01 X14.5454 Y4.4789
G01 X14.5572 Y4.4859
G01 X14.5696 Y4.4917
G01 X14.5824 Y4.4964
G01 X14.5957 Y4.4997
G01 X14.6093 Y4.5017
G01 X14.6229 Y4.5024
G01 X14.6366 Y4.5017
G01 X14.6502 Y4.4997
G01 X14.6634 Y4.4964
G01 X14.6763 Y4.4917
G01 X14.6887 Y4.4859
G01 X14.7004 Y4.4789
G01 X14.7114 Y4.4707
G01 X14.7216 Y4.4615
G01 X14.7308 Y4.4514
G01 X14.7389 Y4.4404
G01 X14.7460 Y4.4286
G01 X14.7518 Y4.4162
G01 X14.7564 Y4.4034
G01 X14.7598 Y4.3901
G01 X14.7618 Y4.3765
G01 X14.7624 Y4.3629
G00 X14.7624 Y4.3629
G01 F250.00
G01 Z-1.7000
G01 F1250.00
G01 X14.7618 Y4.3492
G01 X14.7598 Y4.3356
G01 X14.7564 Y4.3224
G01 X14.7518 Y4.3095
G01 X14.7460 Y4.2971
G01 X14.7389 Y4.2854
G01 X14.7308 Y4.2744
G01 X14.7216 Y4.2642
G01 X14.7114 Y4.2550
G01 X14.7004 Y4.2469
G01 X14.6887 Y4.2398
G01 X14.6763 Y4.2340
G01 X14.6634 Y4.2294
G01 X14.6502 Y4.2260
G01 X14.6366 Y4.2240
G01 X14.6229 Y4.2234
G01 X14.6093 Y4.2240
G01 X14.5957 Y4.2260
G01 X14.5824 Y4.2294
G01 X14.5696 Y4.2340
G01 X14.5572 Y4.2398
G01 X14.5454 Y4.2469
G01 X14.5344 Y4.2550
G01 X14.5243 Y4.2642
G01 X14.5151 Y4.2744
G01 X14.5069 Y4.2854
G01 X14.4999 Y4.2971
G01 X14.4941 Y4.3095
G01 X14.4894 Y4.3224
G01 X14.4861 Y4.3356
G01 X14.4841 Y4.3492
G01 X14.4834 Y4.3629
G01 X14.4841 Y4.3765
G01 X14.4861 Y4.3901
G01 X14.4894 Y4.4034
G01 X14.4941 Y4.4162
G01 X14.4999 Y4.4286
G01 X14.5069 Y4.4404
G01 X14.5151 Y4.4514
G01 X14.5243 Y4.4615
G01 X14.5344 Y4.4707
G01 X14.5454 Y4.4789
G01 X14.5572 Y4.4859
G01 X14.5696 Y4.4917
G01 X14.5824 Y4.4964
G01 X14.5957 Y4.4997
G01 X14.6093 Y4.5017
G01 X14.6229 Y4.5024
G01 X14.6366 Y4.5017
G01 X14.6502 Y4.4997
G01 X14.6634 Y4.4964
G01 X14.6763 Y4.4917
G01 X14.6887 Y4.4859
G01 X14.7004 Y4.4789
G01 X14.7114 Y4.4707
G01 X14.7216 Y4.4615
G01 X14.7308 Y4.4514
G01 X14.7389 Y4.4404
G01 X14.7460 Y4.4286
G01 X14.7518 Y4.4162
G01 X14.7564 Y4.4034
G01 X14.7598 Y4.3901
G01 X14.7618 Y4.3765
G01 X14.7624 Y4.3629
G00 Z0.5000
G00 X14.7624 Y29.2629
G01 F250.00
G01 Z-0.1000
G01 F1250.00
G01 X14.7618 Y29.2492
G01 X14.7598 Y29.2356
G01 X14.7564 Y29.2224
G01 X14.7518 Y29.2095
G01 X14.7460 Y29.1971
G01 X14.7389 Y29.1854
G01 X14.7308 Y29.1744
G01 X14.7216 Y29.1642
G01 X14.7114 Y29.1550
G01 X14.7004 Y29.1469
G01 X14.6887 Y29.1398
G01 X14.6763 Y29.1340
G01 X14.6634 Y29.1294
G01 X14.6502 Y29.1260
G01 X14.6366 Y29.1240
G01 X14.6229 Y29.1234
G01 X14.6093 Y29.1240
G01 X14.5957 Y29.1260
G01 X14.5824 Y29.1294
G01 X14.5696 Y29.1340
G01 X14.5572 Y29.1398
G01 X14.5454 Y29.1469
G01 X14.5344 Y29.1550
G01 X14.5243 Y29.1642
G01 X14.5151 Y29.1744
G01 X14.5069 Y29.1854
G01 X14.4999 Y29.1971
G01 X14.4941 Y29.2095
G01 X14.4894 Y29.2224
G01 X14.4861 Y29.2356
G01 X14.4841 Y29.2492
G01 X14.4834 Y29.2629
G01 X14.4841 Y29.2765
G01 X14.4861 Y29.2901
G01 X14.4894 Y29.3034
G01 X14.4941 Y29.3162
G01 X14.4999 Y29.3286
G01 X14.5069 Y29.3404
G01 X14.5151 Y29.3514
G01 X14.5243 Y29.3615
G01 X14.5344 Y29.3707
G01 X14.5454 Y29.3789
G01 X14.5572 Y29.3859
G01 X14.5696 Y29.3917
G01 X14.5824 Y29.3964
G01 X14.5957 Y29.3997
G01 X14.6093 Y29.4017
G01 X14.6229 Y29.4024
G01 X14.6366 Y29.4017
G01 X14.6502 Y29.3997
G01 X14.6634 Y29.3964
G01 X14.6763 Y29.3917
G01 X14.6887 Y29.3859
G01 X14.7004 Y29.3789
G01 X14.7114 Y29.3707
G01 X14.7216 Y29.3615
G01 X14.7308 Y29.3514
G01 X14.7389 Y29.3404
G01 X14.7460 Y29.3286
G01 X14.7518 Y29.3162
G01 X14.7564 Y29.3034
G01 X14.7598 Y29.2901
G01 X14.7618 Y29.2765
G01 X14.7624 Y29.2629
G00 X14.7624 Y29.2629
G01 F250.00
G01 Z-0.2000
G01 F1250.00
G01 X14.7618 Y29.2492
G01 X14.7598 Y29.2356
G01 X14.7564 Y29.2224
G01 X14.7518 Y29.2095
G01 X14.7460 Y29.1971
G01 X14.7389 Y29.1854
G01 X14.7308 Y29.1744
G01 X14.7216 Y29.1642
G01 X14.7114 Y29.1550
G01 X14.7004 Y29.1469
G01 X14.6887 Y29.1398
G01 X14.6763 Y29.1340
G01 X14.6634 Y29.1294
G01 X14.6502 Y29.1260
G01 X14.6366 Y29.1240
G01 X14.6229 Y29.1234
G01 X14.6093 Y29.1240
G01 X14.5957 Y29.1260
G01 X14.5824 Y29.1294
G01 X14.5696 Y29.1340
G01 X14.5572 Y29.1398
G01 X14.5454 Y29.1469
G01 X14.5344 Y29.1550
G01 X14.5243 Y29.1642
G01 X14.5151 Y29.1744
G01 X14.5069 Y29.1854
G01 X14.4999 Y29.1971
G01 X14.4941 Y29.2095
G01 X14.4894 Y29.2224
G01 X14.4861 Y29.2356
G01 X14.4841 Y29.2492
G01 X14.4834 Y29.2629
G01 X14.4841 Y29.2765
G01 X14.4861 Y29.2901
G01 X14.4894 Y29.3034
G01 X14.4941 Y29.3162
G01 X14.4999 Y29.3286
G01 X14.5069 Y29.3404
G01 X14.5151 Y29.3514
G01 X14.5243 Y29.3615
G01 X14.5344 Y29.3707
G01 X14.5454 Y29.3789
G01 X14.5572 Y29.3859
G01 X14.5696 Y29.3917
G01 X14.5824 Y29.3964
G01 X14.5957 Y29.3997
G01 X14.6093 Y29.4017
G01 X14.6229 Y29.4024
G01 X14.6366 Y29.4017
G01 X14.6502 Y29.3997
G01 X14.6634 Y29.3964
G01 X14.6763 Y29.3917
G01 X14.6887 Y29.3859
G01 X14.7004 Y29.3789
G01 X14.7114 Y29.3707
G01 X14.7216 Y29.3615
G01 X14.7308 Y29.3514
G01 X14.7389 Y29.3404
G01 X14.7460 Y29.3286
G01 X14.7518 Y29.3162
G01 X14.7564 Y29.3034
G01 X14.7598 Y29.2901
G01 X14.7618 Y29.2765
G01 X14.7624 Y29.2629
G00 X14.7624 Y29.2629
G01 F250.00
G01 Z-0.3000
G01 F1250.00
G01 X14.7618 Y29.2492
G01 X14.7598 Y29.2356
G01 X14.7564 Y29.2224
G01 X14.7518 Y29.2095
G01 X14.7460 Y29.1971
G01 X14.7389 Y29.1854
G01 X14.7308 Y29.1744
G01 X14.7216 Y29.1642
G01 X14.7114 Y29.1550
G01 X14.7004 Y29.1469
G01 X14.6887 Y29.1398
G01 X14.6763 Y29.1340
G01 X14.6634 Y29.1294
G01 X14.6502 Y29.1260
G01 X14.6366 Y29.1240
G01 X14.6229 Y29.1234
G01 X14.6093 Y29.1240
G01 X14.5957 Y29.1260
G01 X14.5824 Y29.1294
G01 X14.5696 Y29.1340
G01 X14.5572 Y29.1398
G01 X14.5454 Y29.1469
G01 X14.5344 Y29.1550
G01 X14.5243 Y29.1642
G01 X14.5151 Y29.1744
G01 X14.5069 Y29.1854
G01 X14.4999 Y29.1971
G01 X14.4941 Y29.2095
G01 X14.4894 Y29.2224
G01 X14.4861 Y29.2356
G01 X14.4841 Y29.2492
G01 X14.4834 Y29.2629
G01 X14.4841 Y29.2765
G01 X14.4861 Y29.2901
G01 X14.4894 Y29.3034
G01 X14.4941 Y29.3162
G01 X14.4999 Y29.3286
G01 X14.5069 Y29.3404
G01 X14.5151 Y29.3514
G01 X14.5243 Y29.3615
G01 X14.5344 Y29.3707
G01 X14.5454 Y29.3789
G01 X14.5572 Y29.3859
G01 X14.5696 Y29.3917
G01 X14.5824 Y29.3964
G01 X14.5957 Y29.3997
G01 X14.6093 Y29.4017
G01 X14.6229 Y29.4024
G01 X14.6366 Y29.4017
G01 X14.6502 Y29.3997
G01 X14.6634 Y29.3964
G01 X14.6763 Y29.3917
G01 X14.6887 Y29.3859
G01 X14.7004 Y29.3789
G01 X14.7114 Y29.3707
G01 X14.7216 Y29.3615
G01 X14.7308 Y29.3514
G01 X14.7389 Y29.3404
G01 X14.7460 Y29.3286
G01 X14.7518 Y29.3162
G01 X14.7564 Y29.3034
G01 X14.7598 Y29.2901
G01 X14.7618 Y29.2765
G01 X14.7624 Y29.2629
G00 X14.7624 Y29.2629
G01 F250.00
G01 Z-0.4000
G01 F1250.00
G01 X14.7618 Y29.2492
G01 X14.7598 Y29.2356
G01 X14.7564 Y29.2224
G01 X14.7518 Y29.2095
G01 X14.7460 Y29.1971
G01 X14.7389 Y29.1854
G01 X14.7308 Y29.1744
G01 X14.7216 Y29.1642
G01 X14.7114 Y29.1550
G01 X14.7004 Y29.1469
G01 X14.6887 Y29.1398
G01 X14.6763 Y29.1340
G01 X14.6634 Y29.1294
G01 X14.6502 Y29.1260
G01 X14.6366 Y29.1240
G01 X14.6229 Y29.1234
G01 X14.6093 Y29.1240
G01 X14.5957 Y29.1260
G01 X14.5824 Y29.1294
G01 X14.5696 Y29.1340
G01 X14.5572 Y29.1398
G01 X14.5454 Y29.1469
G01 X14.5344 Y29.1550
G01 X14.5243 Y29.1642
G01 X14.5151 Y29.1744
G01 X14.5069 Y29.1854
G01 X14.4999 Y29.1971
G01 X14.4941 Y29.2095
G01 X14.4894 Y29.2224
G01 X14.4861 Y29.2356
G01 X14.4841 Y29.2492
G01 X14.4834 Y29.2629
G01 X14.4841 Y29.2765
G01 X14.4861 Y29.2901
G01 X14.4894 Y29.3034
G01 X14.4941 Y29.3162
G01 X14.4999 Y29.3286
G01 X14.5069 Y29.3404
G01 X14.5151 Y29.3514
G01 X14.5243 Y29.3615
G01 X14.5344 Y29.3707
G01 X14.5454 Y29.3789
G01 X14.5572 Y29.3859
G01 X14.5696 Y29.3917
G01 X14.5824 Y29.3964
G01 X14.5957 Y29.3997
G01 X14.6093 Y29.4017
G01 X14.6229 Y29.4024
G01 X14.6366 Y29.4017
G01 X14.6502 Y29.3997
G01 X14.6634 Y29.3964
G01 X14.6763 Y29.3917
G01 X14.6887 Y29.3859
G01 X14.7004 Y29.3789
G01 X14.7114 Y29.3707
G01 X14.7216 Y29.3615
G01 X14.7308 Y29.3514
G01 X14.7389 Y29.3404
G01 X14.7460 Y29.3286
G01 X14.7518 Y29.3162
G01 X14.7564 Y29.3034
G01 X14.7598 Y29.2901
G01 X14.7618 Y29.2765
G01 X14.7624 Y29.2629
G00 X14.7624 Y29.2629
G01 F250.00
G01 Z-0.5000
G01 F1250.00
G01 X14.7618 Y29.2492
G01 X14.7598 Y29.2356
G01 X14.7564 Y29.2224
G01 X14.7518 Y29.2095
G01 X14.7460 Y29.1971
G01 X14.7389 Y29.1854
G01 X14.7308 Y29.1744
G01 X14.7216 Y29.1642
G01 X14.7114 Y29.1550
G01 X14.7004 Y29.1469
G01 X14.6887 Y29.1398
G01 X14.6763 Y29.1340
G01 X14.6634 Y29.1294
G01 X14.6502 Y29.1260
G01 X14.6366 Y29.1240
G01 X14.6229 Y29.1234
G01 X14.6093 Y29.1240
G01 X14.5957 Y29.1260
G01 X14.5824 Y29.1294
G01 X14.5696 Y29.1340
G01 X14.5572 Y29.1398
G01 X14.5454 Y29.1469
G01 X14.5344 Y29.1550
G01 X14.5243 Y29.1642
G01 X14.5151 Y29.1744
G01 X14.5069 Y29.1854
G01 X14.4999 Y29.1971
G01 X14.4941 Y29.2095
G01 X14.4894 Y29.2224
G01 X14.4861 Y29.2356
G01 X14.4841 Y29.2492
G01 X14.4834 Y29.2629
G01 X14.4841 Y29.2765
G01 X14.4861 Y29.2901
G01 X14.4894 Y29.3034
G01 X14.4941 Y29.3162
G01 X14.4999 Y29.3286
G01 X14.5069 Y29.3404
G01 X14.5151 Y29.3514
G01 X14.5243 Y29.3615
G01 X14.5344 Y29.3707
G01 X14.5454 Y29.3789
G01 X14.5572 Y29.3859
G01 X14.5696 Y29.3917
G01 X14.5824 Y29.3964
G01 X14.5957 Y29.3997
G01 X14.6093 Y29.4017
G01 X14.6229 Y29.4024
G01 X14.6366 Y29.4017
G01 X14.6502 Y29.3997
G01 X14.6634 Y29.3964
G01 X14.6763 Y29.3917
G01 X14.6887 Y29.3859
G01 X14.7004 Y29.3789
G01 X14.7114 Y29.3707
G01 X14.7216 Y29.3615
G01 X14.7308 Y29.3514
G01 X14.7389 Y29.3404
G01 X14.7460 Y29.3286
G01 X14.7518 Y29.3162
G01 X14.7564 Y29.3034
G01 X14.7598 Y29.2901
G01 X14.7618 Y29.2765
G01 X14.7624 Y29.2629
G00 X14.7624 Y29.2629
G01 F250.00
G01 Z-0.6000
G01 F1250.00
G01 X14.7618 Y29.2492
G01 X14.7598 Y29.2356
G01 X14.7564 Y29.2224
G01 X14.7518 Y29.2095
G01 X14.7460 Y29.1971
G01 X14.7389 Y29.1854
G01 X14.7308 Y29.1744
G01 X14.7216 Y29.1642
G01 X14.7114 Y29.1550
G01 X14.7004 Y29.1469
G01 X14.6887 Y29.1398
G01 X14.6763 Y29.1340
G01 X14.6634 Y29.1294
G01 X14.6502 Y29.1260
G01 X14.6366 Y29.1240
G01 X14.6229 Y29.1234
G01 X14.6093 Y29.1240
G01 X14.5957 Y29.1260
G01 X14.5824 Y29.1294
G01 X14.5696 Y29.1340
G01 X14.5572 Y29.1398
G01 X14.5454 Y29.1469
G01 X14.5344 Y29.1550
G01 X14.5243 Y29.1642
G01 X14.5151 Y29.1744
G01 X14.5069 Y29.1854
G01 X14.4999 Y29.1971
G01 X14.4941 Y29.2095
G01 X14.4894 Y29.2224
G01 X14.4861 Y29.2356
G01 X14.4841 Y29.2492
G01 X14.4834 Y29.2629
G01 X14.4841 Y29.2765
G01 X14.4861 Y29.2901
G01 X14.4894 Y29.3034
G01 X14.4941 Y29.3162
G01 X14.4999 Y29.3286
G01 X14.5069 Y29.3404
G01 X14.5151 Y29.3514
G01 X14.5243 Y29.3615
G01 X14.5344 Y29.3707
G01 X14.5454 Y29.3789
G01 X14.5572 Y29.3859
G01 X14.5696 Y29.3917
G01 X14.5824 Y29.3964
G01 X14.5957 Y29.3997
G01 X14.6093 Y29.4017
G01 X14.6229 Y29.4024
G01 X14.6366 Y29.4017
G01 X14.6502 Y29.3997
G01 X14.6634 Y29.3964
G01 X14.6763 Y29.3917
G01 X14.6887 Y29.3859
G01 X14.7004 Y29.3789
G01 X14.7114 Y29.3707
G01 X14.7216 Y29.3615
G01 X14.7308 Y29.3514
G01 X14.7389 Y29.3404
G01 X14.7460 Y29.3286
G01 X14.7518 Y29.3162
G01 X14.7564 Y29.3034
G01 X14.7598 Y29.2901
G01 X14.7618 Y29.2765
G01 X14.7624 Y29.2629
G00 X14.7624 Y29.2629
G01 F250.00
G01 Z-0.7000
G01 F1250.00
G01 X14.7618 Y29.2492
G01 X14.7598 Y29.2356
G01 X14.7564 Y29.2224
G01 X14.7518 Y29.2095
G01 X14.7460 Y29.1971
G01 X14.7389 Y29.1854
G01 X14.7308 Y29.1744
G01 X14.7216 Y29.1642
G01 X14.7114 Y29.1550
G01 X14.7004 Y29.1469
G01 X14.6887 Y29.1398
G01 X14.6763 Y29.1340
G01 X14.6634 Y29.1294
G01 X14.6502 Y29.1260
G01 X14.6366 Y29.1240
G01 X14.6229 Y29.1234
G01 X14.6093 Y29.1240
G01 X14.5957 Y29.1260
G01 X14.5824 Y29.1294
G01 X14.5696 Y29.1340
G01 X14.5572 Y29.1398
G01 X14.5454 Y29.1469
G01 X14.5344 Y29.1550
G01 X14.5243 Y29.1642
G01 X14.5151 Y29.1744
G01 X14.5069 Y29.1854
G01 X14.4999 Y29.1971
G01 X14.4941 Y29.2095
G01 X14.4894 Y29.2224
G01 X14.4861 Y29.2356
G01 X14.4841 Y29.2492
G01 X14.4834 Y29.2629
G01 X14.4841 Y29.2765
G01 X14.4861 Y29.2901
G01 X14.4894 Y29.3034
G01 X14.4941 Y29.3162
G01 X14.4999 Y29.3286
G01 X14.5069 Y29.3404
G01 X14.5151 Y29.3514
G01 X14.5243 Y29.3615
G01 X14.5344 Y29.3707
G01 X14.5454 Y29.3789
G01 X14.5572 Y29.3859
G01 X14.5696 Y29.3917
G01 X14.5824 Y29.3964
G01 X14.5957 Y29.3997
G01 X14.6093 Y29.4017
G01 X14.6229 Y29.4024
G01 X14.6366 Y29.4017
G01 X14.6502 Y29.3997
G01 X14.6634 Y29.3964
G01 X14.6763 Y29.3917
G01 X14.6887 Y29.3859
G01 X14.7004 Y29.3789
G01 X14.7114 Y29.3707
G01 X14.7216 Y29.3615
G01 X14.7308 Y29.3514
G01 X14.7389 Y29.3404
G01 X14.7460 Y29.3286
G01 X14.7518 Y29.3162
G01 X14.7564 Y29.3034
G01 X14.7598 Y29.2901
G01 X14.7618 Y29.2765
G01 X14.7624 Y29.2629
G00 X14.7624 Y29.2629
G01 F250.00
G01 Z-0.8000
G01 F1250.00
G01 X14.7618 Y29.2492
G01 X14.7598 Y29.2356
G01 X14.7564 Y29.2224
G01 X14.7518 Y29.2095
G01 X14.7460 Y29.1971
G01 X14.7389 Y29.1854
G01 X14.7308 Y29.1744
G01 X14.7216 Y29.1642
G01 X14.7114 Y29.1550
G01 X14.7004 Y29.1469
G01 X14.6887 Y29.1398
G01 X14.6763 Y29.1340
G01 X14.6634 Y29.1294
G01 X14.6502 Y29.1260
G01 X14.6366 Y29.1240
G01 X14.6229 Y29.1234
G01 X14.6093 Y29.1240
G01 X14.5957 Y29.1260
G01 X14.5824 Y29.1294
G01 X14.5696 Y29.1340
G01 X14.5572 Y29.1398
G01 X14.5454 Y29.1469
G01 X14.5344 Y29.1550
G01 X14.5243 Y29.1642
G01 X14.5151 Y29.1744
G01 X14.5069 Y29.1854
G01 X14.4999 Y29.1971
G01 X14.4941 Y29.2095
G01 X14.4894 Y29.2224
G01 X14.4861 Y29.2356
G01 X14.4841 Y29.2492
G01 X14.4834 Y29.2629
G01 X14.4841 Y29.2765
G01 X14.4861 Y29.2901
G01 X14.4894 Y29.3034
G01 X14.4941 Y29.3162
G01 X14.4999 Y29.3286
G01 X14.5069 Y29.3404
G01 X14.5151 Y29.3514
G01 X14.5243 Y29.3615
G01 X14.5344 Y29.3707
G01 X14.5454 Y29.3789
G01 X14.5572 Y29.3859
G01 X14.5696 Y29.3917
G01 X14.5824 Y29.3964
G01 X14.5957 Y29.3997
G01 X14.6093 Y29.4017
G01 X14.6229 Y29.4024
G01 X14.6366 Y29.4017
G01 X14.6502 Y29.3997
G01 X14.6634 Y29.3964
G01 X14.6763 Y29.3917
G01 X14.6887 Y29.3859
G01 X14.7004 Y29.3789
G01 X14.7114 Y29.3707
G01 X14.7216 Y29.3615
G01 X14.7308 Y29.3514
G01 X14.7389 Y29.3404
G01 X14.7460 Y29.3286
G01 X14.7518 Y29.3162
G01 X14.7564 Y29.3034
G01 X14.7598 Y29.2901
G01 X14.7618 Y29.2765
G01 X14.7624 Y29.2629
G00 X14.7624 Y29.2629
G01 F250.00
G01 Z-0.9000
G01 F1250.00
G01 X14.7618 Y29.2492
G01 X14.7598 Y29.2356
G01 X14.7564 Y29.2224
G01 X14.7518 Y29.2095
G01 X14.7460 Y29.1971
G01 X14.7389 Y29.1854
G01 X14.7308 Y29.1744
G01 X14.7216 Y29.1642
G01 X14.7114 Y29.1550
G01 X14.7004 Y29.1469
G01 X14.6887 Y29.1398
G01 X14.6763 Y29.1340
G01 X14.6634 Y29.1294
G01 X14.6502 Y29.1260
G01 X14.6366 Y29.1240
G01 X14.6229 Y29.1234
G01 X14.6093 Y29.1240
G01 X14.5957 Y29.1260
G01 X14.5824 Y29.1294
G01 X14.5696 Y29.1340
G01 X14.5572 Y29.1398
G01 X14.5454 Y29.1469
G01 X14.5344 Y29.1550
G01 X14.5243 Y29.1642
G01 X14.5151 Y29.1744
G01 X14.5069 Y29.1854
G01 X14.4999 Y29.1971
G01 X14.4941 Y29.2095
G01 X14.4894 Y29.2224
G01 X14.4861 Y29.2356
G01 X14.4841 Y29.2492
G01 X14.4834 Y29.2629
G01 X14.4841 Y29.2765
G01 X14.4861 Y29.2901
G01 X14.4894 Y29.3034
G01 X14.4941 Y29.3162
G01 X14.4999 Y29.3286
G01 X14.5069 Y29.3404
G01 X14.5151 Y29.3514
G01 X14.5243 Y29.3615
G01 X14.5344 Y29.3707
G01 X14.5454 Y29.3789
G01 X14.5572 Y29.3859
G01 X14.5696 Y29.3917
G01 X14.5824 Y29.3964
G01 X14.5957 Y29.3997
G01 X14.6093 Y29.4017
G01 X14.6229 Y29.4024
G01 X14.6366 Y29.4017
G01 X14.6502 Y29.3997
G01 X14.6634 Y29.3964
G01 X14.6763 Y29.3917
G01 X14.6887 Y29.3859
G01 X14.7004 Y29.3789
G01 X14.7114 Y29.3707
G01 X14.7216 Y29.3615
G01 X14.7308 Y29.3514
G01 X14.7389 Y29.3404
G01 X14.7460 Y29.3286
G01 X14.7518 Y29.3162
G01 X14.7564 Y29.3034
G01 X14.7598 Y29.2901
G01 X14.7618 Y29.2765
G01 X14.7624 Y29.2629
G00 X14.7624 Y29.2629
G01 F250.00
G01 Z-1.0000
G01 F1250.00
G01 X14.7618 Y29.2492
G01 X14.7598 Y29.2356
G01 X14.7564 Y29.2224
G01 X14.7518 Y29.2095
G01 X14.7460 Y29.1971
G01 X14.7389 Y29.1854
G01 X14.7308 Y29.1744
G01 X14.7216 Y29.1642
G01 X14.7114 Y29.1550
G01 X14.7004 Y29.1469
G01 X14.6887 Y29.1398
G01 X14.6763 Y29.1340
G01 X14.6634 Y29.1294
G01 X14.6502 Y29.1260
G01 X14.6366 Y29.1240
G01 X14.6229 Y29.1234
G01 X14.6093 Y29.1240
G01 X14.5957 Y29.1260
G01 X14.5824 Y29.1294
G01 X14.5696 Y29.1340
G01 X14.5572 Y29.1398
G01 X14.5454 Y29.1469
G01 X14.5344 Y29.1550
G01 X14.5243 Y29.1642
G01 X14.5151 Y29.1744
G01 X14.5069 Y29.1854
G01 X14.4999 Y29.1971
G01 X14.4941 Y29.2095
G01 X14.4894 Y29.2224
G01 X14.4861 Y29.2356
G01 X14.4841 Y29.2492
G01 X14.4834 Y29.2629
G01 X14.4841 Y29.2765
G01 X14.4861 Y29.2901
G01 X14.4894 Y29.3034
G01 X14.4941 Y29.3162
G01 X14.4999 Y29.3286
G01 X14.5069 Y29.3404
G01 X14.5151 Y29.3514
G01 X14.5243 Y29.3615
G01 X14.5344 Y29.3707
G01 X14.5454 Y29.3789
G01 X14.5572 Y29.3859
G01 X14.5696 Y29.3917
G01 X14.5824 Y29.3964
G01 X14.5957 Y29.3997
G01 X14.6093 Y29.4017
G01 X14.6229 Y29.4024
G01 X14.6366 Y29.4017
G01 X14.6502 Y29.3997
G01 X14.6634 Y29.3964
G01 X14.6763 Y29.3917
G01 X14.6887 Y29.3859
G01 X14.7004 Y29.3789
G01 X14.7114 Y29.3707
G01 X14.7216 Y29.3615
G01 X14.7308 Y29.3514
G01 X14.7389 Y29.3404
G01 X14.7460 Y29.3286
G01 X14.7518 Y29.3162
G01 X14.7564 Y29.3034
G01 X14.7598 Y29.2901
G01 X14.7618 Y29.2765
G01 X14.7624 Y29.2629
G00 X14.7624 Y29.2629
G01 F250.00
G01 Z-1.1000
G01 F1250.00
G01 X14.7618 Y29.2492
G01 X14.7598 Y29.2356
G01 X14.7564 Y29.2224
G01 X14.7518 Y29.2095
G01 X14.7460 Y29.1971
G01 X14.7389 Y29.1854
G01 X14.7308 Y29.1744
G01 X14.7216 Y29.1642
G01 X14.7114 Y29.1550
G01 X14.7004 Y29.1469
G01 X14.6887 Y29.1398
G01 X14.6763 Y29.1340
G01 X14.6634 Y29.1294
G01 X14.6502 Y29.1260
G01 X14.6366 Y29.1240
G01 X14.6229 Y29.1234
G01 X14.6093 Y29.1240
G01 X14.5957 Y29.1260
G01 X14.5824 Y29.1294
G01 X14.5696 Y29.1340
G01 X14.5572 Y29.1398
G01 X14.5454 Y29.1469
G01 X14.5344 Y29.1550
G01 X14.5243 Y29.1642
G01 X14.5151 Y29.1744
G01 X14.5069 Y29.1854
G01 X14.4999 Y29.1971
G01 X14.4941 Y29.2095
G01 X14.4894 Y29.2224
G01 X14.4861 Y29.2356
G01 X14.4841 Y29.2492
G01 X14.4834 Y29.2629
G01 X14.4841 Y29.2765
G01 X14.4861 Y29.2901
G01 X14.4894 Y29.3034
G01 X14.4941 Y29.3162
G01 X14.4999 Y29.3286
G01 X14.5069 Y29.3404
G01 X14.5151 Y29.3514
G01 X14.5243 Y29.3615
G01 X14.5344 Y29.3707
G01 X14.5454 Y29.3789
G01 X14.5572 Y29.3859
G01 X14.5696 Y29.3917
G01 X14.5824 Y29.3964
G01 X14.5957 Y29.3997
G01 X14.6093 Y29.4017
G01 X14.6229 Y29.4024
G01 X14.6366 Y29.4017
G01 X14.6502 Y29.3997
G01 X14.6634 Y29.3964
G01 X14.6763 Y29.3917
G01 X14.6887 Y29.3859
G01 X14.7004 Y29.3789
G01 X14.7114 Y29.3707
G01 X14.7216 Y29.3615
G01 X14.7308 Y29.3514
G01 X14.7389 Y29.3404
G01 X14.7460 Y29.3286
G01 X14.7518 Y29.3162
G01 X14.7564 Y29.3034
G01 X14.7598 Y29.2901
G01 X14.7618 Y29.2765
G01 X14.7624 Y29.2629
G00 X14.7624 Y29.2629
G01 F250.00
G01 Z-1.2000
G01 F1250.00
G01 X14.7618 Y29.2492
G01 X14.7598 Y29.2356
G01 X14.7564 Y29.2224
G01 X14.7518 Y29.2095
G01 X14.7460 Y29.1971
G01 X14.7389 Y29.1854
G01 X14.7308 Y29.1744
G01 X14.7216 Y29.1642
G01 X14.7114 Y29.1550
G01 X14.7004 Y29.1469
G01 X14.6887 Y29.1398
G01 X14.6763 Y29.1340
G01 X14.6634 Y29.1294
G01 X14.6502 Y29.1260
G01 X14.6366 Y29.1240
G01 X14.6229 Y29.1234
G01 X14.6093 Y29.1240
G01 X14.5957 Y29.1260
G01 X14.5824 Y29.1294
G01 X14.5696 Y29.1340
G01 X14.5572 Y29.1398
G01 X14.5454 Y29.1469
G01 X14.5344 Y29.1550
G01 X14.5243 Y29.1642
G01 X14.5151 Y29.1744
G01 X14.5069 Y29.1854
G01 X14.4999 Y29.1971
G01 X14.4941 Y29.2095
G01 X14.4894 Y29.2224
G01 X14.4861 Y29.2356
G01 X14.4841 Y29.2492
G01 X14.4834 Y29.2629
G01 X14.4841 Y29.2765
G01 X14.4861 Y29.2901
G01 X14.4894 Y29.3034
G01 X14.4941 Y29.3162
G01 X14.4999 Y29.3286
G01 X14.5069 Y29.3404
G01 X14.5151 Y29.3514
G01 X14.5243 Y29.3615
G01 X14.5344 Y29.3707
G01 X14.5454 Y29.3789
G01 X14.5572 Y29.3859
G01 X14.5696 Y29.3917
G01 X14.5824 Y29.3964
G01 X14.5957 Y29.3997
G01 X14.6093 Y29.4017
G01 X14.6229 Y29.4024
G01 X14.6366 Y29.4017
G01 X14.6502 Y29.3997
G01 X14.6634 Y29.3964
G01 X14.6763 Y29.3917
G01 X14.6887 Y29.3859
G01 X14.7004 Y29.3789
G01 X14.7114 Y29.3707
G01 X14.7216 Y29.3615
G01 X14.7308 Y29.3514
G01 X14.7389 Y29.3404
G01 X14.7460 Y29.3286
G01 X14.7518 Y29.3162
G01 X14.7564 Y29.3034
G01 X14.7598 Y29.2901
G01 X14.7618 Y29.2765
G01 X14.7624 Y29.2629
G00 X14.7624 Y29.2629
G01 F250.00
G01 Z-1.3000
G01 F1250.00
G01 X14.7618 Y29.2492
G01 X14.7598 Y29.2356
G01 X14.7564 Y29.2224
G01 X14.7518 Y29.2095
G01 X14.7460 Y29.1971
G01 X14.7389 Y29.1854
G01 X14.7308 Y29.1744
G01 X14.7216 Y29.1642
G01 X14.7114 Y29.1550
G01 X14.7004 Y29.1469
G01 X14.6887 Y29.1398
G01 X14.6763 Y29.1340
G01 X14.6634 Y29.1294
G01 X14.6502 Y29.1260
G01 X14.6366 Y29.1240
G01 X14.6229 Y29.1234
G01 X14.6093 Y29.1240
G01 X14.5957 Y29.1260
G01 X14.5824 Y29.1294
G01 X14.5696 Y29.1340
G01 X14.5572 Y29.1398
G01 X14.5454 Y29.1469
G01 X14.5344 Y29.1550
G01 X14.5243 Y29.1642
G01 X14.5151 Y29.1744
G01 X14.5069 Y29.1854
G01 X14.4999 Y29.1971
G01 X14.4941 Y29.2095
G01 X14.4894 Y29.2224
G01 X14.4861 Y29.2356
G01 X14.4841 Y29.2492
G01 X14.4834 Y29.2629
G01 X14.4841 Y29.2765
G01 X14.4861 Y29.2901
G01 X14.4894 Y29.3034
G01 X14.4941 Y29.3162
G01 X14.4999 Y29.3286
G01 X14.5069 Y29.3404
G01 X14.5151 Y29.3514
G01 X14.5243 Y29.3615
G01 X14.5344 Y29.3707
G01 X14.5454 Y29.3789
G01 X14.5572 Y29.3859
G01 X14.5696 Y29.3917
G01 X14.5824 Y29.3964
G01 X14.5957 Y29.3997
G01 X14.6093 Y29.4017
G01 X14.6229 Y29.4024
G01 X14.6366 Y29.4017
G01 X14.6502 Y29.3997
G01 X14.6634 Y29.3964
G01 X14.6763 Y29.3917
G01 X14.6887 Y29.3859
G01 X14.7004 Y29.3789
G01 X14.7114 Y29.3707
G01 X14.7216 Y29.3615
G01 X14.7308 Y29.3514
G01 X14.7389 Y29.3404
G01 X14.7460 Y29.3286
G01 X14.7518 Y29.3162
G01 X14.7564 Y29.3034
G01 X14.7598 Y29.2901
G01 X14.7618 Y29.2765
G01 X14.7624 Y29.2629
G00 X14.7624 Y29.2629
G01 F250.00
G01 Z-1.4000
G01 F1250.00
G01 X14.7618 Y29.2492
G01 X14.7598 Y29.2356
G01 X14.7564 Y29.2224
G01 X14.7518 Y29.2095
G01 X14.7460 Y29.1971
G01 X14.7389 Y29.1854
G01 X14.7308 Y29.1744
G01 X14.7216 Y29.1642
G01 X14.7114 Y29.1550
G01 X14.7004 Y29.1469
G01 X14.6887 Y29.1398
G01 X14.6763 Y29.1340
G01 X14.6634 Y29.1294
G01 X14.6502 Y29.1260
G01 X14.6366 Y29.1240
G01 X14.6229 Y29.1234
G01 X14.6093 Y29.1240
G01 X14.5957 Y29.1260
G01 X14.5824 Y29.1294
G01 X14.5696 Y29.1340
G01 X14.5572 Y29.1398
G01 X14.5454 Y29.1469
G01 X14.5344 Y29.1550
G01 X14.5243 Y29.1642
G01 X14.5151 Y29.1744
G01 X14.5069 Y29.1854
G01 X14.4999 Y29.1971
G01 X14.4941 Y29.2095
G01 X14.4894 Y29.2224
G01 X14.4861 Y29.2356
G01 X14.4841 Y29.2492
G01 X14.4834 Y29.2629
G01 X14.4841 Y29.2765
G01 X14.4861 Y29.2901
G01 X14.4894 Y29.3034
G01 X14.4941 Y29.3162
G01 X14.4999 Y29.3286
G01 X14.5069 Y29.3404
G01 X14.5151 Y29.3514
G01 X14.5243 Y29.3615
G01 X14.5344 Y29.3707
G01 X14.5454 Y29.3789
G01 X14.5572 Y29.3859
G01 X14.5696 Y29.3917
G01 X14.5824 Y29.3964
G01 X14.5957 Y29.3997
G01 X14.6093 Y29.4017
G01 X14.6229 Y29.4024
G01 X14.6366 Y29.4017
G01 X14.6502 Y29.3997
G01 X14.6634 Y29.3964
G01 X14.6763 Y29.3917
G01 X14.6887 Y29.3859
G01 X14.7004 Y29.3789
G01 X14.7114 Y29.3707
G01 X14.7216 Y29.3615
G01 X14.7308 Y29.3514
G01 X14.7389 Y29.3404
G01 X14.7460 Y29.3286
G01 X14.7518 Y29.3162
G01 X14.7564 Y29.3034
G01 X14.7598 Y29.2901
G01 X14.7618 Y29.2765
G01 X14.7624 Y29.2629
G00 X14.7624 Y29.2629
G01 F250.00
G01 Z-1.5000
G01 F1250.00
G01 X14.7618 Y29.2492
G01 X14.7598 Y29.2356
G01 X14.7564 Y29.2224
G01 X14.7518 Y29.2095
G01 X14.7460 Y29.1971
G01 X14.7389 Y29.1854
G01 X14.7308 Y29.1744
G01 X14.7216 Y29.1642
G01 X14.7114 Y29.1550
G01 X14.7004 Y29.1469
G01 X14.6887 Y29.1398
G01 X14.6763 Y29.1340
G01 X14.6634 Y29.1294
G01 X14.6502 Y29.1260
G01 X14.6366 Y29.1240
G01 X14.6229 Y29.1234
G01 X14.6093 Y29.1240
G01 X14.5957 Y29.1260
G01 X14.5824 Y29.1294
G01 X14.5696 Y29.1340
G01 X14.5572 Y29.1398
G01 X14.5454 Y29.1469
G01 X14.5344 Y29.1550
G01 X14.5243 Y29.1642
G01 X14.5151 Y29.1744
G01 X14.5069 Y29.1854
G01 X14.4999 Y29.1971
G01 X14.4941 Y29.2095
G01 X14.4894 Y29.2224
G01 X14.4861 Y29.2356
G01 X14.4841 Y29.2492
G01 X14.4834 Y29.2629
G01 X14.4841 Y29.2765
G01 X14.4861 Y29.2901
G01 X14.4894 Y29.3034
G01 X14.4941 Y29.3162
G01 X14.4999 Y29.3286
G01 X14.5069 Y29.3404
G01 X14.5151 Y29.3514
G01 X14.5243 Y29.3615
G01 X14.5344 Y29.3707
G01 X14.5454 Y29.3789
G01 X14.5572 Y29.3859
G01 X14.5696 Y29.3917
G01 X14.5824 Y29.3964
G01 X14.5957 Y29.3997
G01 X14.6093 Y29.4017
G01 X14.6229 Y29.4024
G01 X14.6366 Y29.4017
G01 X14.6502 Y29.3997
G01 X14.6634 Y29.3964
G01 X14.6763 Y29.3917
G01 X14.6887 Y29.3859
G01 X14.7004 Y29.3789
G01 X14.7114 Y29.3707
G01 X14.7216 Y29.3615
G01 X14.7308 Y29.3514
G01 X14.7389 Y29.3404
G01 X14.7460 Y29.3286
G01 X14.7518 Y29.3162
G01 X14.7564 Y29.3034
G01 X14.7598 Y29.2901
G01 X14.7618 Y29.2765
G01 X14.7624 Y29.2629
G00 X14.7624 Y29.2629
G01 F250.00
G01 Z-1.6000
G01 F1250.00
G01 X14.7618 Y29.2492
G01 X14.7598 Y29.2356
G01 X14.7564 Y29.2224
G01 X14.7518 Y29.2095
G01 X14.7460 Y29.1971
G01 X14.7389 Y29.1854
G01 X14.7308 Y29.1744
G01 X14.7216 Y29.1642
G01 X14.7114 Y29.1550
G01 X14.7004 Y29.1469
G01 X14.6887 Y29.1398
G01 X14.6763 Y29.1340
G01 X14.6634 Y29.1294
G01 X14.6502 Y29.1260
G01 X14.6366 Y29.1240
G01 X14.6229 Y29.1234
G01 X14.6093 Y29.1240
G01 X14.5957 Y29.1260
G01 X14.5824 Y29.1294
G01 X14.5696 Y29.1340
G01 X14.5572 Y29.1398
G01 X14.5454 Y29.1469
G01 X14.5344 Y29.1550
G01 X14.5243 Y29.1642
G01 X14.5151 Y29.1744
G01 X14.5069 Y29.1854
G01 X14.4999 Y29.1971
G01 X14.4941 Y29.2095
G01 X14.4894 Y29.2224
G01 X14.4861 Y29.2356
G01 X14.4841 Y29.2492
G01 X14.4834 Y29.2629
G01 X14.4841 Y29.2765
G01 X14.4861 Y29.2901
G01 X14.4894 Y29.3034
G01 X14.4941 Y29.3162
G01 X14.4999 Y29.3286
G01 X14.5069 Y29.3404
G01 X14.5151 Y29.3514
G01 X14.5243 Y29.3615
G01 X14.5344 Y29.3707
G01 X14.5454 Y29.3789
G01 X14.5572 Y29.3859
G01 X14.5696 Y29.3917
G01 X14.5824 Y29.3964
G01 X14.5957 Y29.3997
G01 X14.6093 Y29.4017
G01 X14.6229 Y29.4024
G01 X14.6366 Y29.4017
G01 X14.6502 Y29.3997
G01 X14.6634 Y29.3964
G01 X14.6763 Y29.3917
G01 X14.6887 Y29.3859
G01 X14.7004 Y29.3789
G01 X14.7114 Y29.3707
G01 X14.7216 Y29.3615
G01 X14.7308 Y29.3514
G01 X14.7389 Y29.3404
G01 X14.7460 Y29.3286
G01 X14.7518 Y29.3162
G01 X14.7564 Y29.3034
G01 X14.7598 Y29.2901
G01 X14.7618 Y29.2765
G01 X14.7624 Y29.2629
G00 X14.7624 Y29.2629
G01 F250.00
G01 Z-1.7000
G01 F1250.00
G01 X14.7618 Y29.2492
G01 X14.7598 Y29.2356
G01 X14.7564 Y29.2224
G01 X14.7518 Y29.2095
G01 X14.7460 Y29.1971
G01 X14.7389 Y29.1854
G01 X14.7308 Y29.1744
G01 X14.7216 Y29.1642
G01 X14.7114 Y29.1550
G01 X14.7004 Y29.1469
G01 X14.6887 Y29.1398
G01 X14.6763 Y29.1340
G01 X14.6634 Y29.1294
G01 X14.6502 Y29.1260
G01 X14.6366 Y29.1240
G01 X14.6229 Y29.1234
G01 X14.6093 Y29.1240
G01 X14.5957 Y29.1260
G01 X14.5824 Y29.1294
G01 X14.5696 Y29.1340
G01 X14.5572 Y29.1398
G01 X14.5454 Y29.1469
G01 X14.5344 Y29.1550
G01 X14.5243 Y29.1642
G01 X14.5151 Y29.1744
G01 X14.5069 Y29.1854
G01 X14.4999 Y29.1971
G01 X14.4941 Y29.2095
G01 X14.4894 Y29.2224
G01 X14.4861 Y29.2356
G01 X14.4841 Y29.2492
G01 X14.4834 Y29.2629
G01 X14.4841 Y29.2765
G01 X14.4861 Y29.2901
G01 X14.4894 Y29.3034
G01 X14.4941 Y29.3162
G01 X14.4999 Y29.3286
G01 X14.5069 Y29.3404
G01 X14.5151 Y29.3514
G01 X14.5243 Y29.3615
G01 X14.5344 Y29.3707
G01 X14.5454 Y29.3789
G01 X14.5572 Y29.3859
G01 X14.5696 Y29.3917
G01 X14.5824 Y29.3964
G01 X14.5957 Y29.3997
G01 X14.6093 Y29.4017
G01 X14.6229 Y29.4024
G01 X14.6366 Y29.4017
G01 X14.6502 Y29.3997
G01 X14.6634 Y29.3964
G01 X14.6763 Y29.3917
G01 X14.6887 Y29.3859
G01 X14.7004 Y29.3789
G01 X14.7114 Y29.3707
G01 X14.7216 Y29.3615
G01 X14.7308 Y29.3514
G01 X14.7389 Y29.3404
G01 X14.7460 Y29.3286
G01 X14.7518 Y29.3162
G01 X14.7564 Y29.3034
G01 X14.7598 Y29.2901
G01 X14.7618 Y29.2765
G01 X14.7624 Y29.2629
G00 Z0.5000
G00 X86.8624 Y29.3629
G01 F250.00
G01 Z-0.1000
G01 F1250.00
G01 X86.8618 Y29.3492
G01 X86.8598 Y29.3356
G01 X86.8564 Y29.3224
G01 X86.8518 Y29.3095
G01 X86.8460 Y29.2971
G01 X86.8389 Y29.2854
G01 X86.8308 Y29.2744
G01 X86.8216 Y29.2642
G01 X86.8114 Y29.2550
G01 X86.8004 Y29.2469
G01 X86.7887 Y29.2398
G01 X86.7763 Y29.2340
G01 X86.7634 Y29.2294
G01 X86.7502 Y29.2260
G01 X86.7366 Y29.2240
G01 X86.7229 Y29.2234
G01 X86.7093 Y29.2240
G01 X86.6957 Y29.2260
G01 X86.6824 Y29.2294
G01 X86.6696 Y29.2340
G01 X86.6572 Y29.2398
G01 X86.6454 Y29.2469
G01 X86.6344 Y29.2550
G01 X86.6243 Y29.2642
G01 X86.6151 Y29.2744
G01 X86.6069 Y29.2854
G01 X86.5999 Y29.2971
G01 X86.5941 Y29.3095
G01 X86.5894 Y29.3224
G01 X86.5861 Y29.3356
G01 X86.5841 Y29.3492
G01 X86.5834 Y29.3629
G01 X86.5841 Y29.3765
G01 X86.5861 Y29.3901
G01 X86.5894 Y29.4034
G01 X86.5941 Y29.4162
G01 X86.5999 Y29.4286
G01 X86.6069 Y29.4404
G01 X86.6151 Y29.4514
G01 X86.6243 Y29.4615
G01 X86.6344 Y29.4707
G01 X86.6454 Y29.4789
G01 X86.6572 Y29.4859
G01 X86.6696 Y29.4917
G01 X86.6824 Y29.4964
G01 X86.6957 Y29.4997
G01 X86.7093 Y29.5017
G01 X86.7229 Y29.5024
G01 X86.7366 Y29.5017
G01 X86.7502 Y29.4997
G01 X86.7634 Y29.4964
G01 X86.7763 Y29.4917
G01 X86.7887 Y29.4859
G01 X86.8004 Y29.4789
G01 X86.8114 Y29.4707
G01 X86.8216 Y29.4615
G01 X86.8308 Y29.4514
G01 X86.8389 Y29.4404
G01 X86.8460 Y29.4286
G01 X86.8518 Y29.4162
G01 X86.8564 Y29.4034
G01 X86.8598 Y29.3901
G01 X86.8618 Y29.3765
G01 X86.8624 Y29.3629
G00 X86.8624 Y29.3629
G01 F250.00
G01 Z-0.2000
G01 F1250.00
G01 X86.8618 Y29.3492
G01 X86.8598 Y29.3356
G01 X86.8564 Y29.3224
G01 X86.8518 Y29.3095
G01 X86.8460 Y29.2971
G01 X86.8389 Y29.2854
G01 X86.8308 Y29.2744
G01 X86.8216 Y29.2642
G01 X86.8114 Y29.2550
G01 X86.8004 Y29.2469
G01 X86.7887 Y29.2398
G01 X86.7763 Y29.2340
G01 X86.7634 Y29.2294
G01 X86.7502 Y29.2260
G01 X86.7366 Y29.2240
G01 X86.7229 Y29.2234
G01 X86.7093 Y29.2240
G01 X86.6957 Y29.2260
G01 X86.6824 Y29.2294
G01 X86.6696 Y29.2340
G01 X86.6572 Y29.2398
G01 X86.6454 Y29.2469
G01 X86.6344 Y29.2550
G01 X86.6243 Y29.2642
G01 X86.6151 Y29.2744
G01 X86.6069 Y29.2854
G01 X86.5999 Y29.2971
G01 X86.5941 Y29.3095
G01 X86.5894 Y29.3224
G01 X86.5861 Y29.3356
G01 X86.5841 Y29.3492
G01 X86.5834 Y29.3629
G01 X86.5841 Y29.3765
G01 X86.5861 Y29.3901
G01 X86.5894 Y29.4034
G01 X86.5941 Y29.4162
G01 X86.5999 Y29.4286
G01 X86.6069 Y29.4404
G01 X86.6151 Y29.4514
G01 X86.6243 Y29.4615
G01 X86.6344 Y29.4707
G01 X86.6454 Y29.4789
G01 X86.6572 Y29.4859
G01 X86.6696 Y29.4917
G01 X86.6824 Y29.4964
G01 X86.6957 Y29.4997
G01 X86.7093 Y29.5017
G01 X86.7229 Y29.5024
G01 X86.7366 Y29.5017
G01 X86.7502 Y29.4997
G01 X86.7634 Y29.4964
G01 X86.7763 Y29.4917
G01 X86.7887 Y29.4859
G01 X86.8004 Y29.4789
G01 X86.8114 Y29.4707
G01 X86.8216 Y29.4615
G01 X86.8308 Y29.4514
G01 X86.8389 Y29.4404
G01 X86.8460 Y29.4286
G01 X86.8518 Y29.4162
G01 X86.8564 Y29.4034
G01 X86.8598 Y29.3901
G01 X86.8618 Y29.3765
G01 X86.8624 Y29.3629
G00 X86.8624 Y29.3629
G01 F250.00
G01 Z-0.3000
G01 F1250.00
G01 X86.8618 Y29.3492
G01 X86.8598 Y29.3356
G01 X86.8564 Y29.3224
G01 X86.8518 Y29.3095
G01 X86.8460 Y29.2971
G01 X86.8389 Y29.2854
G01 X86.8308 Y29.2744
G01 X86.8216 Y29.2642
G01 X86.8114 Y29.2550
G01 X86.8004 Y29.2469
G01 X86.7887 Y29.2398
G01 X86.7763 Y29.2340
G01 X86.7634 Y29.2294
G01 X86.7502 Y29.2260
G01 X86.7366 Y29.2240
G01 X86.7229 Y29.2234
G01 X86.7093 Y29.2240
G01 X86.6957 Y29.2260
G01 X86.6824 Y29.2294
G01 X86.6696 Y29.2340
G01 X86.6572 Y29.2398
G01 X86.6454 Y29.2469
G01 X86.6344 Y29.2550
G01 X86.6243 Y29.2642
G01 X86.6151 Y29.2744
G01 X86.6069 Y29.2854
G01 X86.5999 Y29.2971
G01 X86.5941 Y29.3095
G01 X86.5894 Y29.3224
G01 X86.5861 Y29.3356
G01 X86.5841 Y29.3492
G01 X86.5834 Y29.3629
G01 X86.5841 Y29.3765
G01 X86.5861 Y29.3901
G01 X86.5894 Y29.4034
G01 X86.5941 Y29.4162
G01 X86.5999 Y29.4286
G01 X86.6069 Y29.4404
G01 X86.6151 Y29.4514
G01 X86.6243 Y29.4615
G01 X86.6344 Y29.4707
G01 X86.6454 Y29.4789
G01 X86.6572 Y29.4859
G01 X86.6696 Y29.4917
G01 X86.6824 Y29.4964
G01 X86.6957 Y29.4997
G01 X86.7093 Y29.5017
G01 X86.7229 Y29.5024
G01 X86.7366 Y29.5017
G01 X86.7502 Y29.4997
G01 X86.7634 Y29.4964
G01 X86.7763 Y29.4917
G01 X86.7887 Y29.4859
G01 X86.8004 Y29.4789
G01 X86.8114 Y29.4707
G01 X86.8216 Y29.4615
G01 X86.8308 Y29.4514
G01 X86.8389 Y29.4404
G01 X86.8460 Y29.4286
G01 X86.8518 Y29.4162
G01 X86.8564 Y29.4034
G01 X86.8598 Y29.3901
G01 X86.8618 Y29.3765
G01 X86.8624 Y29.3629
G00 X86.8624 Y29.3629
G01 F250.00
G01 Z-0.4000
G01 F1250.00
G01 X86.8618 Y29.3492
G01 X86.8598 Y29.3356
G01 X86.8564 Y29.3224
G01 X86.8518 Y29.3095
G01 X86.8460 Y29.2971
G01 X86.8389 Y29.2854
G01 X86.8308 Y29.2744
G01 X86.8216 Y29.2642
G01 X86.8114 Y29.2550
G01 X86.8004 Y29.2469
G01 X86.7887 Y29.2398
G01 X86.7763 Y29.2340
G01 X86.7634 Y29.2294
G01 X86.7502 Y29.2260
G01 X86.7366 Y29.2240
G01 X86.7229 Y29.2234
G01 X86.7093 Y29.2240
G01 X86.6957 Y29.2260
G01 X86.6824 Y29.2294
G01 X86.6696 Y29.2340
G01 X86.6572 Y29.2398
G01 X86.6454 Y29.2469
G01 X86.6344 Y29.2550
G01 X86.6243 Y29.2642
G01 X86.6151 Y29.2744
G01 X86.6069 Y29.2854
G01 X86.5999 Y29.2971
G01 X86.5941 Y29.3095
G01 X86.5894 Y29.3224
G01 X86.5861 Y29.3356
G01 X86.5841 Y29.3492
G01 X86.5834 Y29.3629
G01 X86.5841 Y29.3765
G01 X86.5861 Y29.3901
G01 X86.5894 Y29.4034
G01 X86.5941 Y29.4162
G01 X86.5999 Y29.4286
G01 X86.6069 Y29.4404
G01 X86.6151 Y29.4514
G01 X86.6243 Y29.4615
G01 X86.6344 Y29.4707
G01 X86.6454 Y29.4789
G01 X86.6572 Y29.4859
G01 X86.6696 Y29.4917
G01 X86.6824 Y29.4964
G01 X86.6957 Y29.4997
G01 X86.7093 Y29.5017
G01 X86.7229 Y29.5024
G01 X86.7366 Y29.5017
G01 X86.7502 Y29.4997
G01 X86.7634 Y29.4964
G01 X86.7763 Y29.4917
G01 X86.7887 Y29.4859
G01 X86.8004 Y29.4789
G01 X86.8114 Y29.4707
G01 X86.8216 Y29.4615
G01 X86.8308 Y29.4514
G01 X86.8389 Y29.4404
G01 X86.8460 Y29.4286
G01 X86.8518 Y29.4162
G01 X86.8564 Y29.4034
G01 X86.8598 Y29.3901
G01 X86.8618 Y29.3765
G01 X86.8624 Y29.3629
G00 X86.8624 Y29.3629
G01 F250.00
G01 Z-0.5000
G01 F1250.00
G01 X86.8618 Y29.3492
G01 X86.8598 Y29.3356
G01 X86.8564 Y29.3224
G01 X86.8518 Y29.3095
G01 X86.8460 Y29.2971
G01 X86.8389 Y29.2854
G01 X86.8308 Y29.2744
G01 X86.8216 Y29.2642
G01 X86.8114 Y29.2550
G01 X86.8004 Y29.2469
G01 X86.7887 Y29.2398
G01 X86.7763 Y29.2340
G01 X86.7634 Y29.2294
G01 X86.7502 Y29.2260
G01 X86.7366 Y29.2240
G01 X86.7229 Y29.2234
G01 X86.7093 Y29.2240
G01 X86.6957 Y29.2260
G01 X86.6824 Y29.2294
G01 X86.6696 Y29.2340
G01 X86.6572 Y29.2398
G01 X86.6454 Y29.2469
G01 X86.6344 Y29.2550
G01 X86.6243 Y29.2642
G01 X86.6151 Y29.2744
G01 X86.6069 Y29.2854
G01 X86.5999 Y29.2971
G01 X86.5941 Y29.3095
G01 X86.5894 Y29.3224
G01 X86.5861 Y29.3356
G01 X86.5841 Y29.3492
G01 X86.5834 Y29.3629
G01 X86.5841 Y29.3765
G01 X86.5861 Y29.3901
G01 X86.5894 Y29.4034
G01 X86.5941 Y29.4162
G01 X86.5999 Y29.4286
G01 X86.6069 Y29.4404
G01 X86.6151 Y29.4514
G01 X86.6243 Y29.4615
G01 X86.6344 Y29.4707
G01 X86.6454 Y29.4789
G01 X86.6572 Y29.4859
G01 X86.6696 Y29.4917
G01 X86.6824 Y29.4964
G01 X86.6957 Y29.4997
G01 X86.7093 Y29.5017
G01 X86.7229 Y29.5024
G01 X86.7366 Y29.5017
G01 X86.7502 Y29.4997
G01 X86.7634 Y29.4964
G01 X86.7763 Y29.4917
G01 X86.7887 Y29.4859
G01 X86.8004 Y29.4789
G01 X86.8114 Y29.4707
G01 X86.8216 Y29.4615
G01 X86.8308 Y29.4514
G01 X86.8389 Y29.4404
G01 X86.8460 Y29.4286
G01 X86.8518 Y29.4162
G01 X86.8564 Y29.4034
G01 X86.8598 Y29.3901
G01 X86.8618 Y29.3765
G01 X86.8624 Y29.3629
G00 X86.8624 Y29.3629
G01 F250.00
G01 Z-0.6000
G01 F1250.00
G01 X86.8618 Y29.3492
G01 X86.8598 Y29.3356
G01 X86.8564 Y29.3224
G01 X86.8518 Y29.3095
G01 X86.8460 Y29.2971
G01 X86.8389 Y29.2854
G01 X86.8308 Y29.2744
G01 X86.8216 Y29.2642
G01 X86.8114 Y29.2550
G01 X86.8004 Y29.2469
G01 X86.7887 Y29.2398
G01 X86.7763 Y29.2340
G01 X86.7634 Y29.2294
G01 X86.7502 Y29.2260
G01 X86.7366 Y29.2240
G01 X86.7229 Y29.2234
G01 X86.7093 Y29.2240
G01 X86.6957 Y29.2260
G01 X86.6824 Y29.2294
G01 X86.6696 Y29.2340
G01 X86.6572 Y29.2398
G01 X86.6454 Y29.2469
G01 X86.6344 Y29.2550
G01 X86.6243 Y29.2642
G01 X86.6151 Y29.2744
G01 X86.6069 Y29.2854
G01 X86.5999 Y29.2971
G01 X86.5941 Y29.3095
G01 X86.5894 Y29.3224
G01 X86.5861 Y29.3356
G01 X86.5841 Y29.3492
G01 X86.5834 Y29.3629
G01 X86.5841 Y29.3765
G01 X86.5861 Y29.3901
G01 X86.5894 Y29.4034
G01 X86.5941 Y29.4162
G01 X86.5999 Y29.4286
G01 X86.6069 Y29.4404
G01 X86.6151 Y29.4514
G01 X86.6243 Y29.4615
G01 X86.6344 Y29.4707
G01 X86.6454 Y29.4789
G01 X86.6572 Y29.4859
G01 X86.6696 Y29.4917
G01 X86.6824 Y29.4964
G01 X86.6957 Y29.4997
G01 X86.7093 Y29.5017
G01 X86.7229 Y29.5024
G01 X86.7366 Y29.5017
G01 X86.7502 Y29.4997
G01 X86.7634 Y29.4964
G01 X86.7763 Y29.4917
G01 X86.7887 Y29.4859
G01 X86.8004 Y29.4789
G01 X86.8114 Y29.4707
G01 X86.8216 Y29.4615
G01 X86.8308 Y29.4514
G01 X86.8389 Y29.4404
G01 X86.8460 Y29.4286
G01 X86.8518 Y29.4162
G01 X86.8564 Y29.4034
G01 X86.8598 Y29.3901
G01 X86.8618 Y29.3765
G01 X86.8624 Y29.3629
G00 X86.8624 Y29.3629
G01 F250.00
G01 Z-0.7000
G01 F1250.00
G01 X86.8618 Y29.3492
G01 X86.8598 Y29.3356
G01 X86.8564 Y29.3224
G01 X86.8518 Y29.3095
G01 X86.8460 Y29.2971
G01 X86.8389 Y29.2854
G01 X86.8308 Y29.2744
G01 X86.8216 Y29.2642
G01 X86.8114 Y29.2550
G01 X86.8004 Y29.2469
G01 X86.7887 Y29.2398
G01 X86.7763 Y29.2340
G01 X86.7634 Y29.2294
G01 X86.7502 Y29.2260
G01 X86.7366 Y29.2240
G01 X86.7229 Y29.2234
G01 X86.7093 Y29.2240
G01 X86.6957 Y29.2260
G01 X86.6824 Y29.2294
G01 X86.6696 Y29.2340
G01 X86.6572 Y29.2398
G01 X86.6454 Y29.2469
G01 X86.6344 Y29.2550
G01 X86.6243 Y29.2642
G01 X86.6151 Y29.2744
G01 X86.6069 Y29.2854
G01 X86.5999 Y29.2971
G01 X86.5941 Y29.3095
G01 X86.5894 Y29.3224
G01 X86.5861 Y29.3356
G01 X86.5841 Y29.3492
G01 X86.5834 Y29.3629
G01 X86.5841 Y29.3765
G01 X86.5861 Y29.3901
G01 X86.5894 Y29.4034
G01 X86.5941 Y29.4162
G01 X86.5999 Y29.4286
G01 X86.6069 Y29.4404
G01 X86.6151 Y29.4514
G01 X86.6243 Y29.4615
G01 X86.6344 Y29.4707
G01 X86.6454 Y29.4789
G01 X86.6572 Y29.4859
G01 X86.6696 Y29.4917
G01 X86.6824 Y29.4964
G01 X86.6957 Y29.4997
G01 X86.7093 Y29.5017
G01 X86.7229 Y29.5024
G01 X86.7366 Y29.5017
G01 X86.7502 Y29.4997
G01 X86.7634 Y29.4964
G01 X86.7763 Y29.4917
G01 X86.7887 Y29.4859
G01 X86.8004 Y29.4789
G01 X86.8114 Y29.4707
G01 X86.8216 Y29.4615
G01 X86.8308 Y29.4514
G01 X86.8389 Y29.4404
G01 X86.8460 Y29.4286
G01 X86.8518 Y29.4162
G01 X86.8564 Y29.4034
G01 X86.8598 Y29.3901
G01 X86.8618 Y29.3765
G01 X86.8624 Y29.3629
G00 X86.8624 Y29.3629
G01 F250.00
G01 Z-0.8000
G01 F1250.00
G01 X86.8618 Y29.3492
G01 X86.8598 Y29.3356
G01 X86.8564 Y29.3224
G01 X86.8518 Y29.3095
G01 X86.8460 Y29.2971
G01 X86.8389 Y29.2854
G01 X86.8308 Y29.2744
G01 X86.8216 Y29.2642
G01 X86.8114 Y29.2550
G01 X86.8004 Y29.2469
G01 X86.7887 Y29.2398
G01 X86.7763 Y29.2340
G01 X86.7634 Y29.2294
G01 X86.7502 Y29.2260
G01 X86.7366 Y29.2240
G01 X86.7229 Y29.2234
G01 X86.7093 Y29.2240
G01 X86.6957 Y29.2260
G01 X86.6824 Y29.2294
G01 X86.6696 Y29.2340
G01 X86.6572 Y29.2398
G01 X86.6454 Y29.2469
G01 X86.6344 Y29.2550
G01 X86.6243 Y29.2642
G01 X86.6151 Y29.2744
G01 X86.6069 Y29.2854
G01 X86.5999 Y29.2971
G01 X86.5941 Y29.3095
G01 X86.5894 Y29.3224
G01 X86.5861 Y29.3356
G01 X86.5841 Y29.3492
G01 X86.5834 Y29.3629
G01 X86.5841 Y29.3765
G01 X86.5861 Y29.3901
G01 X86.5894 Y29.4034
G01 X86.5941 Y29.4162
G01 X86.5999 Y29.4286
G01 X86.6069 Y29.4404
G01 X86.6151 Y29.4514
G01 X86.6243 Y29.4615
G01 X86.6344 Y29.4707
G01 X86.6454 Y29.4789
G01 X86.6572 Y29.4859
G01 X86.6696 Y29.4917
G01 X86.6824 Y29.4964
G01 X86.6957 Y29.4997
G01 X86.7093 Y29.5017
G01 X86.7229 Y29.5024
G01 X86.7366 Y29.5017
G01 X86.7502 Y29.4997
G01 X86.7634 Y29.4964
G01 X86.7763 Y29.4917
G01 X86.7887 Y29.4859
G01 X86.8004 Y29.4789
G01 X86.8114 Y29.4707
G01 X86.8216 Y29.4615
G01 X86.8308 Y29.4514
G01 X86.8389 Y29.4404
G01 X86.8460 Y29.4286
G01 X86.8518 Y29.4162
G01 X86.8564 Y29.4034
G01 X86.8598 Y29.3901
G01 X86.8618 Y29.3765
G01 X86.8624 Y29.3629
G00 X86.8624 Y29.3629
G01 F250.00
G01 Z-0.9000
G01 F1250.00
G01 X86.8618 Y29.3492
G01 X86.8598 Y29.3356
G01 X86.8564 Y29.3224
G01 X86.8518 Y29.3095
G01 X86.8460 Y29.2971
G01 X86.8389 Y29.2854
G01 X86.8308 Y29.2744
G01 X86.8216 Y29.2642
G01 X86.8114 Y29.2550
G01 X86.8004 Y29.2469
G01 X86.7887 Y29.2398
G01 X86.7763 Y29.2340
G01 X86.7634 Y29.2294
G01 X86.7502 Y29.2260
G01 X86.7366 Y29.2240
G01 X86.7229 Y29.2234
G01 X86.7093 Y29.2240
G01 X86.6957 Y29.2260
G01 X86.6824 Y29.2294
G01 X86.6696 Y29.2340
G01 X86.6572 Y29.2398
G01 X86.6454 Y29.2469
G01 X86.6344 Y29.2550
G01 X86.6243 Y29.2642
G01 X86.6151 Y29.2744
G01 X86.6069 Y29.2854
G01 X86.5999 Y29.2971
G01 X86.5941 Y29.3095
G01 X86.5894 Y29.3224
G01 X86.5861 Y29.3356
G01 X86.5841 Y29.3492
G01 X86.5834 Y29.3629
G01 X86.5841 Y29.3765
G01 X86.5861 Y29.3901
G01 X86.5894 Y29.4034
G01 X86.5941 Y29.4162
G01 X86.5999 Y29.4286
G01 X86.6069 Y29.4404
G01 X86.6151 Y29.4514
G01 X86.6243 Y29.4615
G01 X86.6344 Y29.4707
G01 X86.6454 Y29.4789
G01 X86.6572 Y29.4859
G01 X86.6696 Y29.4917
G01 X86.6824 Y29.4964
G01 X86.6957 Y29.4997
G01 X86.7093 Y29.5017
G01 X86.7229 Y29.5024
G01 X86.7366 Y29.5017
G01 X86.7502 Y29.4997
G01 X86.7634 Y29.4964
G01 X86.7763 Y29.4917
G01 X86.7887 Y29.4859
G01 X86.8004 Y29.4789
G01 X86.8114 Y29.4707
G01 X86.8216 Y29.4615
G01 X86.8308 Y29.4514
G01 X86.8389 Y29.4404
G01 X86.8460 Y29.4286
G01 X86.8518 Y29.4162
G01 X86.8564 Y29.4034
G01 X86.8598 Y29.3901
G01 X86.8618 Y29.3765
G01 X86.8624 Y29.3629
G00 X86.8624 Y29.3629
G01 F250.00
G01 Z-1.0000
G01 F1250.00
G01 X86.8618 Y29.3492
G01 X86.8598 Y29.3356
G01 X86.8564 Y29.3224
G01 X86.8518 Y29.3095
G01 X86.8460 Y29.2971
G01 X86.8389 Y29.2854
G01 X86.8308 Y29.2744
G01 X86.8216 Y29.2642
G01 X86.8114 Y29.2550
G01 X86.8004 Y29.2469
G01 X86.7887 Y29.2398
G01 X86.7763 Y29.2340
G01 X86.7634 Y29.2294
G01 X86.7502 Y29.2260
G01 X86.7366 Y29.2240
G01 X86.7229 Y29.2234
G01 X86.7093 Y29.2240
G01 X86.6957 Y29.2260
G01 X86.6824 Y29.2294
G01 X86.6696 Y29.2340
G01 X86.6572 Y29.2398
G01 X86.6454 Y29.2469
G01 X86.6344 Y29.2550
G01 X86.6243 Y29.2642
G01 X86.6151 Y29.2744
G01 X86.6069 Y29.2854
G01 X86.5999 Y29.2971
G01 X86.5941 Y29.3095
G01 X86.5894 Y29.3224
G01 X86.5861 Y29.3356
G01 X86.5841 Y29.3492
G01 X86.5834 Y29.3629
G01 X86.5841 Y29.3765
G01 X86.5861 Y29.3901
G01 X86.5894 Y29.4034
G01 X86.5941 Y29.4162
G01 X86.5999 Y29.4286
G01 X86.6069 Y29.4404
G01 X86.6151 Y29.4514
G01 X86.6243 Y29.4615
G01 X86.6344 Y29.4707
G01 X86.6454 Y29.4789
G01 X86.6572 Y29.4859
G01 X86.6696 Y29.4917
G01 X86.6824 Y29.4964
G01 X86.6957 Y29.4997
G01 X86.7093 Y29.5017
G01 X86.7229 Y29.5024
G01 X86.7366 Y29.5017
G01 X86.7502 Y29.4997
G01 X86.7634 Y29.4964
G01 X86.7763 Y29.4917
G01 X86.7887 Y29.4859
G01 X86.8004 Y29.4789
G01 X86.8114 Y29.4707
G01 X86.8216 Y29.4615
G01 X86.8308 Y29.4514
G01 X86.8389 Y29.4404
G01 X86.8460 Y29.4286
G01 X86.8518 Y29.4162
G01 X86.8564 Y29.4034
G01 X86.8598 Y29.3901
G01 X86.8618 Y29.3765
G01 X86.8624 Y29.3629
G00 X86.8624 Y29.3629
G01 F250.00
G01 Z-1.1000
G01 F1250.00
G01 X86.8618 Y29.3492
G01 X86.8598 Y29.3356
G01 X86.8564 Y29.3224
G01 X86.8518 Y29.3095
G01 X86.8460 Y29.2971
G01 X86.8389 Y29.2854
G01 X86.8308 Y29.2744
G01 X86.8216 Y29.2642
G01 X86.8114 Y29.2550
G01 X86.8004 Y29.2469
G01 X86.7887 Y29.2398
G01 X86.7763 Y29.2340
G01 X86.7634 Y29.2294
G01 X86.7502 Y29.2260
G01 X86.7366 Y29.2240
G01 X86.7229 Y29.2234
G01 X86.7093 Y29.2240
G01 X86.6957 Y29.2260
G01 X86.6824 Y29.2294
G01 X86.6696 Y29.2340
G01 X86.6572 Y29.2398
G01 X86.6454 Y29.2469
G01 X86.6344 Y29.2550
G01 X86.6243 Y29.2642
G01 X86.6151 Y29.2744
G01 X86.6069 Y29.2854
G01 X86.5999 Y29.2971
G01 X86.5941 Y29.3095
G01 X86.5894 Y29.3224
G01 X86.5861 Y29.3356
G01 X86.5841 Y29.3492
G01 X86.5834 Y29.3629
G01 X86.5841 Y29.3765
G01 X86.5861 Y29.3901
G01 X86.5894 Y29.4034
G01 X86.5941 Y29.4162
G01 X86.5999 Y29.4286
G01 X86.6069 Y29.4404
G01 X86.6151 Y29.4514
G01 X86.6243 Y29.4615
G01 X86.6344 Y29.4707
G01 X86.6454 Y29.4789
G01 X86.6572 Y29.4859
G01 X86.6696 Y29.4917
G01 X86.6824 Y29.4964
G01 X86.6957 Y29.4997
G01 X86.7093 Y29.5017
G01 X86.7229 Y29.5024
G01 X86.7366 Y29.5017
G01 X86.7502 Y29.4997
G01 X86.7634 Y29.4964
G01 X86.7763 Y29.4917
G01 X86.7887 Y29.4859
G01 X86.8004 Y29.4789
G01 X86.8114 Y29.4707
G01 X86.8216 Y29.4615
G01 X86.8308 Y29.4514
G01 X86.8389 Y29.4404
G01 X86.8460 Y29.4286
G01 X86.8518 Y29.4162
G01 X86.8564 Y29.4034
G01 X86.8598 Y29.3901
G01 X86.8618 Y29.3765
G01 X86.8624 Y29.3629
G00 X86.8624 Y29.3629
G01 F250.00
G01 Z-1.2000
G01 F1250.00
G01 X86.8618 Y29.3492
G01 X86.8598 Y29.3356
G01 X86.8564 Y29.3224
G01 X86.8518 Y29.3095
G01 X86.8460 Y29.2971
G01 X86.8389 Y29.2854
G01 X86.8308 Y29.2744
G01 X86.8216 Y29.2642
G01 X86.8114 Y29.2550
G01 X86.8004 Y29.2469
G01 X86.7887 Y29.2398
G01 X86.7763 Y29.2340
G01 X86.7634 Y29.2294
G01 X86.7502 Y29.2260
G01 X86.7366 Y29.2240
G01 X86.7229 Y29.2234
G01 X86.7093 Y29.2240
G01 X86.6957 Y29.2260
G01 X86.6824 Y29.2294
G01 X86.6696 Y29.2340
G01 X86.6572 Y29.2398
G01 X86.6454 Y29.2469
G01 X86.6344 Y29.2550
G01 X86.6243 Y29.2642
G01 X86.6151 Y29.2744
G01 X86.6069 Y29.2854
G01 X86.5999 Y29.2971
G01 X86.5941 Y29.3095
G01 X86.5894 Y29.3224
G01 X86.5861 Y29.3356
G01 X86.5841 Y29.3492
G01 X86.5834 Y29.3629
G01 X86.5841 Y29.3765
G01 X86.5861 Y29.3901
G01 X86.5894 Y29.4034
G01 X86.5941 Y29.4162
G01 X86.5999 Y29.4286
G01 X86.6069 Y29.4404
G01 X86.6151 Y29.4514
G01 X86.6243 Y29.4615
G01 X86.6344 Y29.4707
G01 X86.6454 Y29.4789
G01 X86.6572 Y29.4859
G01 X86.6696 Y29.4917
G01 X86.6824 Y29.4964
G01 X86.6957 Y29.4997
G01 X86.7093 Y29.5017
G01 X86.7229 Y29.5024
G01 X86.7366 Y29.5017
G01 X86.7502 Y29.4997
G01 X86.7634 Y29.4964
G01 X86.7763 Y29.4917
G01 X86.7887 Y29.4859
G01 X86.8004 Y29.4789
G01 X86.8114 Y29.4707
G01 X86.8216 Y29.4615
G01 X86.8308 Y29.4514
G01 X86.8389 Y29.4404
G01 X86.8460 Y29.4286
G01 X86.8518 Y29.4162
G01 X86.8564 Y29.4034
G01 X86.8598 Y29.3901
G01 X86.8618 Y29.3765
G01 X86.8624 Y29.3629
G00 X86.8624 Y29.3629
G01 F250.00
G01 Z-1.3000
G01 F1250.00
G01 X86.8618 Y29.3492
G01 X86.8598 Y29.3356
G01 X86.8564 Y29.3224
G01 X86.8518 Y29.3095
G01 X86.8460 Y29.2971
G01 X86.8389 Y29.2854
G01 X86.8308 Y29.2744
G01 X86.8216 Y29.2642
G01 X86.8114 Y29.2550
G01 X86.8004 Y29.2469
G01 X86.7887 Y29.2398
G01 X86.7763 Y29.2340
G01 X86.7634 Y29.2294
G01 X86.7502 Y29.2260
G01 X86.7366 Y29.2240
G01 X86.7229 Y29.2234
G01 X86.7093 Y29.2240
G01 X86.6957 Y29.2260
G01 X86.6824 Y29.2294
G01 X86.6696 Y29.2340
G01 X86.6572 Y29.2398
G01 X86.6454 Y29.2469
G01 X86.6344 Y29.2550
G01 X86.6243 Y29.2642
G01 X86.6151 Y29.2744
G01 X86.6069 Y29.2854
G01 X86.5999 Y29.2971
G01 X86.5941 Y29.3095
G01 X86.5894 Y29.3224
G01 X86.5861 Y29.3356
G01 X86.5841 Y29.3492
G01 X86.5834 Y29.3629
G01 X86.5841 Y29.3765
G01 X86.5861 Y29.3901
G01 X86.5894 Y29.4034
G01 X86.5941 Y29.4162
G01 X86.5999 Y29.4286
G01 X86.6069 Y29.4404
G01 X86.6151 Y29.4514
G01 X86.6243 Y29.4615
G01 X86.6344 Y29.4707
G01 X86.6454 Y29.4789
G01 X86.6572 Y29.4859
G01 X86.6696 Y29.4917
G01 X86.6824 Y29.4964
G01 X86.6957 Y29.4997
G01 X86.7093 Y29.5017
G01 X86.7229 Y29.5024
G01 X86.7366 Y29.5017
G01 X86.7502 Y29.4997
G01 X86.7634 Y29.4964
G01 X86.7763 Y29.4917
G01 X86.7887 Y29.4859
G01 X86.8004 Y29.4789
G01 X86.8114 Y29.4707
G01 X86.8216 Y29.4615
G01 X86.8308 Y29.4514
G01 X86.8389 Y29.4404
G01 X86.8460 Y29.4286
G01 X86.8518 Y29.4162
G01 X86.8564 Y29.4034
G01 X86.8598 Y29.3901
G01 X86.8618 Y29.3765
G01 X86.8624 Y29.3629
G00 X86.8624 Y29.3629
G01 F250.00
G01 Z-1.4000
G01 F1250.00
G01 X86.8618 Y29.3492
G01 X86.8598 Y29.3356
G01 X86.8564 Y29.3224
G01 X86.8518 Y29.3095
G01 X86.8460 Y29.2971
G01 X86.8389 Y29.2854
G01 X86.8308 Y29.2744
G01 X86.8216 Y29.2642
G01 X86.8114 Y29.2550
G01 X86.8004 Y29.2469
G01 X86.7887 Y29.2398
G01 X86.7763 Y29.2340
G01 X86.7634 Y29.2294
G01 X86.7502 Y29.2260
G01 X86.7366 Y29.2240
G01 X86.7229 Y29.2234
G01 X86.7093 Y29.2240
G01 X86.6957 Y29.2260
G01 X86.6824 Y29.2294
G01 X86.6696 Y29.2340
G01 X86.6572 Y29.2398
G01 X86.6454 Y29.2469
G01 X86.6344 Y29.2550
G01 X86.6243 Y29.2642
G01 X86.6151 Y29.2744
G01 X86.6069 Y29.2854
G01 X86.5999 Y29.2971
G01 X86.5941 Y29.3095
G01 X86.5894 Y29.3224
G01 X86.5861 Y29.3356
G01 X86.5841 Y29.3492
G01 X86.5834 Y29.3629
G01 X86.5841 Y29.3765
G01 X86.5861 Y29.3901
G01 X86.5894 Y29.4034
G01 X86.5941 Y29.4162
G01 X86.5999 Y29.4286
G01 X86.6069 Y29.4404
G01 X86.6151 Y29.4514
G01 X86.6243 Y29.4615
G01 X86.6344 Y29.4707
G01 X86.6454 Y29.4789
G01 X86.6572 Y29.4859
G01 X86.6696 Y29.4917
G01 X86.6824 Y29.4964
G01 X86.6957 Y29.4997
G01 X86.7093 Y29.5017
G01 X86.7229 Y29.5024
G01 X86.7366 Y29.5017
G01 X86.7502 Y29.4997
G01 X86.7634 Y29.4964
G01 X86.7763 Y29.4917
G01 X86.7887 Y29.4859
G01 X86.8004 Y29.4789
G01 X86.8114 Y29.4707
G01 X86.8216 Y29.4615
G01 X86.8308 Y29.4514
G01 X86.8389 Y29.4404
G01 X86.8460 Y29.4286
G01 X86.8518 Y29.4162
G01 X86.8564 Y29.4034
G01 X86.8598 Y29.3901
G01 X86.8618 Y29.3765
G01 X86.8624 Y29.3629
G00 X86.8624 Y29.3629
G01 F250.00
G01 Z-1.5000
G01 F1250.00
G01 X86.8618 Y29.3492
G01 X86.8598 Y29.3356
G01 X86.8564 Y29.3224
G01 X86.8518 Y29.3095
G01 X86.8460 Y29.2971
G01 X86.8389 Y29.2854
G01 X86.8308 Y29.2744
G01 X86.8216 Y29.2642
G01 X86.8114 Y29.2550
G01 X86.8004 Y29.2469
G01 X86.7887 Y29.2398
G01 X86.7763 Y29.2340
G01 X86.7634 Y29.2294
G01 X86.7502 Y29.2260
G01 X86.7366 Y29.2240
G01 X86.7229 Y29.2234
G01 X86.7093 Y29.2240
G01 X86.6957 Y29.2260
G01 X86.6824 Y29.2294
G01 X86.6696 Y29.2340
G01 X86.6572 Y29.2398
G01 X86.6454 Y29.2469
G01 X86.6344 Y29.2550
G01 X86.6243 Y29.2642
G01 X86.6151 Y29.2744
G01 X86.6069 Y29.2854
G01 X86.5999 Y29.2971
G01 X86.5941 Y29.3095
G01 X86.5894 Y29.3224
G01 X86.5861 Y29.3356
G01 X86.5841 Y29.3492
G01 X86.5834 Y29.3629
G01 X86.5841 Y29.3765
G01 X86.5861 Y29.3901
G01 X86.5894 Y29.4034
G01 X86.5941 Y29.4162
G01 X86.5999 Y29.4286
G01 X86.6069 Y29.4404
G01 X86.6151 Y29.4514
G01 X86.6243 Y29.4615
G01 X86.6344 Y29.4707
G01 X86.6454 Y29.4789
G01 X86.6572 Y29.4859
G01 X86.6696 Y29.4917
G01 X86.6824 Y29.4964
G01 X86.6957 Y29.4997
G01 X86.7093 Y29.5017
G01 X86.7229 Y29.5024
G01 X86.7366 Y29.5017
G01 X86.7502 Y29.4997
G01 X86.7634 Y29.4964
G01 X86.7763 Y29.4917
G01 X86.7887 Y29.4859
G01 X86.8004 Y29.4789
G01 X86.8114 Y29.4707
G01 X86.8216 Y29.4615
G01 X86.8308 Y29.4514
G01 X86.8389 Y29.4404
G01 X86.8460 Y29.4286
G01 X86.8518 Y29.4162
G01 X86.8564 Y29.4034
G01 X86.8598 Y29.3901
G01 X86.8618 Y29.3765
G01 X86.8624 Y29.3629
G00 X86.8624 Y29.3629
G01 F250.00
G01 Z-1.6000
G01 F1250.00
G01 X86.8618 Y29.3492
G01 X86.8598 Y29.3356
G01 X86.8564 Y29.3224
G01 X86.8518 Y29.3095
G01 X86.8460 Y29.2971
G01 X86.8389 Y29.2854
G01 X86.8308 Y29.2744
G01 X86.8216 Y29.2642
G01 X86.8114 Y29.2550
G01 X86.8004 Y29.2469
G01 X86.7887 Y29.2398
G01 X86.7763 Y29.2340
G01 X86.7634 Y29.2294
G01 X86.7502 Y29.2260
G01 X86.7366 Y29.2240
G01 X86.7229 Y29.2234
G01 X86.7093 Y29.2240
G01 X86.6957 Y29.2260
G01 X86.6824 Y29.2294
G01 X86.6696 Y29.2340
G01 X86.6572 Y29.2398
G01 X86.6454 Y29.2469
G01 X86.6344 Y29.2550
G01 X86.6243 Y29.2642
G01 X86.6151 Y29.2744
G01 X86.6069 Y29.2854
G01 X86.5999 Y29.2971
G01 X86.5941 Y29.3095
G01 X86.5894 Y29.3224
G01 X86.5861 Y29.3356
G01 X86.5841 Y29.3492
G01 X86.5834 Y29.3629
G01 X86.5841 Y29.3765
G01 X86.5861 Y29.3901
G01 X86.5894 Y29.4034
G01 X86.5941 Y29.4162
G01 X86.5999 Y29.4286
G01 X86.6069 Y29.4404
G01 X86.6151 Y29.4514
G01 X86.6243 Y29.4615
G01 X86.6344 Y29.4707
G01 X86.6454 Y29.4789
G01 X86.6572 Y29.4859
G01 X86.6696 Y29.4917
G01 X86.6824 Y29.4964
G01 X86.6957 Y29.4997
G01 X86.7093 Y29.5017
G01 X86.7229 Y29.5024
G01 X86.7366 Y29.5017
G01 X86.7502 Y29.4997
G01 X86.7634 Y29.4964
G01 X86.7763 Y29.4917
G01 X86.7887 Y29.4859
G01 X86.8004 Y29.4789
G01 X86.8114 Y29.4707
G01 X86.8216 Y29.4615
G01 X86.8308 Y29.4514
G01 X86.8389 Y29.4404
G01 X86.8460 Y29.4286
G01 X86.8518 Y29.4162
G01 X86.8564 Y29.4034
G01 X86.8598 Y29.3901
G01 X86.8618 Y29.3765
G01 X86.8624 Y29.3629
G00 X86.8624 Y29.3629
G01 F250.00
G01 Z-1.7000
G01 F1250.00
G01 X86.8618 Y29.3492
G01 X86.8598 Y29.3356
G01 X86.8564 Y29.3224
G01 X86.8518 Y29.3095
G01 X86.8460 Y29.2971
G01 X86.8389 Y29.2854
G01 X86.8308 Y29.2744
G01 X86.8216 Y29.2642
G01 X86.8114 Y29.2550
G01 X86.8004 Y29.2469
G01 X86.7887 Y29.2398
G01 X86.7763 Y29.2340
G01 X86.7634 Y29.2294
G01 X86.7502 Y29.2260
G01 X86.7366 Y29.2240
G01 X86.7229 Y29.2234
G01 X86.7093 Y29.2240
G01 X86.6957 Y29.2260
G01 X86.6824 Y29.2294
G01 X86.6696 Y29.2340
G01 X86.6572 Y29.2398
G01 X86.6454 Y29.2469
G01 X86.6344 Y29.2550
G01 X86.6243 Y29.2642
G01 X86.6151 Y29.2744
G01 X86.6069 Y29.2854
G01 X86.5999 Y29.2971
G01 X86.5941 Y29.3095
G01 X86.5894 Y29.3224
G01 X86.5861 Y29.3356
G01 X86.5841 Y29.3492
G01 X86.5834 Y29.3629
G01 X86.5841 Y29.3765
G01 X86.5861 Y29.3901
G01 X86.5894 Y29.4034
G01 X86.5941 Y29.4162
G01 X86.5999 Y29.4286
G01 X86.6069 Y29.4404
G01 X86.6151 Y29.4514
G01 X86.6243 Y29.4615
G01 X86.6344 Y29.4707
G01 X86.6454 Y29.4789
G01 X86.6572 Y29.4859
G01 X86.6696 Y29.4917
G01 X86.6824 Y29.4964
G01 X86.6957 Y29.4997
G01 X86.7093 Y29.5017
G01 X86.7229 Y29.5024
G01 X86.7366 Y29.5017
G01 X86.7502 Y29.4997
G01 X86.7634 Y29.4964
G01 X86.7763 Y29.4917
G01 X86.7887 Y29.4859
G01 X86.8004 Y29.4789
G01 X86.8114 Y29.4707
G01 X86.8216 Y29.4615
G01 X86.8308 Y29.4514
G01 X86.8389 Y29.4404
G01 X86.8460 Y29.4286
G01 X86.8518 Y29.4162
G01 X86.8564 Y29.4034
G01 X86.8598 Y29.3901
G01 X86.8618 Y29.3765
G01 X86.8624 Y29.3629
G00 Z0.5000
G00 X86.7624 Y4.3629
G01 F250.00
G01 Z-0.1000
G01 F1250.00
G01 X86.7618 Y4.3492
G01 X86.7598 Y4.3356
G01 X86.7564 Y4.3224
G01 X86.7518 Y4.3095
G01 X86.7460 Y4.2971
G01 X86.7389 Y4.2854
G01 X86.7308 Y4.2744
G01 X86.7216 Y4.2642
G01 X86.7114 Y4.2550
G01 X86.7004 Y4.2469
G01 X86.6887 Y4.2398
G01 X86.6763 Y4.2340
G01 X86.6634 Y4.2294
G01 X86.6502 Y4.2260
G01 X86.6366 Y4.2240
G01 X86.6229 Y4.2234
G01 X86.6093 Y4.2240
G01 X86.5957 Y4.2260
G01 X86.5824 Y4.2294
G01 X86.5696 Y4.2340
G01 X86.5572 Y4.2398
G01 X86.5454 Y4.2469
G01 X86.5344 Y4.2550
G01 X86.5243 Y4.2642
G01 X86.5151 Y4.2744
G01 X86.5069 Y4.2854
G01 X86.4999 Y4.2971
G01 X86.4941 Y4.3095
G01 X86.4894 Y4.3224
G01 X86.4861 Y4.3356
G01 X86.4841 Y4.3492
G01 X86.4834 Y4.3629
G01 X86.4841 Y4.3765
G01 X86.4861 Y4.3901
G01 X86.4894 Y4.4034
G01 X86.4941 Y4.4162
G01 X86.4999 Y4.4286
G01 X86.5069 Y4.4404
G01 X86.5151 Y4.4514
G01 X86.5243 Y4.4615
G01 X86.5344 Y4.4707
G01 X86.5454 Y4.4789
G01 X86.5572 Y4.4859
G01 X86.5696 Y4.4917
G01 X86.5824 Y4.4964
G01 X86.5957 Y4.4997
G01 X86.6093 Y4.5017
G01 X86.6229 Y4.5024
G01 X86.6366 Y4.5017
G01 X86.6502 Y4.4997
G01 X86.6634 Y4.4964
G01 X86.6763 Y4.4917
G01 X86.6887 Y4.4859
G01 X86.7004 Y4.4789
G01 X86.7114 Y4.4707
G01 X86.7216 Y4.4615
G01 X86.7308 Y4.4514
G01 X86.7389 Y4.4404
G01 X86.7460 Y4.4286
G01 X86.7518 Y4.4162
G01 X86.7564 Y4.4034
G01 X86.7598 Y4.3901
G01 X86.7618 Y4.3765
G01 X86.7624 Y4.3629
G00 X86.7624 Y4.3629
G01 F250.00
G01 Z-0.2000
G01 F1250.00
G01 X86.7618 Y4.3492
G01 X86.7598 Y4.3356
G01 X86.7564 Y4.3224
G01 X86.7518 Y4.3095
G01 X86.7460 Y4.2971
G01 X86.7389 Y4.2854
G01 X86.7308 Y4.2744
G01 X86.7216 Y4.2642
G01 X86.7114 Y4.2550
G01 X86.7004 Y4.2469
G01 X86.6887 Y4.2398
G01 X86.6763 Y4.2340
G01 X86.6634 Y4.2294
G01 X86.6502 Y4.2260
G01 X86.6366 Y4.2240
G01 X86.6229 Y4.2234
G01 X86.6093 Y4.2240
G01 X86.5957 Y4.2260
G01 X86.5824 Y4.2294
G01 X86.5696 Y4.2340
G01 X86.5572 Y4.2398
G01 X86.5454 Y4.2469
G01 X86.5344 Y4.2550
G01 X86.5243 Y4.2642
G01 X86.5151 Y4.2744
G01 X86.5069 Y4.2854
G01 X86.4999 Y4.2971
G01 X86.4941 Y4.3095
G01 X86.4894 Y4.3224
G01 X86.4861 Y4.3356
G01 X86.4841 Y4.3492
G01 X86.4834 Y4.3629
G01 X86.4841 Y4.3765
G01 X86.4861 Y4.3901
G01 X86.4894 Y4.4034
G01 X86.4941 Y4.4162
G01 X86.4999 Y4.4286
G01 X86.5069 Y4.4404
G01 X86.5151 Y4.4514
G01 X86.5243 Y4.4615
G01 X86.5344 Y4.4707
G01 X86.5454 Y4.4789
G01 X86.5572 Y4.4859
G01 X86.5696 Y4.4917
G01 X86.5824 Y4.4964
G01 X86.5957 Y4.4997
G01 X86.6093 Y4.5017
G01 X86.6229 Y4.5024
G01 X86.6366 Y4.5017
G01 X86.6502 Y4.4997
G01 X86.6634 Y4.4964
G01 X86.6763 Y4.4917
G01 X86.6887 Y4.4859
G01 X86.7004 Y4.4789
G01 X86.7114 Y4.4707
G01 X86.7216 Y4.4615
G01 X86.7308 Y4.4514
G01 X86.7389 Y4.4404
G01 X86.7460 Y4.4286
G01 X86.7518 Y4.4162
G01 X86.7564 Y4.4034
G01 X86.7598 Y4.3901
G01 X86.7618 Y4.3765
G01 X86.7624 Y4.3629
G00 X86.7624 Y4.3629
G01 F250.00
G01 Z-0.3000
G01 F1250.00
G01 X86.7618 Y4.3492
G01 X86.7598 Y4.3356
G01 X86.7564 Y4.3224
G01 X86.7518 Y4.3095
G01 X86.7460 Y4.2971
G01 X86.7389 Y4.2854
G01 X86.7308 Y4.2744
G01 X86.7216 Y4.2642
G01 X86.7114 Y4.2550
G01 X86.7004 Y4.2469
G01 X86.6887 Y4.2398
G01 X86.6763 Y4.2340
G01 X86.6634 Y4.2294
G01 X86.6502 Y4.2260
G01 X86.6366 Y4.2240
G01 X86.6229 Y4.2234
G01 X86.6093 Y4.2240
G01 X86.5957 Y4.2260
G01 X86.5824 Y4.2294
G01 X86.5696 Y4.2340
G01 X86.5572 Y4.2398
G01 X86.5454 Y4.2469
G01 X86.5344 Y4.2550
G01 X86.5243 Y4.2642
G01 X86.5151 Y4.2744
G01 X86.5069 Y4.2854
G01 X86.4999 Y4.2971
G01 X86.4941 Y4.3095
G01 X86.4894 Y4.3224
G01 X86.4861 Y4.3356
G01 X86.4841 Y4.3492
G01 X86.4834 Y4.3629
G01 X86.4841 Y4.3765
G01 X86.4861 Y4.3901
G01 X86.4894 Y4.4034
G01 X86.4941 Y4.4162
G01 X86.4999 Y4.4286
G01 X86.5069 Y4.4404
G01 X86.5151 Y4.4514
G01 X86.5243 Y4.4615
G01 X86.5344 Y4.4707
G01 X86.5454 Y4.4789
G01 X86.5572 Y4.4859
G01 X86.5696 Y4.4917
G01 X86.5824 Y4.4964
G01 X86.5957 Y4.4997
G01 X86.6093 Y4.5017
G01 X86.6229 Y4.5024
G01 X86.6366 Y4.5017
G01 X86.6502 Y4.4997
G01 X86.6634 Y4.4964
G01 X86.6763 Y4.4917
G01 X86.6887 Y4.4859
G01 X86.7004 Y4.4789
G01 X86.7114 Y4.4707
G01 X86.7216 Y4.4615
G01 X86.7308 Y4.4514
G01 X86.7389 Y4.4404
G01 X86.7460 Y4.4286
G01 X86.7518 Y4.4162
G01 X86.7564 Y4.4034
G01 X86.7598 Y4.3901
G01 X86.7618 Y4.3765
G01 X86.7624 Y4.3629
G00 X86.7624 Y4.3629
G01 F250.00
G01 Z-0.4000
G01 F1250.00
G01 X86.7618 Y4.3492
G01 X86.7598 Y4.3356
G01 X86.7564 Y4.3224
G01 X86.7518 Y4.3095
G01 X86.7460 Y4.2971
G01 X86.7389 Y4.2854
G01 X86.7308 Y4.2744
G01 X86.7216 Y4.2642
G01 X86.7114 Y4.2550
G01 X86.7004 Y4.2469
G01 X86.6887 Y4.2398
G01 X86.6763 Y4.2340
G01 X86.6634 Y4.2294
G01 X86.6502 Y4.2260
G01 X86.6366 Y4.2240
G01 X86.6229 Y4.2234
G01 X86.6093 Y4.2240
G01 X86.5957 Y4.2260
G01 X86.5824 Y4.2294
G01 X86.5696 Y4.2340
G01 X86.5572 Y4.2398
G01 X86.5454 Y4.2469
G01 X86.5344 Y4.2550
G01 X86.5243 Y4.2642
G01 X86.5151 Y4.2744
G01 X86.5069 Y4.2854
G01 X86.4999 Y4.2971
G01 X86.4941 Y4.3095
G01 X86.4894 Y4.3224
G01 X86.4861 Y4.3356
G01 X86.4841 Y4.3492
G01 X86.4834 Y4.3629
G01 X86.4841 Y4.3765
G01 X86.4861 Y4.3901
G01 X86.4894 Y4.4034
G01 X86.4941 Y4.4162
G01 X86.4999 Y4.4286
G01 X86.5069 Y4.4404
G01 X86.5151 Y4.4514
G01 X86.5243 Y4.4615
G01 X86.5344 Y4.4707
G01 X86.5454 Y4.4789
G01 X86.5572 Y4.4859
G01 X86.5696 Y4.4917
G01 X86.5824 Y4.4964
G01 X86.5957 Y4.4997
G01 X86.6093 Y4.5017
G01 X86.6229 Y4.5024
G01 X86.6366 Y4.5017
G01 X86.6502 Y4.4997
G01 X86.6634 Y4.4964
G01 X86.6763 Y4.4917
G01 X86.6887 Y4.4859
G01 X86.7004 Y4.4789
G01 X86.7114 Y4.4707
G01 X86.7216 Y4.4615
G01 X86.7308 Y4.4514
G01 X86.7389 Y4.4404
G01 X86.7460 Y4.4286
G01 X86.7518 Y4.4162
G01 X86.7564 Y4.4034
G01 X86.7598 Y4.3901
G01 X86.7618 Y4.3765
G01 X86.7624 Y4.3629
G00 X86.7624 Y4.3629
G01 F250.00
G01 Z-0.5000
G01 F1250.00
G01 X86.7618 Y4.3492
G01 X86.7598 Y4.3356
G01 X86.7564 Y4.3224
G01 X86.7518 Y4.3095
G01 X86.7460 Y4.2971
G01 X86.7389 Y4.2854
G01 X86.7308 Y4.2744
G01 X86.7216 Y4.2642
G01 X86.7114 Y4.2550
G01 X86.7004 Y4.2469
G01 X86.6887 Y4.2398
G01 X86.6763 Y4.2340
G01 X86.6634 Y4.2294
G01 X86.6502 Y4.2260
G01 X86.6366 Y4.2240
G01 X86.6229 Y4.2234
G01 X86.6093 Y4.2240
G01 X86.5957 Y4.2260
G01 X86.5824 Y4.2294
G01 X86.5696 Y4.2340
G01 X86.5572 Y4.2398
G01 X86.5454 Y4.2469
G01 X86.5344 Y4.2550
G01 X86.5243 Y4.2642
G01 X86.5151 Y4.2744
G01 X86.5069 Y4.2854
G01 X86.4999 Y4.2971
G01 X86.4941 Y4.3095
G01 X86.4894 Y4.3224
G01 X86.4861 Y4.3356
G01 X86.4841 Y4.3492
G01 X86.4834 Y4.3629
G01 X86.4841 Y4.3765
G01 X86.4861 Y4.3901
G01 X86.4894 Y4.4034
G01 X86.4941 Y4.4162
G01 X86.4999 Y4.4286
G01 X86.5069 Y4.4404
G01 X86.5151 Y4.4514
G01 X86.5243 Y4.4615
G01 X86.5344 Y4.4707
G01 X86.5454 Y4.4789
G01 X86.5572 Y4.4859
G01 X86.5696 Y4.4917
G01 X86.5824 Y4.4964
G01 X86.5957 Y4.4997
G01 X86.6093 Y4.5017
G01 X86.6229 Y4.5024
G01 X86.6366 Y4.5017
G01 X86.6502 Y4.4997
G01 X86.6634 Y4.4964
G01 X86.6763 Y4.4917
G01 X86.6887 Y4.4859
G01 X86.7004 Y4.4789
G01 X86.7114 Y4.4707
G01 X86.7216 Y4.4615
G01 X86.7308 Y4.4514
G01 X86.7389 Y4.4404
G01 X86.7460 Y4.4286
G01 X86.7518 Y4.4162
G01 X86.7564 Y4.4034
G01 X86.7598 Y4.3901
G01 X86.7618 Y4.3765
G01 X86.7624 Y4.3629
G00 X86.7624 Y4.3629
G01 F250.00
G01 Z-0.6000
G01 F1250.00
G01 X86.7618 Y4.3492
G01 X86.7598 Y4.3356
G01 X86.7564 Y4.3224
G01 X86.7518 Y4.3095
G01 X86.7460 Y4.2971
G01 X86.7389 Y4.2854
G01 X86.7308 Y4.2744
G01 X86.7216 Y4.2642
G01 X86.7114 Y4.2550
G01 X86.7004 Y4.2469
G01 X86.6887 Y4.2398
G01 X86.6763 Y4.2340
G01 X86.6634 Y4.2294
G01 X86.6502 Y4.2260
G01 X86.6366 Y4.2240
G01 X86.6229 Y4.2234
G01 X86.6093 Y4.2240
G01 X86.5957 Y4.2260
G01 X86.5824 Y4.2294
G01 X86.5696 Y4.2340
G01 X86.5572 Y4.2398
G01 X86.5454 Y4.2469
G01 X86.5344 Y4.2550
G01 X86.5243 Y4.2642
G01 X86.5151 Y4.2744
G01 X86.5069 Y4.2854
G01 X86.4999 Y4.2971
G01 X86.4941 Y4.3095
G01 X86.4894 Y4.3224
G01 X86.4861 Y4.3356
G01 X86.4841 Y4.3492
G01 X86.4834 Y4.3629
G01 X86.4841 Y4.3765
G01 X86.4861 Y4.3901
G01 X86.4894 Y4.4034
G01 X86.4941 Y4.4162
G01 X86.4999 Y4.4286
G01 X86.5069 Y4.4404
G01 X86.5151 Y4.4514
G01 X86.5243 Y4.4615
G01 X86.5344 Y4.4707
G01 X86.5454 Y4.4789
G01 X86.5572 Y4.4859
G01 X86.5696 Y4.4917
G01 X86.5824 Y4.4964
G01 X86.5957 Y4.4997
G01 X86.6093 Y4.5017
G01 X86.6229 Y4.5024
G01 X86.6366 Y4.5017
G01 X86.6502 Y4.4997
G01 X86.6634 Y4.4964
G01 X86.6763 Y4.4917
G01 X86.6887 Y4.4859
G01 X86.7004 Y4.4789
G01 X86.7114 Y4.4707
G01 X86.7216 Y4.4615
G01 X86.7308 Y4.4514
G01 X86.7389 Y4.4404
G01 X86.7460 Y4.4286
G01 X86.7518 Y4.4162
G01 X86.7564 Y4.4034
G01 X86.7598 Y4.3901
G01 X86.7618 Y4.3765
G01 X86.7624 Y4.3629
G00 X86.7624 Y4.3629
G01 F250.00
G01 Z-0.7000
G01 F1250.00
G01 X86.7618 Y4.3492
G01 X86.7598 Y4.3356
G01 X86.7564 Y4.3224
G01 X86.7518 Y4.3095
G01 X86.7460 Y4.2971
G01 X86.7389 Y4.2854
G01 X86.7308 Y4.2744
G01 X86.7216 Y4.2642
G01 X86.7114 Y4.2550
G01 X86.7004 Y4.2469
G01 X86.6887 Y4.2398
G01 X86.6763 Y4.2340
G01 X86.6634 Y4.2294
G01 X86.6502 Y4.2260
G01 X86.6366 Y4.2240
G01 X86.6229 Y4.2234
G01 X86.6093 Y4.2240
G01 X86.5957 Y4.2260
G01 X86.5824 Y4.2294
G01 X86.5696 Y4.2340
G01 X86.5572 Y4.2398
G01 X86.5454 Y4.2469
G01 X86.5344 Y4.2550
G01 X86.5243 Y4.2642
G01 X86.5151 Y4.2744
G01 X86.5069 Y4.2854
G01 X86.4999 Y4.2971
G01 X86.4941 Y4.3095
G01 X86.4894 Y4.3224
G01 X86.4861 Y4.3356
G01 X86.4841 Y4.3492
G01 X86.4834 Y4.3629
G01 X86.4841 Y4.3765
G01 X86.4861 Y4.3901
G01 X86.4894 Y4.4034
G01 X86.4941 Y4.4162
G01 X86.4999 Y4.4286
G01 X86.5069 Y4.4404
G01 X86.5151 Y4.4514
G01 X86.5243 Y4.4615
G01 X86.5344 Y4.4707
G01 X86.5454 Y4.4789
G01 X86.5572 Y4.4859
G01 X86.5696 Y4.4917
G01 X86.5824 Y4.4964
G01 X86.5957 Y4.4997
G01 X86.6093 Y4.5017
G01 X86.6229 Y4.5024
G01 X86.6366 Y4.5017
G01 X86.6502 Y4.4997
G01 X86.6634 Y4.4964
G01 X86.6763 Y4.4917
G01 X86.6887 Y4.4859
G01 X86.7004 Y4.4789
G01 X86.7114 Y4.4707
G01 X86.7216 Y4.4615
G01 X86.7308 Y4.4514
G01 X86.7389 Y4.4404
G01 X86.7460 Y4.4286
G01 X86.7518 Y4.4162
G01 X86.7564 Y4.4034
G01 X86.7598 Y4.3901
G01 X86.7618 Y4.3765
G01 X86.7624 Y4.3629
G00 X86.7624 Y4.3629
G01 F250.00
G01 Z-0.8000
G01 F1250.00
G01 X86.7618 Y4.3492
G01 X86.7598 Y4.3356
G01 X86.7564 Y4.3224
G01 X86.7518 Y4.3095
G01 X86.7460 Y4.2971
G01 X86.7389 Y4.2854
G01 X86.7308 Y4.2744
G01 X86.7216 Y4.2642
G01 X86.7114 Y4.2550
G01 X86.7004 Y4.2469
G01 X86.6887 Y4.2398
G01 X86.6763 Y4.2340
G01 X86.6634 Y4.2294
G01 X86.6502 Y4.2260
G01 X86.6366 Y4.2240
G01 X86.6229 Y4.2234
G01 X86.6093 Y4.2240
G01 X86.5957 Y4.2260
G01 X86.5824 Y4.2294
G01 X86.5696 Y4.2340
G01 X86.5572 Y4.2398
G01 X86.5454 Y4.2469
G01 X86.5344 Y4.2550
G01 X86.5243 Y4.2642
G01 X86.5151 Y4.2744
G01 X86.5069 Y4.2854
G01 X86.4999 Y4.2971
G01 X86.4941 Y4.3095
G01 X86.4894 Y4.3224
G01 X86.4861 Y4.3356
G01 X86.4841 Y4.3492
G01 X86.4834 Y4.3629
G01 X86.4841 Y4.3765
G01 X86.4861 Y4.3901
G01 X86.4894 Y4.4034
G01 X86.4941 Y4.4162
G01 X86.4999 Y4.4286
G01 X86.5069 Y4.4404
G01 X86.5151 Y4.4514
G01 X86.5243 Y4.4615
G01 X86.5344 Y4.4707
G01 X86.5454 Y4.4789
G01 X86.5572 Y4.4859
G01 X86.5696 Y4.4917
G01 X86.5824 Y4.4964
G01 X86.5957 Y4.4997
G01 X86.6093 Y4.5017
G01 X86.6229 Y4.5024
G01 X86.6366 Y4.5017
G01 X86.6502 Y4.4997
G01 X86.6634 Y4.4964
G01 X86.6763 Y4.4917
G01 X86.6887 Y4.4859
G01 X86.7004 Y4.4789
G01 X86.7114 Y4.4707
G01 X86.7216 Y4.4615
G01 X86.7308 Y4.4514
G01 X86.7389 Y4.4404
G01 X86.7460 Y4.4286
G01 X86.7518 Y4.4162
G01 X86.7564 Y4.4034
G01 X86.7598 Y4.3901
G01 X86.7618 Y4.3765
G01 X86.7624 Y4.3629
G00 X86.7624 Y4.3629
G01 F250.00
G01 Z-0.9000
G01 F1250.00
G01 X86.7618 Y4.3492
G01 X86.7598 Y4.3356
G01 X86.7564 Y4.3224
G01 X86.7518 Y4.3095
G01 X86.7460 Y4.2971
G01 X86.7389 Y4.2854
G01 X86.7308 Y4.2744
G01 X86.7216 Y4.2642
G01 X86.7114 Y4.2550
G01 X86.7004 Y4.2469
G01 X86.6887 Y4.2398
G01 X86.6763 Y4.2340
G01 X86.6634 Y4.2294
G01 X86.6502 Y4.2260
G01 X86.6366 Y4.2240
G01 X86.6229 Y4.2234
G01 X86.6093 Y4.2240
G01 X86.5957 Y4.2260
G01 X86.5824 Y4.2294
G01 X86.5696 Y4.2340
G01 X86.5572 Y4.2398
G01 X86.5454 Y4.2469
G01 X86.5344 Y4.2550
G01 X86.5243 Y4.2642
G01 X86.5151 Y4.2744
G01 X86.5069 Y4.2854
G01 X86.4999 Y4.2971
G01 X86.4941 Y4.3095
G01 X86.4894 Y4.3224
G01 X86.4861 Y4.3356
G01 X86.4841 Y4.3492
G01 X86.4834 Y4.3629
G01 X86.4841 Y4.3765
G01 X86.4861 Y4.3901
G01 X86.4894 Y4.4034
G01 X86.4941 Y4.4162
G01 X86.4999 Y4.4286
G01 X86.5069 Y4.4404
G01 X86.5151 Y4.4514
G01 X86.5243 Y4.4615
G01 X86.5344 Y4.4707
G01 X86.5454 Y4.4789
G01 X86.5572 Y4.4859
G01 X86.5696 Y4.4917
G01 X86.5824 Y4.4964
G01 X86.5957 Y4.4997
G01 X86.6093 Y4.5017
G01 X86.6229 Y4.5024
G01 X86.6366 Y4.5017
G01 X86.6502 Y4.4997
G01 X86.6634 Y4.4964
G01 X86.6763 Y4.4917
G01 X86.6887 Y4.4859
G01 X86.7004 Y4.4789
G01 X86.7114 Y4.4707
G01 X86.7216 Y4.4615
G01 X86.7308 Y4.4514
G01 X86.7389 Y4.4404
G01 X86.7460 Y4.4286
G01 X86.7518 Y4.4162
G01 X86.7564 Y4.4034
G01 X86.7598 Y4.3901
G01 X86.7618 Y4.3765
G01 X86.7624 Y4.3629
G00 X86.7624 Y4.3629
G01 F250.00
G01 Z-1.0000
G01 F1250.00
G01 X86.7618 Y4.3492
G01 X86.7598 Y4.3356
G01 X86.7564 Y4.3224
G01 X86.7518 Y4.3095
G01 X86.7460 Y4.2971
G01 X86.7389 Y4.2854
G01 X86.7308 Y4.2744
G01 X86.7216 Y4.2642
G01 X86.7114 Y4.2550
G01 X86.7004 Y4.2469
G01 X86.6887 Y4.2398
G01 X86.6763 Y4.2340
G01 X86.6634 Y4.2294
G01 X86.6502 Y4.2260
G01 X86.6366 Y4.2240
G01 X86.6229 Y4.2234
G01 X86.6093 Y4.2240
G01 X86.5957 Y4.2260
G01 X86.5824 Y4.2294
G01 X86.5696 Y4.2340
G01 X86.5572 Y4.2398
G01 X86.5454 Y4.2469
G01 X86.5344 Y4.2550
G01 X86.5243 Y4.2642
G01 X86.5151 Y4.2744
G01 X86.5069 Y4.2854
G01 X86.4999 Y4.2971
G01 X86.4941 Y4.3095
G01 X86.4894 Y4.3224
G01 X86.4861 Y4.3356
G01 X86.4841 Y4.3492
G01 X86.4834 Y4.3629
G01 X86.4841 Y4.3765
G01 X86.4861 Y4.3901
G01 X86.4894 Y4.4034
G01 X86.4941 Y4.4162
G01 X86.4999 Y4.4286
G01 X86.5069 Y4.4404
G01 X86.5151 Y4.4514
G01 X86.5243 Y4.4615
G01 X86.5344 Y4.4707
G01 X86.5454 Y4.4789
G01 X86.5572 Y4.4859
G01 X86.5696 Y4.4917
G01 X86.5824 Y4.4964
G01 X86.5957 Y4.4997
G01 X86.6093 Y4.5017
G01 X86.6229 Y4.5024
G01 X86.6366 Y4.5017
G01 X86.6502 Y4.4997
G01 X86.6634 Y4.4964
G01 X86.6763 Y4.4917
G01 X86.6887 Y4.4859
G01 X86.7004 Y4.4789
G01 X86.7114 Y4.4707
G01 X86.7216 Y4.4615
G01 X86.7308 Y4.4514
G01 X86.7389 Y4.4404
G01 X86.7460 Y4.4286
G01 X86.7518 Y4.4162
G01 X86.7564 Y4.4034
G01 X86.7598 Y4.3901
G01 X86.7618 Y4.3765
G01 X86.7624 Y4.3629
G00 X86.7624 Y4.3629
G01 F250.00
G01 Z-1.1000
G01 F1250.00
G01 X86.7618 Y4.3492
G01 X86.7598 Y4.3356
G01 X86.7564 Y4.3224
G01 X86.7518 Y4.3095
G01 X86.7460 Y4.2971
G01 X86.7389 Y4.2854
G01 X86.7308 Y4.2744
G01 X86.7216 Y4.2642
G01 X86.7114 Y4.2550
G01 X86.7004 Y4.2469
G01 X86.6887 Y4.2398
G01 X86.6763 Y4.2340
G01 X86.6634 Y4.2294
G01 X86.6502 Y4.2260
G01 X86.6366 Y4.2240
G01 X86.6229 Y4.2234
G01 X86.6093 Y4.2240
G01 X86.5957 Y4.2260
G01 X86.5824 Y4.2294
G01 X86.5696 Y4.2340
G01 X86.5572 Y4.2398
G01 X86.5454 Y4.2469
G01 X86.5344 Y4.2550
G01 X86.5243 Y4.2642
G01 X86.5151 Y4.2744
G01 X86.5069 Y4.2854
G01 X86.4999 Y4.2971
G01 X86.4941 Y4.3095
G01 X86.4894 Y4.3224
G01 X86.4861 Y4.3356
G01 X86.4841 Y4.3492
G01 X86.4834 Y4.3629
G01 X86.4841 Y4.3765
G01 X86.4861 Y4.3901
G01 X86.4894 Y4.4034
G01 X86.4941 Y4.4162
G01 X86.4999 Y4.4286
G01 X86.5069 Y4.4404
G01 X86.5151 Y4.4514
G01 X86.5243 Y4.4615
G01 X86.5344 Y4.4707
G01 X86.5454 Y4.4789
G01 X86.5572 Y4.4859
G01 X86.5696 Y4.4917
G01 X86.5824 Y4.4964
G01 X86.5957 Y4.4997
G01 X86.6093 Y4.5017
G01 X86.6229 Y4.5024
G01 X86.6366 Y4.5017
G01 X86.6502 Y4.4997
G01 X86.6634 Y4.4964
G01 X86.6763 Y4.4917
G01 X86.6887 Y4.4859
G01 X86.7004 Y4.4789
G01 X86.7114 Y4.4707
G01 X86.7216 Y4.4615
G01 X86.7308 Y4.4514
G01 X86.7389 Y4.4404
G01 X86.7460 Y4.4286
G01 X86.7518 Y4.4162
G01 X86.7564 Y4.4034
G01 X86.7598 Y4.3901
G01 X86.7618 Y4.3765
G01 X86.7624 Y4.3629
G00 X86.7624 Y4.3629
G01 F250.00
G01 Z-1.2000
G01 F1250.00
G01 X86.7618 Y4.3492
G01 X86.7598 Y4.3356
G01 X86.7564 Y4.3224
G01 X86.7518 Y4.3095
G01 X86.7460 Y4.2971
G01 X86.7389 Y4.2854
G01 X86.7308 Y4.2744
G01 X86.7216 Y4.2642
G01 X86.7114 Y4.2550
G01 X86.7004 Y4.2469
G01 X86.6887 Y4.2398
G01 X86.6763 Y4.2340
G01 X86.6634 Y4.2294
G01 X86.6502 Y4.2260
G01 X86.6366 Y4.2240
G01 X86.6229 Y4.2234
G01 X86.6093 Y4.2240
G01 X86.5957 Y4.2260
G01 X86.5824 Y4.2294
G01 X86.5696 Y4.2340
G01 X86.5572 Y4.2398
G01 X86.5454 Y4.2469
G01 X86.5344 Y4.2550
G01 X86.5243 Y4.2642
G01 X86.5151 Y4.2744
G01 X86.5069 Y4.2854
G01 X86.4999 Y4.2971
G01 X86.4941 Y4.3095
G01 X86.4894 Y4.3224
G01 X86.4861 Y4.3356
G01 X86.4841 Y4.3492
G01 X86.4834 Y4.3629
G01 X86.4841 Y4.3765
G01 X86.4861 Y4.3901
G01 X86.4894 Y4.4034
G01 X86.4941 Y4.4162
G01 X86.4999 Y4.4286
G01 X86.5069 Y4.4404
G01 X86.5151 Y4.4514
G01 X86.5243 Y4.4615
G01 X86.5344 Y4.4707
G01 X86.5454 Y4.4789
G01 X86.5572 Y4.4859
G01 X86.5696 Y4.4917
G01 X86.5824 Y4.4964
G01 X86.5957 Y4.4997
G01 X86.6093 Y4.5017
G01 X86.6229 Y4.5024
G01 X86.6366 Y4.5017
G01 X86.6502 Y4.4997
G01 X86.6634 Y4.4964
G01 X86.6763 Y4.4917
G01 X86.6887 Y4.4859
G01 X86.7004 Y4.4789
G01 X86.7114 Y4.4707
G01 X86.7216 Y4.4615
G01 X86.7308 Y4.4514
G01 X86.7389 Y4.4404
G01 X86.7460 Y4.4286
G01 X86.7518 Y4.4162
G01 X86.7564 Y4.4034
G01 X86.7598 Y4.3901
G01 X86.7618 Y4.3765
G01 X86.7624 Y4.3629
G00 X86.7624 Y4.3629
G01 F250.00
G01 Z-1.3000
G01 F1250.00
G01 X86.7618 Y4.3492
G01 X86.7598 Y4.3356
G01 X86.7564 Y4.3224
G01 X86.7518 Y4.3095
G01 X86.7460 Y4.2971
G01 X86.7389 Y4.2854
G01 X86.7308 Y4.2744
G01 X86.7216 Y4.2642
G01 X86.7114 Y4.2550
G01 X86.7004 Y4.2469
G01 X86.6887 Y4.2398
G01 X86.6763 Y4.2340
G01 X86.6634 Y4.2294
G01 X86.6502 Y4.2260
G01 X86.6366 Y4.2240
G01 X86.6229 Y4.2234
G01 X86.6093 Y4.2240
G01 X86.5957 Y4.2260
G01 X86.5824 Y4.2294
G01 X86.5696 Y4.2340
G01 X86.5572 Y4.2398
G01 X86.5454 Y4.2469
G01 X86.5344 Y4.2550
G01 X86.5243 Y4.2642
G01 X86.5151 Y4.2744
G01 X86.5069 Y4.2854
G01 X86.4999 Y4.2971
G01 X86.4941 Y4.3095
G01 X86.4894 Y4.3224
G01 X86.4861 Y4.3356
G01 X86.4841 Y4.3492
G01 X86.4834 Y4.3629
G01 X86.4841 Y4.3765
G01 X86.4861 Y4.3901
G01 X86.4894 Y4.4034
G01 X86.4941 Y4.4162
G01 X86.4999 Y4.4286
G01 X86.5069 Y4.4404
G01 X86.5151 Y4.4514
G01 X86.5243 Y4.4615
G01 X86.5344 Y4.4707
G01 X86.5454 Y4.4789
G01 X86.5572 Y4.4859
G01 X86.5696 Y4.4917
G01 X86.5824 Y4.4964
G01 X86.5957 Y4.4997
G01 X86.6093 Y4.5017
G01 X86.6229 Y4.5024
G01 X86.6366 Y4.5017
G01 X86.6502 Y4.4997
G01 X86.6634 Y4.4964
G01 X86.6763 Y4.4917
G01 X86.6887 Y4.4859
G01 X86.7004 Y4.4789
G01 X86.7114 Y4.4707
G01 X86.7216 Y4.4615
G01 X86.7308 Y4.4514
G01 X86.7389 Y4.4404
G01 X86.7460 Y4.4286
G01 X86.7518 Y4.4162
G01 X86.7564 Y4.4034
G01 X86.7598 Y4.3901
G01 X86.7618 Y4.3765
G01 X86.7624 Y4.3629
G00 X86.7624 Y4.3629
G01 F250.00
G01 Z-1.4000
G01 F1250.00
G01 X86.7618 Y4.3492
G01 X86.7598 Y4.3356
G01 X86.7564 Y4.3224
G01 X86.7518 Y4.3095
G01 X86.7460 Y4.2971
G01 X86.7389 Y4.2854
G01 X86.7308 Y4.2744
G01 X86.7216 Y4.2642
G01 X86.7114 Y4.2550
G01 X86.7004 Y4.2469
G01 X86.6887 Y4.2398
G01 X86.6763 Y4.2340
G01 X86.6634 Y4.2294
G01 X86.6502 Y4.2260
G01 X86.6366 Y4.2240
G01 X86.6229 Y4.2234
G01 X86.6093 Y4.2240
G01 X86.5957 Y4.2260
G01 X86.5824 Y4.2294
G01 X86.5696 Y4.2340
G01 X86.5572 Y4.2398
G01 X86.5454 Y4.2469
G01 X86.5344 Y4.2550
G01 X86.5243 Y4.2642
G01 X86.5151 Y4.2744
G01 X86.5069 Y4.2854
G01 X86.4999 Y4.2971
G01 X86.4941 Y4.3095
G01 X86.4894 Y4.3224
G01 X86.4861 Y4.3356
G01 X86.4841 Y4.3492
G01 X86.4834 Y4.3629
G01 X86.4841 Y4.3765
G01 X86.4861 Y4.3901
G01 X86.4894 Y4.4034
G01 X86.4941 Y4.4162
G01 X86.4999 Y4.4286
G01 X86.5069 Y4.4404
G01 X86.5151 Y4.4514
G01 X86.5243 Y4.4615
G01 X86.5344 Y4.4707
G01 X86.5454 Y4.4789
G01 X86.5572 Y4.4859
G01 X86.5696 Y4.4917
G01 X86.5824 Y4.4964
G01 X86.5957 Y4.4997
G01 X86.6093 Y4.5017
G01 X86.6229 Y4.5024
G01 X86.6366 Y4.5017
G01 X86.6502 Y4.4997
G01 X86.6634 Y4.4964
G01 X86.6763 Y4.4917
G01 X86.6887 Y4.4859
G01 X86.7004 Y4.4789
G01 X86.7114 Y4.4707
G01 X86.7216 Y4.4615
G01 X86.7308 Y4.4514
G01 X86.7389 Y4.4404
G01 X86.7460 Y4.4286
G01 X86.7518 Y4.4162
G01 X86.7564 Y4.4034
G01 X86.7598 Y4.3901
G01 X86.7618 Y4.3765
G01 X86.7624 Y4.3629
G00 X86.7624 Y4.3629
G01 F250.00
G01 Z-1.5000
G01 F1250.00
G01 X86.7618 Y4.3492
G01 X86.7598 Y4.3356
G01 X86.7564 Y4.3224
G01 X86.7518 Y4.3095
G01 X86.7460 Y4.2971
G01 X86.7389 Y4.2854
G01 X86.7308 Y4.2744
G01 X86.7216 Y4.2642
G01 X86.7114 Y4.2550
G01 X86.7004 Y4.2469
G01 X86.6887 Y4.2398
G01 X86.6763 Y4.2340
G01 X86.6634 Y4.2294
G01 X86.6502 Y4.2260
G01 X86.6366 Y4.2240
G01 X86.6229 Y4.2234
G01 X86.6093 Y4.2240
G01 X86.5957 Y4.2260
G01 X86.5824 Y4.2294
G01 X86.5696 Y4.2340
G01 X86.5572 Y4.2398
G01 X86.5454 Y4.2469
G01 X86.5344 Y4.2550
G01 X86.5243 Y4.2642
G01 X86.5151 Y4.2744
G01 X86.5069 Y4.2854
G01 X86.4999 Y4.2971
G01 X86.4941 Y4.3095
G01 X86.4894 Y4.3224
G01 X86.4861 Y4.3356
G01 X86.4841 Y4.3492
G01 X86.4834 Y4.3629
G01 X86.4841 Y4.3765
G01 X86.4861 Y4.3901
G01 X86.4894 Y4.4034
G01 X86.4941 Y4.4162
G01 X86.4999 Y4.4286
G01 X86.5069 Y4.4404
G01 X86.5151 Y4.4514
G01 X86.5243 Y4.4615
G01 X86.5344 Y4.4707
G01 X86.5454 Y4.4789
G01 X86.5572 Y4.4859
G01 X86.5696 Y4.4917
G01 X86.5824 Y4.4964
G01 X86.5957 Y4.4997
G01 X86.6093 Y4.5017
G01 X86.6229 Y4.5024
G01 X86.6366 Y4.5017
G01 X86.6502 Y4.4997
G01 X86.6634 Y4.4964
G01 X86.6763 Y4.4917
G01 X86.6887 Y4.4859
G01 X86.7004 Y4.4789
G01 X86.7114 Y4.4707
G01 X86.7216 Y4.4615
G01 X86.7308 Y4.4514
G01 X86.7389 Y4.4404
G01 X86.7460 Y4.4286
G01 X86.7518 Y4.4162
G01 X86.7564 Y4.4034
G01 X86.7598 Y4.3901
G01 X86.7618 Y4.3765
G01 X86.7624 Y4.3629
G00 X86.7624 Y4.3629
G01 F250.00
G01 Z-1.6000
G01 F1250.00
G01 X86.7618 Y4.3492
G01 X86.7598 Y4.3356
G01 X86.7564 Y4.3224
G01 X86.7518 Y4.3095
G01 X86.7460 Y4.2971
G01 X86.7389 Y4.2854
G01 X86.7308 Y4.2744
G01 X86.7216 Y4.2642
G01 X86.7114 Y4.2550
G01 X86.7004 Y4.2469
G01 X86.6887 Y4.2398
G01 X86.6763 Y4.2340
G01 X86.6634 Y4.2294
G01 X86.6502 Y4.2260
G01 X86.6366 Y4.2240
G01 X86.6229 Y4.2234
G01 X86.6093 Y4.2240
G01 X86.5957 Y4.2260
G01 X86.5824 Y4.2294
G01 X86.5696 Y4.2340
G01 X86.5572 Y4.2398
G01 X86.5454 Y4.2469
G01 X86.5344 Y4.2550
G01 X86.5243 Y4.2642
G01 X86.5151 Y4.2744
G01 X86.5069 Y4.2854
G01 X86.4999 Y4.2971
G01 X86.4941 Y4.3095
G01 X86.4894 Y4.3224
G01 X86.4861 Y4.3356
G01 X86.4841 Y4.3492
G01 X86.4834 Y4.3629
G01 X86.4841 Y4.3765
G01 X86.4861 Y4.3901
G01 X86.4894 Y4.4034
G01 X86.4941 Y4.4162
G01 X86.4999 Y4.4286
G01 X86.5069 Y4.4404
G01 X86.5151 Y4.4514
G01 X86.5243 Y4.4615
G01 X86.5344 Y4.4707
G01 X86.5454 Y4.4789
G01 X86.5572 Y4.4859
G01 X86.5696 Y4.4917
G01 X86.5824 Y4.4964
G01 X86.5957 Y4.4997
G01 X86.6093 Y4.5017
G01 X86.6229 Y4.5024
G01 X86.6366 Y4.5017
G01 X86.6502 Y4.4997
G01 X86.6634 Y4.4964
G01 X86.6763 Y4.4917
G01 X86.6887 Y4.4859
G01 X86.7004 Y4.4789
G01 X86.7114 Y4.4707
G01 X86.7216 Y4.4615
G01 X86.7308 Y4.4514
G01 X86.7389 Y4.4404
G01 X86.7460 Y4.4286
G01 X86.7518 Y4.4162
G01 X86.7564 Y4.4034
G01 X86.7598 Y4.3901
G01 X86.7618 Y4.3765
G01 X86.7624 Y4.3629
G00 X86.7624 Y4.3629
G01 F250.00
G01 Z-1.7000
G01 F1250.00
G01 X86.7618 Y4.3492
G01 X86.7598 Y4.3356
G01 X86.7564 Y4.3224
G01 X86.7518 Y4.3095
G01 X86.7460 Y4.2971
G01 X86.7389 Y4.2854
G01 X86.7308 Y4.2744
G01 X86.7216 Y4.2642
G01 X86.7114 Y4.2550
G01 X86.7004 Y4.2469
G01 X86.6887 Y4.2398
G01 X86.6763 Y4.2340
G01 X86.6634 Y4.2294
G01 X86.6502 Y4.2260
G01 X86.6366 Y4.2240
G01 X86.6229 Y4.2234
G01 X86.6093 Y4.2240
G01 X86.5957 Y4.2260
G01 X86.5824 Y4.2294
G01 X86.5696 Y4.2340
G01 X86.5572 Y4.2398
G01 X86.5454 Y4.2469
G01 X86.5344 Y4.2550
G01 X86.5243 Y4.2642
G01 X86.5151 Y4.2744
G01 X86.5069 Y4.2854
G01 X86.4999 Y4.2971
G01 X86.4941 Y4.3095
G01 X86.4894 Y4.3224
G01 X86.4861 Y4.3356
G01 X86.4841 Y4.3492
G01 X86.4834 Y4.3629
G01 X86.4841 Y4.3765
G01 X86.4861 Y4.3901
G01 X86.4894 Y4.4034
G01 X86.4941 Y4.4162
G01 X86.4999 Y4.4286
G01 X86.5069 Y4.4404
G01 X86.5151 Y4.4514
G01 X86.5243 Y4.4615
G01 X86.5344 Y4.4707
G01 X86.5454 Y4.4789
G01 X86.5572 Y4.4859
G01 X86.5696 Y4.4917
G01 X86.5824 Y4.4964
G01 X86.5957 Y4.4997
G01 X86.6093 Y4.5017
G01 X86.6229 Y4.5024
G01 X86.6366 Y4.5017
G01 X86.6502 Y4.4997
G01 X86.6634 Y4.4964
G01 X86.6763 Y4.4917
G01 X86.6887 Y4.4859
G01 X86.7004 Y4.4789
G01 X86.7114 Y4.4707
G01 X86.7216 Y4.4615
G01 X86.7308 Y4.4514
G01 X86.7389 Y4.4404
G01 X86.7460 Y4.4286
G01 X86.7518 Y4.4162
G01 X86.7564 Y4.4034
G01 X86.7598 Y4.3901
G01 X86.7618 Y4.3765
G01 X86.7624 Y4.3629
G00 Z0.5000
M05
G00 Z0.5000
G00 Z15.00
G00 X0.0 Y0.0

